%
(AB_VZBOT_TOOLHEAD)
(T3 D=4. CR=0. - ZMIN=-3.2 - FLAT END MILL)
(T8 D=8. CR=0. TAPER=45DEG - ZMIN=-2.55 - CHAMFER MILL)
(T14 D=2.35 CR=0. - ZMIN=-3.063 - THREAD MILL)
(T18 D=4. CR=2. - ZMIN=-2.086 - BALL END MILL)
(T44 D=2.9 CR=0. TAPER=130DEG - ZMIN=-3.876 - DRILL)
(T45 D=3.2 CR=0. TAPER=165DEG - ZMIN=-3.411 - DRILL)
(T46 D=2.5 CR=0. TAPER=130DEG - ZMIN=-3.783 - DRILL)
(T47 D=3.3 CR=0. TAPER=165DEG - ZMIN=-3.417 - DRILL)
G90 G94 G17 G91.1
G21
G53 G0 Z0.
(DRILL1)
T46 M600
S19099 M300
G17 G90 G94
G54
M7
G0 X12. Y31.878
G43 Z15. H46
G0 Z5.
Z2.
G1 Z-2. F572.96
G0 Z-1.9
G1 Z-3.783 F572.96
G0 Z5.
Y41.378
Z2.
G1 Z-2. F572.96
G0 Z-1.9
G1 Z-3.783 F572.96
G0 Z5.
Y47.378
Z2.
G1 Z-2. F572.96
G0 Z-1.9
G1 Z-3.783 F572.96
G0 Z5.
X20.5 Y55.861
Z2.
G1 Z-2. F572.96
G0 Z-1.9
G1 Z-3.783 F572.96
G0 Z5.
X38.5
Z2.
G1 Z-2. F572.96
G0 Z-1.9
G1 Z-3.783 F572.96
G0 Z5.
X47. Y47.378
Z2.
G1 Z-2. F572.96
G0 Z-1.9
G1 Z-3.783 F572.96
G0 Z5.
Y41.378
Z2.
G1 Z-2. F572.96
G0 Z-1.9
G1 Z-3.783 F572.96
G0 Z5.
Y31.878
Z2.
G1 Z-2. F572.96
G0 Z-1.9
G1 Z-3.783 F572.96
G0 Z5.
X47.5 Y11.667
Z2.
G1 Z-2. F572.96
G0 Z-1.9
G1 Z-3.783 F572.96
G0 Z5.
X45.5 Y8.667
Z2.
G1 Z-2. F572.96
G0 Z-1.9
G1 Z-3.783 F572.96
G0 Z5.
X15.5 Y11.667
Z2.
G1 Z-2. F572.96
G0 Z-1.9
G1 Z-3.783 F572.96
G0 Z5.
X13.5 Y8.667
Z2.
G1 Z-2. F572.96
G0 Z-1.9
G1 Z-3.783 F572.96
G0 Z5.
Z15.
M500
G53 G0 Z0.
(DRILL2)
M9
M1
T44 M600
S16465 M300
G17 G90 G94
G54
M7
G0 X35.202 Y17.225
G43 Z15. H44
G0 Z5.
Z2.
G1 Z-2. F494.
G0 Z-1.9
G1 Z-3.876 F494.
G0 Z5.
Y6.003
Z2.
G1 Z-2. F494.
G0 Z-1.9
G1 Z-3.876 F494.
G0 Z5.
X23.798
Z2.
G1 Z-2. F494.
G0 Z-1.9
G1 Z-3.876 F494.
G0 Z5.
Y17.225
Z2.
G1 Z-2. F494.
G0 Z-1.9
G1 Z-3.876 F494.
G0 Z5.
Z15.
M500
G53 G0 Z0.
(DRILL3)
M9
M1
T45 M600
S14921 M300
G17 G90 G94
G54
M7
G0 X12. Y58.861
G43 Z15. H45
G0 Z5.
Z2.
G1 Z-2. F149.21
G0 Z-1.9
G1 Z-3.411 F149.21
G0 Z5.
X47.
Z2.
G1 Z-2. F149.21
G0 Z-1.9
G1 Z-3.411 F149.21
G0 Z5.
Z15.
M500
G53 G0 Z0.
(DRILL4)
M9
M1
T47 M600
S14469 M300
G17 G90 G94
G54
M7
G0 X52. Y22.167
G43 Z15. H47
G0 Z5.
Z2.
G1 Z-2. F144.69
G0 Z-1.9
G1 Z-3.417 F144.69
G0 Z5.
X51.839 Y15.174
Z2.
G1 Z-2. F144.69
G0 Z-1.9
G1 Z-3.417 F144.69
G0 Z5.
X37.5 Y31.721
Z2.
G1 Z-2. F144.69
G0 Z-1.9
G1 Z-3.417 F144.69
G0 Z5.
Y46.721
Z2.
G1 Z-2. F144.69
G0 Z-1.9
G1 Z-3.417 F144.69
G0 Z5.
X21.5
Z2.
G1 Z-2. F144.69
G0 Z-1.9
G1 Z-3.417 F144.69
G0 Z5.
Y31.721
Z2.
G1 Z-2. F144.69
G0 Z-1.9
G1 Z-3.417 F144.69
G0 Z5.
X7. Y15.001
Z2.
G1 Z-2. F144.69
G0 Z-1.9
G1 Z-3.417 F144.69
G0 Z5.
Y22.201
Z2.
G1 Z-2. F144.69
G0 Z-1.9
G1 Z-3.417 F144.69
G0 Z5.
Z15.
M9
M500
G53 G0 Z0.
(BORE2)
M1
T18 M600
S24000 M300
G17 G90 G94
G54
G64 P0.01 Q0.01
G0 X4.928 Y15.101
G43 Z15. H18
G0 Z2.
G1 Z0.1 F1300.
X4.921 Z0.062
X4.899 Z0.029
X4.867 Z0.008
X4.828 Z0.
X4.728
X4.69 Y15.094
X4.658 Y15.072
X4.636 Y15.04
X4.628 Y15.001
X4.638 Y14.807 Z-0.002
X4.664 Y14.614 Z-0.004
X4.706 Y14.425 Z-0.006
X4.763 Y14.239 Z-0.008
X4.835 Y14.059 Z-0.01
X4.921 Y13.886 Z-0.013
X5.022 Y13.72 Z-0.015
X5.135 Y13.564 Z-0.017
X5.261 Y13.417 Z-0.019
X5.398 Y13.281 Z-0.021
X5.546 Y13.157 Z-0.023
X5.703 Y13.046 Z-0.025
X5.869 Y12.948 Z-0.027
X6.042 Y12.864 Z-0.029
X6.221 Y12.794 Z-0.031
X6.405 Y12.74 Z-0.033
X6.593 Y12.701 Z-0.035
X6.783 Y12.677 Z-0.038
X6.974 Y12.669 Z-0.04
X7.165 Y12.677 Z-0.042
X7.355 Y12.701 Z-0.044
X7.542 Y12.74 Z-0.046
X7.725 Y12.794 Z-0.048
X7.903 Y12.862 Z-0.05
X8.074 Y12.946 Z-0.052
X8.238 Y13.042 Z-0.054
X8.393 Y13.152 Z-0.056
X8.539 Y13.274 Z-0.058
X8.674 Y13.408 Z-0.06
X8.797 Y13.551 Z-0.063
X8.908 Y13.705 Z-0.065
X9.006 Y13.867 Z-0.067
X9.091 Y14.036 Z-0.069
X9.161 Y14.211 Z-0.071
X9.216 Y14.392 Z-0.073
X9.257 Y14.576 Z-0.075
X9.282 Y14.763 Z-0.077
X9.292 Y14.951 Z-0.079
X9.286 Y15.139 Z-0.081
X9.265 Y15.325 Z-0.083
X9.229 Y15.509 Z-0.086
X9.178 Y15.69 Z-0.088
X9.112 Y15.865 Z-0.09
X9.032 Y16.035 Z-0.092
X8.939 Y16.197 Z-0.094
X8.833 Y16.35 Z-0.096
X8.714 Y16.495 Z-0.098
X8.584 Y16.629 Z-0.1
X8.444 Y16.752 Z-0.102
X8.295 Y16.862 Z-0.104
X8.137 Y16.961 Z-0.106
X7.971 Y17.045 Z-0.108
X7.8 Y17.116 Z-0.111
X7.623 Y17.173 Z-0.113
X7.442 Y17.214 Z-0.115
X7.259 Y17.241 Z-0.117
X7.075 Y17.253 Z-0.119
X6.89 Y17.249 Z-0.121
X6.706 Y17.231 Z-0.123
X6.525 Y17.197 Z-0.125
X6.347 Y17.149 Z-0.127
X6.174 Y17.086 Z-0.129
X6.007 Y17.009 Z-0.131
X5.846 Y16.919 Z-0.133
X5.694 Y16.816 Z-0.136
X5.551 Y16.702 Z-0.138
X5.418 Y16.576 Z-0.14
X5.296 Y16.439 Z-0.142
X5.185 Y16.294 Z-0.144
X5.087 Y16.139 Z-0.146
X5.002 Y15.978 Z-0.148
X4.931 Y15.81 Z-0.15
X4.874 Y15.637 Z-0.152
X4.831 Y15.46 Z-0.154
X4.803 Y15.28 Z-0.156
X4.789 Y15.099 Z-0.159
X4.791 Y14.918 Z-0.161
X4.807 Y14.737 Z-0.163
X4.838 Y14.558 Z-0.165
X4.884 Y14.383 Z-0.167
X4.943 Y14.212 Z-0.169
X5.017 Y14.047 Z-0.171
X5.104 Y13.889 Z-0.173
X5.203 Y13.738 Z-0.175
X5.314 Y13.597 Z-0.177
X5.436 Y13.465 Z-0.179
X5.569 Y13.343 Z-0.181
X5.711 Y13.233 Z-0.184
X5.862 Y13.135 Z-0.186
X6.019 Y13.05 Z-0.188
X6.183 Y12.978 Z-0.19
X6.353 Y12.92 Z-0.192
X6.526 Y12.876 Z-0.194
X6.702 Y12.846 Z-0.196
X6.88 Y12.831 Z-0.198
X7.058 Z-0.2
X7.236 Y12.845 Z-0.202
X7.411 Y12.874 Z-0.204
X7.584 Y12.916 Z-0.206
X7.752 Y12.973 Z-0.209
X7.915 Y13.044 Z-0.211
X8.072 Y13.127 Z-0.213
X8.22 Y13.223 Z-0.215
X8.361 Y13.331 Z-0.217
X8.492 Y13.449 Z-0.219
X8.612 Y13.578 Z-0.221
X8.722 Y13.717 Z-0.223
X8.82 Y13.863 Z-0.225
X8.905 Y14.017 Z-0.227
X8.977 Y14.178 Z-0.229
X9.036 Y14.343 Z-0.232
X9.081 Y14.513 Z-0.234
X9.112 Y14.685 Z-0.236
X9.129 Y14.86 Z-0.238
X9.131 Y15.035 Z-0.24
X9.119 Y15.209 Z-0.242
X9.093 Y15.382 Z-0.244
X9.053 Y15.552 Z-0.246
X8.999 Y15.718 Z-0.248
X8.931 Y15.878 Z-0.25
X8.851 Y16.033 Z-0.252
X8.759 Y16.18 Z-0.254
X8.654 Y16.319 Z-0.257
X8.539 Y16.449 Z-0.259
X8.414 Y16.568 Z-0.261
X8.28 Y16.677 Z-0.263
X8.137 Y16.775 Z-0.265
X7.986 Y16.86 Z-0.267
X7.83 Y16.933 Z-0.269
X7.668 Y16.993 Z-0.271
X7.502 Y17.039 Z-0.273
X7.333 Y17.071 Z-0.275
X7.162 Y17.089 Z-0.277
X6.99 Y17.093 Z-0.279
X6.819 Y17.083 Z-0.282
X6.649 Y17.059 Z-0.284
X6.482 Y17.022 Z-0.286
X6.319 Y16.97 Z-0.288
X6.16 Y16.906 Z-0.29
X6.008 Y16.829 Z-0.292
X5.863 Y16.74 Z-0.294
X5.725 Y16.639 Z-0.296
X5.597 Y16.527 Z-0.298
X5.478 Y16.406 Z-0.3
X5.369 Y16.275 Z-0.302
X5.272 Y16.136 Z-0.305
X5.187 Y15.989 Z-0.307
X5.114 Y15.836 Z-0.309
X5.054 Y15.678 Z-0.311
X5.007 Y15.516 Z-0.313
X4.973 Y15.35 Z-0.315
X4.953 Y15.183 Z-0.317
X4.948 Y15.014 Z-0.319
X4.956 Y14.846 Z-0.321
X4.977 Y14.679 Z-0.323
X5.012 Y14.515 Z-0.325
X5.061 Y14.354 Z-0.327
X5.122 Y14.198 Z-0.33
X5.197 Y14.048 Z-0.332
X5.283 Y13.904 Z-0.334
X5.38 Y13.769 Z-0.336
X5.488 Y13.641 Z-0.338
X5.606 Y13.523 Z-0.34
X5.733 Y13.416 Z-0.342
X5.869 Y13.319 Z-0.344
X6.011 Y13.234 Z-0.346
X6.161 Y13.16 Z-0.348
X6.315 Y13.1 Z-0.35
X6.474 Y13.052 Z-0.352
X6.636 Y13.017 Z-0.355
X6.8 Y12.996 Z-0.357
X6.965 Y12.989 Z-0.359
X7.13 Y12.995 Z-0.361
X7.294 Y13.014 Z-0.363
X7.455 Y13.047 Z-0.365
X7.613 Y13.093 Z-0.367
X7.767 Y13.152 Z-0.369
X7.915 Y13.223 Z-0.371
X8.057 Y13.305 Z-0.373
X8.191 Y13.399 Z-0.375
X8.317 Y13.504 Z-0.378
X8.434 Y13.619 Z-0.38
X8.541 Y13.742 Z-0.382
X8.637 Y13.874 Z-0.384
X8.722 Y14.013 Z-0.386
X8.796 Y14.158 Z-0.388
X8.857 Y14.309 Z-0.39
X8.905 Y14.464 Z-0.392
X8.941 Y14.623 Z-0.394
X8.963 Y14.783 Z-0.396
X8.972 Y14.945 Z-0.398
X8.968 Y15.107 Z-0.4
X8.951 Y15.268 Z-0.403
X8.92 Y15.426 Z-0.405
X8.877 Y15.582 Z-0.407
X8.821 Y15.733 Z-0.409
X8.753 Y15.879 Z-0.411
X8.674 Y16.019 Z-0.413
X8.583 Y16.151 Z-0.415
X8.482 Y16.276 Z-0.417
X8.371 Y16.392 Z-0.419
X8.251 Y16.498 Z-0.421
X8.123 Y16.593 Z-0.423
X7.987 Y16.678 Z-0.426
X7.845 Y16.752 Z-0.428
X7.698 Y16.813 Z-0.43
X7.547 Y16.862 Z-0.432
X7.392 Y16.899 Z-0.434
X7.235 Y16.923 Z-0.436
X7.076 Y16.933 Z-0.438
X6.918 Y16.931 Z-0.44
X6.76 Y16.916 Z-0.442
X6.604 Y16.887 Z-0.444
X6.452 Y16.847 Z-0.446
X6.303 Y16.794 Z-0.448
X6.159 Y16.728 Z-0.451
X6.021 Y16.652 Z-0.453
X5.89 Y16.564 Z-0.455
X5.767 Y16.467 Z-0.457
X5.653 Y16.359 Z-0.459
X5.548 Y16.243 Z-0.461
X5.452 Y16.118 Z-0.463
X5.368 Y15.986 Z-0.465
X5.294 Y15.848 Z-0.467
X5.233 Y15.705 Z-0.469
X5.183 Y15.557 Z-0.471
X5.145 Y15.406 Z-0.473
X5.121 Y15.252 Z-0.476
X5.108 Y15.097 Z-0.478
X5.109 Y14.942 Z-0.48
X5.122 Y14.787 Z-0.482
X5.148 Y14.634 Z-0.484
X5.187 Y14.484 Z-0.486
X5.237 Y14.338 Z-0.488
X5.299 Y14.196 Z-0.49
X5.373 Y14.061 Z-0.492
X5.457 Y13.932 Z-0.494
X5.552 Y13.81 Z-0.496
X5.656 Y13.697 Z-0.499
X5.769 Y13.593 Z-0.501
X5.89 Y13.498 Z-0.503
X6.018 Y13.414 Z-0.505
X6.152 Y13.34 Z-0.507
X6.292 Y13.278 Z-0.509
X6.436 Y13.228 Z-0.511
X6.584 Y13.19 Z-0.513
X6.734 Y13.164 Z-0.515
X6.886 Y13.15 Z-0.517
X7.038 Y13.149 Z-0.519
X7.19 Y13.161 Z-0.521
X7.339 Y13.185 Z-0.524
X7.487 Y13.221 Z-0.526
X7.63 Y13.268 Z-0.528
X7.769 Y13.328 Z-0.53
X7.903 Y13.398 Z-0.532
X8.03 Y13.48 Z-0.534
X8.15 Y13.571 Z-0.536
X8.262 Y13.672 Z-0.538
X8.365 Y13.781 Z-0.54
X8.459 Y13.898 Z-0.542
X8.543 Y14.023 Z-0.544
X8.616 Y14.154 Z-0.546
X8.678 Y14.29 Z-0.549
X8.729 Y14.43 Z-0.551
X8.768 Y14.575 Z-0.553
X8.795 Y14.721 Z-0.555
X8.81 Y14.87 Z-0.557
X8.813 Y15.018 Z-0.559
X8.803 Y15.167 Z-0.561
X8.781 Y15.314 Z-0.563
X8.748 Y15.458 Z-0.565
X8.702 Y15.599 Z-0.567
X8.646 Y15.736 Z-0.569
X8.578 Y15.867 Z-0.572
X8.5 Y15.993 Z-0.574
X8.412 Y16.111 Z-0.576
X8.315 Y16.222 Z-0.578
X8.209 Y16.324 Z-0.58
X8.095 Y16.417 Z-0.582
X7.974 Y16.5 Z-0.584
X7.847 Y16.573 Z-0.586
X7.714 Y16.635 Z-0.588
X7.577 Y16.686 Z-0.59
X7.436 Y16.726 Z-0.592
X7.293 Y16.754 Z-0.594
X7.148 Y16.77 Z-0.597
X7.003 Y16.774 Z-0.599
X6.858 Y16.766 Z-0.601
X6.714 Y16.747 Z-0.603
X6.572 Y16.715 Z-0.605
X6.434 Y16.672 Z-0.607
X6.299 Y16.618 Z-0.609
X6.17 Y16.554 Z-0.611
X6.047 Y16.479 Z-0.613
X5.93 Y16.394 Z-0.615
X5.821 Y16.3 Z-0.617
X5.72 Y16.197 Z-0.619
X5.628 Y16.087 Z-0.622
X5.545 Y15.97 Z-0.624
X5.472 Y15.846 Z-0.626
X5.41 Y15.717 Z-0.628
X5.359 Y15.584 Z-0.63
X5.318 Y15.447 Z-0.632
X5.29 Y15.307 Z-0.634
X5.272 Y15.165 Z-0.636
X5.267 Y15.023 Z-0.638
X5.273 Y14.881 Z-0.64
X5.291 Y14.74 Z-0.642
X5.32 Y14.601 Z-0.645
X5.36 Y14.466 Z-0.647
X5.412 Y14.334 Z-0.649
X5.474 Y14.207 Z-0.651
X5.546 Y14.085 Z-0.653
X5.627 Y13.97 Z-0.655
X5.718 Y13.863 Z-0.657
X5.817 Y13.763 Z-0.659
X5.924 Y13.672 Z-0.661
X6.038 Y13.59 Z-0.663
X6.158 Y13.517 Z-0.665
X6.283 Y13.455 Z-0.667
X6.413 Y13.404 Z-0.67
X6.547 Y13.363 Z-0.672
X6.683 Y13.333 Z-0.674
X6.821 Y13.315 Z-0.676
X6.96 Y13.308 Z-0.678
X7.099 Y13.313 Z-0.68
X7.237 Y13.328 Z-0.682
X7.373 Y13.355 Z-0.684
X7.506 Y13.394 Z-0.686
X7.635 Y13.442 Z-0.688
X7.76 Y13.502 Z-0.69
X7.879 Y13.571 Z-0.692
X7.992 Y13.649 Z-0.695
X8.098 Y13.737 Z-0.697
X8.197 Y13.832 Z-0.699
X8.287 Y13.936 Z-0.701
X8.368 Y14.046 Z-0.703
X8.44 Y14.163 Z-0.705
X8.502 Y14.284 Z-0.707
X8.554 Y14.411 Z-0.709
X8.595 Y14.541 Z-0.711
X8.626 Y14.674 Z-0.713
X8.645 Y14.808 Z-0.715
X8.653 Y14.944 Z-0.718
X8.65 Y15.079 Z-0.72
X8.636 Y15.214 Z-0.722
X8.611 Y15.347 Z-0.724
X8.575 Y15.478 Z-0.726
X8.529 Y15.604 Z-0.728
X8.472 Y15.727 Z-0.73
X8.406 Y15.844 Z-0.732
X8.331 Y15.955 Z-0.734
X8.246 Y16.06 Z-0.736
X8.154 Y16.157 Z-0.738
X8.054 Y16.246 Z-0.74
X7.947 Y16.327 Z-0.743
X7.834 Y16.398 Z-0.745
X7.716 Y16.46 Z-0.747
X7.593 Y16.512 Z-0.749
X7.467 Y16.553 Z-0.751
X7.337 Y16.584 Z-0.753
X7.206 Y16.605 Z-0.755
X7.074 Y16.614 Z-0.757
X6.941 Y16.613 Z-0.759
X6.81 Y16.6 Z-0.761
X6.68 Y16.577 Z-0.763
X6.552 Y16.544 Z-0.765
X6.428 Y16.5 Z-0.768
X6.308 Y16.446 Z-0.77
X6.193 Y16.383 Z-0.772
X6.083 Y16.31 Z-0.774
X5.981 Y16.229 Z-0.776
X5.885 Y16.14 Z-0.778
X5.797 Y16.043 Z-0.78
X5.717 Y15.94 Z-0.782
X5.646 Y15.83 Z-0.784
X5.585 Y15.715 Z-0.786
X5.533 Y15.596 Z-0.788
X5.491 Y15.473 Z-0.791
X5.459 Y15.347 Z-0.793
X5.438 Y15.22 Z-0.795
X5.428 Y15.091 Z-0.797
Y14.962 Z-0.799
X5.438 Y14.833 Z-0.801
X5.46 Y14.706 Z-0.803
X5.491 Y14.581 Z-0.805
X5.532 Y14.46 Z-0.807
X5.584 Y14.342 Z-0.809
X5.644 Y14.229 Z-0.811
X5.714 Y14.122 Z-0.813
X5.792 Y14.02 Z-0.816
X5.878 Y13.926 Z-0.818
X5.971 Y13.839 Z-0.82
X6.071 Y13.761 Z-0.822
X6.177 Y13.69 Z-0.824
X6.289 Y13.629 Z-0.826
X6.404 Y13.577 Z-0.828
X6.524 Y13.535 Z-0.83
X6.646 Y13.503 Z-0.832
X6.77 Y13.481 Z-0.834
X6.896 Y13.47 Z-0.836
X7.022 Y13.468 Z-0.838
X7.147 Y13.477 Z-0.841
X7.271 Y13.497 Z-0.843
X7.393 Y13.526 Z-0.845
X7.512 Y13.565 Z-0.847
X7.627 Y13.614 Z-0.849
X7.738 Y13.672 Z-0.851
X7.843 Y13.739 Z-0.853
X7.943 Y13.814 Z-0.855
X8.036 Y13.896 Z-0.857
X8.121 Y13.986 Z-0.859
X8.199 Y14.083 Z-0.861
X8.268 Y14.186 Z-0.864
X8.329 Y14.293 Z-0.866
X8.381 Y14.406 Z-0.868
X8.423 Y14.521 Z-0.87
X8.456 Y14.64 Z-0.872
X8.478 Y14.761 Z-0.874
X8.491 Y14.883 Z-0.876
X8.493 Y15.006 Z-0.878
X8.486 Y15.128 Z-0.88
X8.468 Y15.249 Z-0.882
X8.441 Y15.368 Z-0.884
X8.404 Y15.485 Z-0.886
X8.358 Y15.597 Z-0.889
X8.303 Y15.706 Z-0.891
X8.239 Y15.809 Z-0.893
X8.167 Y15.907 Z-0.895
X8.087 Y15.998 Z-0.897
X8. Y16.082 Z-0.899
X7.907 Y16.159 Z-0.901
X7.808 Y16.228 Z-0.903
X7.704 Y16.288 Z-0.905
X7.595 Y16.339 Z-0.907
X7.482 Y16.382 Z-0.909
X7.367 Y16.414 Z-0.911
X7.25 Y16.438 Z-0.914
X7.131 Y16.451 Z-0.916
X7.011 Y16.455 Z-0.918
X6.892 Y16.449 Z-0.92
X6.774 Y16.433 Z-0.922
X6.658 Y16.408 Z-0.924
X6.545 Y16.373 Z-0.926
X6.434 Y16.329 Z-0.928
X6.328 Y16.277 Z-0.93
X6.227 Y16.215 Z-0.932
X6.132 Y16.146 Z-0.934
X6.042 Y16.07 Z-0.937
X5.959 Y15.986 Z-0.939
X5.883 Y15.896 Z-0.941
X5.816 Y15.8 Z-0.943
X5.756 Y15.7 Z-0.945
X5.705 Y15.594 Z-0.947
X5.662 Y15.485 Z-0.949
X5.629 Y15.374 Z-0.951
X5.605 Y15.26 Z-0.953
X5.591 Y15.144 Z-0.955
X5.586 Y15.028 Z-0.957
X5.591 Y14.912 Z-0.959
X5.605 Y14.797 Z-0.962
X5.628 Y14.684 Z-0.964
X5.661 Y14.573 Z-0.966
X5.702 Y14.466 Z-0.968
X5.753 Y14.362 Z-0.97
X5.811 Y14.263 Z-0.972
X5.877 Y14.169 Z-0.974
X5.951 Y14.081 Z-0.976
X6.031 Y14. Z-0.978
X6.118 Y13.925 Z-0.98
X6.21 Y13.858 Z-0.982
X6.308 Y13.799 Z-0.984
X6.41 Y13.748 Z-0.987
X6.515 Y13.706 Z-0.989
X6.623 Y13.673 Z-0.991
X6.734 Y13.648 Z-0.993
X6.846 Y13.633 Z-0.995
X6.959 Y13.627 Z-0.997
X7.071 Y13.631 Z-0.999
X7.183 Y13.643 Z-1.001
X7.294 Y13.665 Z-1.003
X7.402 Y13.695 Z-1.005
X7.507 Y13.735 Z-1.007
X7.608 Y13.782 Z-1.01
X7.705 Y13.838 Z-1.012
X7.796 Y13.901 Z-1.014
X7.883 Y13.972 Z-1.016
X7.963 Y14.049 Z-1.018
X8.036 Y14.133 Z-1.02
X8.102 Y14.222 Z-1.022
X8.16 Y14.316 Z-1.024
X8.211 Y14.414 Z-1.026
X8.253 Y14.516 Z-1.028
X8.286 Y14.621 Z-1.03
X8.311 Y14.728 Z-1.032
X8.327 Y14.837 Z-1.035
X8.334 Y14.947 Z-1.037
X8.332 Y15.056 Z-1.039
X8.321 Y15.165 Z-1.041
X8.301 Y15.272 Z-1.043
X8.272 Y15.377 Z-1.045
X8.235 Y15.48 Z-1.047
X8.19 Y15.578 Z-1.049
X8.137 Y15.673 Z-1.051
X8.076 Y15.763 Z-1.053
X8.009 Y15.847 Z-1.055
X7.934 Y15.925 Z-1.057
X7.854 Y15.997 Z-1.06
X7.768 Y16.062 Z-1.062
X7.678 Y16.12 Z-1.064
X7.583 Y16.17 Z-1.066
X7.484 Y16.212 Z-1.068
X7.383 Y16.245 Z-1.07
X7.279 Y16.27 Z-1.072
X7.174 Y16.287 Z-1.074
X7.067 Y16.295 Z-1.076
X6.961 Y16.294 Z-1.078
X6.856 Y16.284 Z-1.08
X6.751 Y16.266 Z-1.083
X6.649 Y16.239 Z-1.085
X6.549 Y16.205 Z-1.087
X6.453 Y16.162 Z-1.089
X6.361 Y16.111 Z-1.091
X6.273 Y16.053 Z-1.093
X6.191 Y15.988 Z-1.095
X6.114 Y15.917 Z-1.097
X6.043 Y15.84 Z-1.099
X5.979 Y15.758 Z-1.101
X5.923 Y15.67 Z-1.103
X5.873 Y15.579 Z-1.105
X5.832 Y15.484 Z-1.108
X5.798 Y15.386 Z-1.11
X5.773 Y15.285 Z-1.112
X5.755 Y15.183 Z-1.114
X5.747 Y15.08 Z-1.116
Y14.978 Z-1.118
X5.755 Y14.875 Z-1.12
X5.771 Y14.774 Z-1.122
X5.796 Y14.674 Z-1.124
X5.829 Y14.577 Z-1.126
X5.87 Y14.484 Z-1.128
X5.918 Y14.394 Z-1.13
X5.973 Y14.308 Z-1.133
X6.035 Y14.228 Z-1.135
X6.103 Y14.153 Z-1.137
X6.177 Y14.083 Z-1.139
X6.256 Y14.021 Z-1.141
X6.34 Y13.965 Z-1.143
X6.429 Y13.916 Z-1.145
X6.52 Y13.875 Z-1.147
X6.615 Y13.841 Z-1.149
X6.712 Y13.816 Z-1.151
X6.81 Y13.798 Z-1.153
X6.91 Y13.789 Z-1.156
X7.01 Y13.787 Z-1.158
X7.109 Y13.794 Z-1.16
X7.207 Y13.809 Z-1.162
X7.304 Y13.832 Z-1.164
X7.398 Y13.863 Z-1.166
X7.489 Y13.902 Z-1.168
X7.576 Y13.947 Z-1.17
X7.66 Y14. Z-1.172
X7.738 Y14.059 Z-1.174
X7.812 Y14.124 Z-1.176
X7.879 Y14.195 Z-1.178
X7.941 Y14.271 Z-1.181
X7.996 Y14.352 Z-1.183
X8.044 Y14.437 Z-1.185
X8.085 Y14.525 Z-1.187
X8.118 Y14.616 Z-1.189
X8.144 Y14.71 Z-1.191
X8.162 Y14.805 Z-1.193
X8.172 Y14.901 Z-1.195
X8.174 Y14.998 Z-1.197
X8.169 Y15.094 Z-1.199
X8.155 Y15.189 Z-1.201
X8.134 Y15.282 Z-1.203
X8.105 Y15.374 Z-1.206
X8.069 Y15.462 Z-1.208
X8.025 Y15.547 Z-1.21
X7.975 Y15.629 Z-1.212
X7.919 Y15.705 Z-1.214
X7.857 Y15.777 Z-1.216
X7.789 Y15.843 Z-1.218
X7.716 Y15.903 Z-1.22
X7.638 Y15.957 Z-1.222
X7.557 Y16.004 Z-1.224
X7.472 Y16.045 Z-1.226
X7.384 Y16.078 Z-1.229
X7.294 Y16.104 Z-1.231
X7.202 Y16.122 Z-1.233
X7.109 Y16.133 Z-1.235
X7.016 Y16.136 Z-1.237
X6.923 Y16.131 Z-1.239
X6.831 Y16.119 Z-1.241
X6.74 Y16.099 Z-1.243
X6.652 Y16.072 Z-1.245
X6.566 Y16.038 Z-1.247
X6.483 Y15.997 Z-1.249
X6.405 Y15.95 Z-1.251
X6.33 Y15.896 Z-1.254
X6.26 Y15.837 Z-1.256
X6.196 Y15.772 Z-1.258
X6.137 Y15.702 Z-1.26
X6.084 Y15.628 Z-1.262
X6.038 Y15.549 Z-1.264
X5.998 Y15.468 Z-1.266
X5.965 Y15.383 Z-1.268
X5.939 Y15.297 Z-1.27
X5.92 Y15.208 Z-1.272
X5.909 Y15.119 Z-1.274
X5.905 Y15.029 Z-1.277
X5.909 Y14.939 Z-1.279
X5.92 Y14.85 Z-1.281
X5.938 Y14.763 Z-1.283
X5.963 Y14.677 Z-1.285
X5.995 Y14.594 Z-1.287
X6.034 Y14.514 Z-1.289
X6.079 Y14.437 Z-1.291
X6.13 Y14.365 Z-1.293
X6.186 Y14.297 Z-1.295
X6.248 Y14.234 Z-1.297
X6.315 Y14.176 Z-1.299
X6.386 Y14.125 Z-1.302
X6.461 Y14.079 Z-1.304
X6.539 Y14.04 Z-1.306
X6.621 Y14.007 Z-1.308
X6.704 Y13.982 Z-1.31
X6.789 Y13.963 Z-1.312
X6.875 Y13.951 Z-1.314
X6.962 Y13.947 Z-1.316
X7.048 Y13.949 Z-1.318
X7.134 Y13.959 Z-1.32
X7.219 Y13.975 Z-1.322
X7.301 Y13.999 Z-1.324
X7.382 Y14.029 Z-1.327
X7.46 Y14.065 Z-1.329
X7.534 Y14.108 Z-1.331
X7.604 Y14.156 Z-1.333
X7.67 Y14.21 Z-1.335
X7.731 Y14.269 Z-1.337
X7.787 Y14.333 Z-1.339
X7.837 Y14.401 Z-1.341
X7.882 Y14.473 Z-1.343
X7.921 Y14.548 Z-1.345
X7.953 Y14.625 Z-1.347
X7.978 Y14.705 Z-1.35
X7.997 Y14.787 Z-1.352
X8.009 Y14.87 Z-1.354
X8.015 Y14.953 Z-1.356
X8.013 Y15.036 Z-1.358
X8.005 Y15.119 Z-1.36
X7.99 Y15.201 Z-1.362
X7.968 Y15.281 Z-1.364
X7.94 Y15.358 Z-1.366
X7.905 Y15.433 Z-1.368
X7.865 Y15.505 Z-1.37
X7.819 Y15.573 Z-1.372
X7.768 Y15.637 Z-1.375
X7.712 Y15.696 Z-1.377
X7.651 Y15.751 Z-1.379
X7.586 Y15.8 Z-1.381
X7.518 Y15.844 Z-1.383
X7.446 Y15.881 Z-1.385
X7.371 Y15.913 Z-1.387
X7.295 Y15.938 Z-1.389
X7.216 Y15.957 Z-1.391
X7.137 Y15.97 Z-1.393
X7.057 Y15.976 Z-1.395
X6.977 Y15.975 Z-1.397
X6.897 Y15.968 Z-1.4
X6.819 Y15.954 Z-1.402
X6.742 Y15.934 Z-1.404
X6.667 Y15.908 Z-1.406
X6.595 Y15.876 Z-1.408
X6.525 Y15.838 Z-1.41
X6.46 Y15.794 Z-1.412
X6.398 Y15.745 Z-1.414
X6.34 Y15.692 Z-1.416
X6.287 Y15.634 Z-1.418
X6.239 Y15.572 Z-1.42
X6.197 Y15.507 Z-1.423
X6.16 Y15.438 Z-1.425
X6.129 Y15.367 Z-1.427
X6.104 Y15.294 Z-1.429
X6.085 Y15.219 Z-1.431
X6.072 Y15.143 Z-1.433
X6.066 Y15.066 Z-1.435
Y14.989 Z-1.437
X6.072 Y14.913 Z-1.439
X6.084 Y14.838 Z-1.441
X6.103 Y14.764 Z-1.443
X6.127 Y14.692 Z-1.445
X6.157 Y14.622 Z-1.448
X6.193 Y14.555 Z-1.45
X6.234 Y14.492 Z-1.452
X6.28 Y14.432 Z-1.454
X6.331 Y14.376 Z-1.456
X6.386 Y14.325 Z-1.458
X6.445 Y14.278 Z-1.46
X6.507 Y14.237 Z-1.462
X6.572 Y14.201 Z-1.464
X6.64 Y14.171 Z-1.466
X6.71 Y14.146 Z-1.468
X6.782 Y14.127 Z-1.47
X6.854 Y14.114 Z-1.473
X6.928 Y14.107 Z-1.475
X7.001 Y14.106 Z-1.477
X7.075 Y14.112 Z-1.479
X7.147 Y14.123 Z-1.481
X7.218 Y14.14 Z-1.483
X7.287 Y14.163 Z-1.485
X7.354 Y14.191 Z-1.487
X7.418 Y14.224 Z-1.489
X7.48 Y14.263 Z-1.491
X7.537 Y14.307 Z-1.493
X7.591 Y14.355 Z-1.496
X7.641 Y14.407 Z-1.498
X7.685 Y14.462 Z-1.5
X7.726 Y14.522 Z-1.502
X7.761 Y14.584 Z-1.504
X7.79 Y14.648 Z-1.506
X7.815 Y14.715 Z-1.508
X7.833 Y14.783 Z-1.51
X7.846 Y14.853 Z-1.512
X7.854 Y14.923 Z-1.514
X7.855 Y14.993 Z-1.516
X7.851 Y15.063 Z-1.518
X7.841 Y15.132 Z-1.521
X7.825 Y15.2 Z-1.523
X7.804 Y15.267 Z-1.525
X7.778 Y15.331 Z-1.527
X7.746 Y15.393 Z-1.529
X7.71 Y15.451 Z-1.531
X7.669 Y15.507 Z-1.533
X7.624 Y15.559 Z-1.535
X7.574 Y15.606 Z-1.537
X7.522 Y15.65 Z-1.539
X7.465 Y15.689 Z-1.541
X7.406 Y15.723 Z-1.543
X7.345 Y15.752 Z-1.546
X7.282 Y15.776 Z-1.548
X7.217 Y15.794 Z-1.55
X7.151 Y15.807 Z-1.552
X7.084 Y15.815 Z-1.554
X7.017 Y15.817 Z-1.556
X6.95 Y15.813 Z-1.558
X6.884 Y15.804 Z-1.56
X6.819 Y15.79 Z-1.562
X6.755 Y15.771 Z-1.564
X6.694 Y15.746 Z-1.566
X6.635 Y15.717 Z-1.569
X6.579 Y15.682 Z-1.571
X6.525 Y15.644 Z-1.573
X6.476 Y15.601 Z-1.575
X6.43 Y15.555 Z-1.577
X6.388 Y15.505 Z-1.579
X6.35 Y15.452 Z-1.581
X6.317 Y15.396 Z-1.583
X6.289 Y15.338 Z-1.585
X6.266 Y15.277 Z-1.587
X6.248 Y15.216 Z-1.589
X6.235 Y15.153 Z-1.591
X6.227 Y15.089 Z-1.594
X6.224 Y15.026 Z-1.596
X6.227 Y14.962 Z-1.598
X6.235 Y14.899 Z-1.6
X6.248 Y14.837 Z-1.602
X6.266 Y14.777 Z-1.604
X6.289 Y14.718 Z-1.606
X6.316 Y14.662 Z-1.608
X6.348 Y14.608 Z-1.61
X6.384 Y14.557 Z-1.612
X6.424 Y14.509 Z-1.614
X6.468 Y14.465 Z-1.616
X6.515 Y14.425 Z-1.619
X6.565 Y14.389 Z-1.621
X6.618 Y14.357 Z-1.623
X6.673 Y14.33 Z-1.625
X6.73 Y14.307 Z-1.627
X6.788 Y14.289 Z-1.629
X6.848 Y14.277 Z-1.631
X6.908 Y14.269 Z-1.633
X6.969 Y14.266 Z-1.635
X7.029 Y14.268 Z-1.637
X7.089 Y14.275 Z-1.639
X7.148 Y14.286 Z-1.642
X7.205 Y14.303 Z-1.644
X7.261 Y14.324 Z-1.646
X7.315 Y14.35 Z-1.648
X7.366 Y14.379 Z-1.65
X7.415 Y14.413 Z-1.652
X7.46 Y14.451 Z-1.654
X7.502 Y14.492 Z-1.656
X7.541 Y14.536 Z-1.658
X7.575 Y14.583 Z-1.66
X7.606 Y14.633 Z-1.662
X7.632 Y14.685 Z-1.664
X7.654 Y14.738 Z-1.667
X7.672 Y14.794 Z-1.669
X7.684 Y14.85 Z-1.671
X7.692 Y14.907 Z-1.673
X7.696 Y14.964 Z-1.675
X7.694 Y15.021 Z-1.677
X7.688 Y15.078 Z-1.679
X7.678 Y15.133 Z-1.681
X7.663 Y15.188 Z-1.683
X7.643 Y15.241 Z-1.685
X7.619 Y15.292 Z-1.687
X7.592 Y15.341 Z-1.689
X7.56 Y15.387 Z-1.692
X7.525 Y15.43 Z-1.694
X7.486 Y15.47 Z-1.696
X7.445 Y15.507 Z-1.698
X7.401 Y15.54 Z-1.7
X7.354 Y15.57 Z-1.702
X7.305 Y15.595 Z-1.704
X7.255 Y15.616 Z-1.706
X7.203 Y15.633 Z-1.708
X7.15 Y15.645 Z-1.71
X7.096 Y15.653 Z-1.712
X7.042 Y15.657 Z-1.715
X6.989 Y15.656 Z-1.717
X6.935 Y15.651 Z-1.719
X6.882 Y15.641 Z-1.721
X6.831 Y15.628 Z-1.723
X6.781 Y15.61 Z-1.725
X6.733 Y15.588 Z-1.727
X6.686 Y15.562 Z-1.729
X6.643 Y15.533 Z-1.731
X6.602 Y15.5 Z-1.733
X6.563 Y15.464 Z-1.735
X6.529 Y15.425 Z-1.737
X6.497 Y15.384 Z-1.74
X6.469 Y15.34 Z-1.742
X6.445 Y15.295 Z-1.744
X6.425 Y15.247 Z-1.746
X6.408 Y15.199 Z-1.748
X6.396 Y15.149 Z-1.75
X6.388 Y15.099 Z-1.752
X6.384 Y15.048 Z-1.754
X6.385 Y14.997 Z-1.756
X6.389 Y14.947 Z-1.758
X6.398 Y14.898 Z-1.76
X6.41 Y14.849 Z-1.762
X6.427 Y14.802 Z-1.765
X6.447 Y14.756 Z-1.767
X6.471 Y14.713 Z-1.769
X6.498 Y14.672 Z-1.771
X6.528 Y14.633 Z-1.773
X6.562 Y14.597 Z-1.775
X6.598 Y14.564 Z-1.777
X6.636 Y14.534 Z-1.779
X6.677 Y14.507 Z-1.781
X6.719 Y14.484 Z-1.783
X6.764 Y14.465 Z-1.785
X6.809 Y14.449 Z-1.788
X6.855 Y14.438 Z-1.79
X6.903 Y14.43 Z-1.792
X6.95 Y14.426 Z-1.794
X6.997 Z-1.796
X7.044 Y14.429 Z-1.798
X7.091 Y14.437 Z-1.8
X7.136 Y14.448 Z-1.802
X7.18 Y14.463 Z-1.804
X7.223 Y14.482 Z-1.806
X7.264 Y14.504 Z-1.808
X7.303 Y14.529 Z-1.81
X7.339 Y14.557 Z-1.813
X7.373 Y14.588 Z-1.815
X7.404 Y14.621 Z-1.817
X7.432 Y14.657 Z-1.819
X7.457 Y14.695 Z-1.821
X7.479 Y14.734 Z-1.823
X7.498 Y14.775 Z-1.825
X7.513 Y14.818 Z-1.827
X7.524 Y14.861 Z-1.829
X7.532 Y14.905 Z-1.831
X7.536 Y14.949 Z-1.833
Y14.993 Z-1.835
X7.533 Y15.037 Z-1.838
X7.526 Y15.08 Z-1.84
X7.516 Y15.122 Z-1.842
X7.502 Y15.164 Z-1.844
X7.485 Y15.203 Z-1.846
X7.465 Y15.242 Z-1.848
X7.442 Y15.278 Z-1.85
X7.416 Y15.312 Z-1.852
X7.388 Y15.344 Z-1.854
X7.357 Y15.373 Z-1.856
X7.324 Y15.399 Z-1.858
X7.289 Y15.423 Z-1.861
X7.253 Y15.443 Z-1.863
X7.215 Y15.46 Z-1.865
X7.176 Y15.475 Z-1.867
X7.136 Y15.485 Z-1.869
X7.095 Y15.493 Z-1.871
X7.054 Y15.497 Z-1.873
X7.013 Y15.498 Z-1.875
X6.973 Y15.495 Z-1.877
X6.933 Y15.489 Z-1.879
X6.893 Y15.48 Z-1.881
X6.855 Y15.467 Z-1.883
X6.818 Y15.452 Z-1.886
X6.783 Y15.434 Z-1.888
X6.749 Y15.413 Z-1.89
X6.717 Y15.389 Z-1.892
X6.688 Y15.363 Z-1.894
X6.661 Y15.335 Z-1.896
X6.636 Y15.304 Z-1.898
X6.614 Y15.272 Z-1.9
X6.595 Y15.239 Z-1.902
X6.579 Y15.204 Z-1.904
X6.566 Y15.168 Z-1.906
X6.555 Y15.131 Z-1.908
X6.548 Y15.094 Z-1.911
X6.544 Y15.056 Z-1.913
Y15.019 Z-1.915
X6.546 Y14.981 Z-1.917
X6.551 Y14.944 Z-1.919
X6.559 Y14.908 Z-1.921
X6.57 Y14.873 Z-1.923
X6.584 Y14.839 Z-1.925
X6.601 Y14.806 Z-1.927
X6.62 Y14.775 Z-1.929
X6.641 Y14.746 Z-1.931
X6.665 Y14.719 Z-1.934
X6.691 Y14.694 Z-1.936
X6.719 Y14.671 Z-1.938
X6.748 Y14.651 Z-1.94
X6.779 Y14.633 Z-1.942
X6.81 Y14.618 Z-1.944
X6.843 Y14.606 Z-1.946
X6.877 Y14.596 Z-1.948
X6.911 Y14.589 Z-1.95
X6.945 Y14.586 Z-1.952
X6.98 Y14.585 Z-1.954
X7.014 Y14.586 Z-1.956
X7.048 Y14.591 Z-1.959
X7.081 Y14.598 Z-1.961
X7.113 Y14.608 Z-1.963
X7.144 Y14.621 Z-1.965
X7.174 Y14.636 Z-1.967
X7.202 Y14.653 Z-1.969
X7.229 Y14.672 Z-1.971
X7.254 Y14.694 Z-1.973
X7.276 Y14.717 Z-1.975
X7.297 Y14.742 Z-1.977
X7.316 Y14.769 Z-1.979
X7.332 Y14.797 Z-1.981
X7.346 Y14.825 Z-1.984
X7.357 Y14.855 Z-1.986
X7.366 Y14.886 Z-1.988
X7.372 Y14.916 Z-1.99
X7.376 Y14.948 Z-1.992
X7.377 Y14.979 Z-1.994
X7.375 Y15.01 Z-1.996
X7.371 Y15.04 Z-1.998
X7.365 Y15.07 Z-2.
X7.356 Y15.099 Z-2.002
X7.345 Y15.127 Z-2.004
X7.331 Y15.154 Z-2.007
X7.316 Y15.18 Z-2.009
X7.299 Y15.204 Z-2.011
X7.279 Y15.227 Z-2.013
X7.258 Y15.247 Z-2.015
X7.236 Y15.266 Z-2.017
X7.212 Y15.283 Z-2.019
X7.187 Y15.298 Z-2.021
X7.161 Y15.31 Z-2.023
X7.135 Y15.32 Z-2.025
X7.107 Y15.328 Z-2.027
X7.08 Y15.334 Z-2.029
X7.052 Y15.337 Z-2.032
X7.024 Y15.338 Z-2.034
X6.996 Y15.337 Z-2.036
X6.969 Y15.334 Z-2.038
X6.942 Y15.328 Z-2.04
X6.916 Y15.32 Z-2.042
X6.891 Y15.31 Z-2.044
X6.867 Y15.298 Z-2.046
X6.844 Y15.284 Z-2.048
X6.822 Y15.269 Z-2.05
X6.802 Y15.252 Z-2.052
X6.784 Y15.233 Z-2.054
X6.767 Y15.213 Z-2.057
X6.752 Y15.192 Z-2.059
X6.739 Y15.17 Z-2.061
X6.728 Y15.147 Z-2.063
X6.719 Y15.124 Z-2.065
X6.712 Y15.099 Z-2.067
X6.707 Y15.075 Z-2.069
X6.704 Y15.05 Z-2.071
X6.703 Y15.026 Z-2.073
X6.704 Y15.001 Z-2.075
X6.707 Y14.977 Z-2.077
X6.712 Y14.954 Z-2.08
X6.719 Y14.931 Z-2.082
X6.728 Y14.908 Z-2.084
X6.738 Y14.887 Z-2.086
G3 X7.262 Y15.115 I0.262 J0.114
X6.738 Y14.887 I-0.262 J-0.114
G1 X6.76 Y14.855
X6.793 Y14.834
X6.831 Y14.827
X6.87 Y14.835
X6.961 Y14.875
X6.996 Y14.891 Z-2.078
X7.026 Y14.904 Z-2.056
X7.046 Y14.912 Z-2.024
X7.053 Y14.915 Z-1.986
G0 Z5.
X4.928 Y22.301
Z2.
G1 Z0.1 F1300.
X4.921 Z0.062
X4.899 Z0.029
X4.867 Z0.008
X4.828 Z0.
X4.728
X4.69 Y22.294
X4.658 Y22.272
X4.636 Y22.24
X4.628 Y22.201
X4.638 Y22.007 Z-0.002
X4.664 Y21.814 Z-0.004
X4.706 Y21.625 Z-0.006
X4.763 Y21.439 Z-0.008
X4.835 Y21.259 Z-0.01
X4.921 Y21.086 Z-0.013
X5.022 Y20.92 Z-0.015
X5.135 Y20.764 Z-0.017
X5.261 Y20.617 Z-0.019
X5.398 Y20.481 Z-0.021
X5.546 Y20.357 Z-0.023
X5.703 Y20.246 Z-0.025
X5.869 Y20.148 Z-0.027
X6.042 Y20.064 Z-0.029
X6.221 Y19.994 Z-0.031
X6.405 Y19.94 Z-0.033
X6.593 Y19.901 Z-0.035
X6.783 Y19.877 Z-0.038
X6.974 Y19.869 Z-0.04
X7.165 Y19.877 Z-0.042
X7.355 Y19.901 Z-0.044
X7.542 Y19.94 Z-0.046
X7.725 Y19.994 Z-0.048
X7.903 Y20.062 Z-0.05
X8.074 Y20.146 Z-0.052
X8.238 Y20.242 Z-0.054
X8.393 Y20.352 Z-0.056
X8.539 Y20.474 Z-0.058
X8.674 Y20.608 Z-0.06
X8.797 Y20.751 Z-0.063
X8.908 Y20.905 Z-0.065
X9.006 Y21.067 Z-0.067
X9.091 Y21.236 Z-0.069
X9.161 Y21.411 Z-0.071
X9.216 Y21.592 Z-0.073
X9.257 Y21.776 Z-0.075
X9.282 Y21.963 Z-0.077
X9.292 Y22.151 Z-0.079
X9.286 Y22.339 Z-0.081
X9.265 Y22.525 Z-0.083
X9.229 Y22.709 Z-0.086
X9.178 Y22.89 Z-0.088
X9.112 Y23.065 Z-0.09
X9.032 Y23.235 Z-0.092
X8.939 Y23.397 Z-0.094
X8.833 Y23.55 Z-0.096
X8.714 Y23.695 Z-0.098
X8.584 Y23.829 Z-0.1
X8.444 Y23.952 Z-0.102
X8.295 Y24.063 Z-0.104
X8.137 Y24.161 Z-0.106
X7.971 Y24.245 Z-0.108
X7.8 Y24.316 Z-0.111
X7.623 Y24.373 Z-0.113
X7.442 Y24.414 Z-0.115
X7.259 Y24.441 Z-0.117
X7.075 Y24.453 Z-0.119
X6.89 Y24.449 Z-0.121
X6.706 Y24.431 Z-0.123
X6.525 Y24.397 Z-0.125
X6.347 Y24.349 Z-0.127
X6.174 Y24.286 Z-0.129
X6.007 Y24.209 Z-0.131
X5.846 Y24.119 Z-0.133
X5.694 Y24.016 Z-0.136
X5.551 Y23.902 Z-0.138
X5.418 Y23.776 Z-0.14
X5.296 Y23.639 Z-0.142
X5.185 Y23.494 Z-0.144
X5.087 Y23.339 Z-0.146
X5.002 Y23.178 Z-0.148
X4.931 Y23.01 Z-0.15
X4.874 Y22.837 Z-0.152
X4.831 Y22.66 Z-0.154
X4.803 Y22.48 Z-0.156
X4.789 Y22.299 Z-0.159
X4.791 Y22.118 Z-0.161
X4.807 Y21.937 Z-0.163
X4.838 Y21.758 Z-0.165
X4.884 Y21.583 Z-0.167
X4.943 Y21.412 Z-0.169
X5.017 Y21.247 Z-0.171
X5.104 Y21.089 Z-0.173
X5.203 Y20.938 Z-0.175
X5.314 Y20.797 Z-0.177
X5.436 Y20.665 Z-0.179
X5.569 Y20.543 Z-0.181
X5.711 Y20.433 Z-0.184
X5.862 Y20.335 Z-0.186
X6.019 Y20.25 Z-0.188
X6.183 Y20.178 Z-0.19
X6.353 Y20.12 Z-0.192
X6.526 Y20.076 Z-0.194
X6.702 Y20.046 Z-0.196
X6.88 Y20.031 Z-0.198
X7.058 Z-0.2
X7.236 Y20.045 Z-0.202
X7.411 Y20.074 Z-0.204
X7.584 Y20.116 Z-0.206
X7.752 Y20.173 Z-0.209
X7.915 Y20.244 Z-0.211
X8.072 Y20.327 Z-0.213
X8.22 Y20.423 Z-0.215
X8.361 Y20.531 Z-0.217
X8.492 Y20.649 Z-0.219
X8.612 Y20.778 Z-0.221
X8.722 Y20.917 Z-0.223
X8.82 Y21.063 Z-0.225
X8.905 Y21.217 Z-0.227
X8.977 Y21.378 Z-0.229
X9.036 Y21.543 Z-0.232
X9.081 Y21.713 Z-0.234
X9.112 Y21.885 Z-0.236
X9.129 Y22.06 Z-0.238
X9.131 Y22.235 Z-0.24
X9.119 Y22.409 Z-0.242
X9.093 Y22.582 Z-0.244
X9.053 Y22.752 Z-0.246
X8.999 Y22.918 Z-0.248
X8.931 Y23.078 Z-0.25
X8.851 Y23.233 Z-0.252
X8.759 Y23.38 Z-0.254
X8.654 Y23.519 Z-0.257
X8.539 Y23.649 Z-0.259
X8.414 Y23.768 Z-0.261
X8.28 Y23.877 Z-0.263
X8.137 Y23.975 Z-0.265
X7.986 Y24.06 Z-0.267
X7.83 Y24.133 Z-0.269
X7.668 Y24.193 Z-0.271
X7.502 Y24.239 Z-0.273
X7.333 Y24.271 Z-0.275
X7.162 Y24.289 Z-0.277
X6.99 Y24.293 Z-0.279
X6.819 Y24.283 Z-0.282
X6.649 Y24.259 Z-0.284
X6.482 Y24.222 Z-0.286
X6.319 Y24.17 Z-0.288
X6.16 Y24.106 Z-0.29
X6.008 Y24.029 Z-0.292
X5.863 Y23.94 Z-0.294
X5.725 Y23.839 Z-0.296
X5.597 Y23.727 Z-0.298
X5.478 Y23.606 Z-0.3
X5.369 Y23.475 Z-0.302
X5.272 Y23.336 Z-0.305
X5.187 Y23.189 Z-0.307
X5.114 Y23.036 Z-0.309
X5.054 Y22.878 Z-0.311
X5.007 Y22.716 Z-0.313
X4.973 Y22.55 Z-0.315
X4.953 Y22.383 Z-0.317
X4.948 Y22.214 Z-0.319
X4.956 Y22.046 Z-0.321
X4.977 Y21.879 Z-0.323
X5.012 Y21.715 Z-0.325
X5.061 Y21.554 Z-0.327
X5.122 Y21.398 Z-0.33
X5.197 Y21.248 Z-0.332
X5.283 Y21.104 Z-0.334
X5.38 Y20.969 Z-0.336
X5.488 Y20.841 Z-0.338
X5.606 Y20.723 Z-0.34
X5.733 Y20.616 Z-0.342
X5.869 Y20.519 Z-0.344
X6.011 Y20.434 Z-0.346
X6.161 Y20.36 Z-0.348
X6.315 Y20.3 Z-0.35
X6.474 Y20.252 Z-0.352
X6.636 Y20.217 Z-0.355
X6.8 Y20.196 Z-0.357
X6.965 Y20.189 Z-0.359
X7.13 Y20.195 Z-0.361
X7.294 Y20.214 Z-0.363
X7.455 Y20.247 Z-0.365
X7.613 Y20.293 Z-0.367
X7.767 Y20.352 Z-0.369
X7.915 Y20.423 Z-0.371
X8.057 Y20.505 Z-0.373
X8.191 Y20.599 Z-0.375
X8.317 Y20.704 Z-0.378
X8.434 Y20.819 Z-0.38
X8.541 Y20.942 Z-0.382
X8.637 Y21.074 Z-0.384
X8.722 Y21.213 Z-0.386
X8.796 Y21.358 Z-0.388
X8.857 Y21.509 Z-0.39
X8.905 Y21.664 Z-0.392
X8.941 Y21.823 Z-0.394
X8.963 Y21.983 Z-0.396
X8.972 Y22.145 Z-0.398
X8.968 Y22.307 Z-0.4
X8.951 Y22.468 Z-0.403
X8.92 Y22.626 Z-0.405
X8.877 Y22.782 Z-0.407
X8.821 Y22.933 Z-0.409
X8.753 Y23.079 Z-0.411
X8.674 Y23.219 Z-0.413
X8.583 Y23.351 Z-0.415
X8.482 Y23.476 Z-0.417
X8.371 Y23.592 Z-0.419
X8.251 Y23.698 Z-0.421
X8.123 Y23.793 Z-0.423
X7.987 Y23.878 Z-0.426
X7.845 Y23.952 Z-0.428
X7.698 Y24.013 Z-0.43
X7.547 Y24.062 Z-0.432
X7.392 Y24.099 Z-0.434
X7.235 Y24.123 Z-0.436
X7.076 Y24.133 Z-0.438
X6.918 Y24.131 Z-0.44
X6.76 Y24.116 Z-0.442
X6.604 Y24.087 Z-0.444
X6.451 Y24.047 Z-0.446
X6.303 Y23.994 Z-0.448
X6.159 Y23.928 Z-0.451
X6.021 Y23.852 Z-0.453
X5.89 Y23.764 Z-0.455
X5.767 Y23.667 Z-0.457
X5.653 Y23.559 Z-0.459
X5.548 Y23.443 Z-0.461
X5.452 Y23.318 Z-0.463
X5.368 Y23.186 Z-0.465
X5.294 Y23.048 Z-0.467
X5.233 Y22.905 Z-0.469
X5.183 Y22.757 Z-0.471
X5.145 Y22.606 Z-0.473
X5.121 Y22.452 Z-0.476
X5.108 Y22.297 Z-0.478
X5.109 Y22.142 Z-0.48
X5.122 Y21.987 Z-0.482
X5.148 Y21.834 Z-0.484
X5.187 Y21.684 Z-0.486
X5.237 Y21.538 Z-0.488
X5.299 Y21.396 Z-0.49
X5.373 Y21.261 Z-0.492
X5.457 Y21.132 Z-0.494
X5.552 Y21.01 Z-0.496
X5.656 Y20.897 Z-0.499
X5.769 Y20.793 Z-0.501
X5.89 Y20.698 Z-0.503
X6.018 Y20.614 Z-0.505
X6.152 Y20.54 Z-0.507
X6.292 Y20.478 Z-0.509
X6.436 Y20.428 Z-0.511
X6.584 Y20.39 Z-0.513
X6.734 Y20.364 Z-0.515
X6.886 Y20.35 Z-0.517
X7.038 Y20.349 Z-0.519
X7.19 Y20.361 Z-0.521
X7.339 Y20.385 Z-0.524
X7.487 Y20.421 Z-0.526
X7.63 Y20.468 Z-0.528
X7.769 Y20.528 Z-0.53
X7.903 Y20.598 Z-0.532
X8.03 Y20.68 Z-0.534
X8.15 Y20.771 Z-0.536
X8.262 Y20.872 Z-0.538
X8.365 Y20.981 Z-0.54
X8.459 Y21.098 Z-0.542
X8.543 Y21.223 Z-0.544
X8.616 Y21.354 Z-0.546
X8.678 Y21.49 Z-0.549
X8.729 Y21.63 Z-0.551
X8.768 Y21.775 Z-0.553
X8.795 Y21.921 Z-0.555
X8.81 Y22.07 Z-0.557
X8.813 Y22.218 Z-0.559
X8.803 Y22.367 Z-0.561
X8.781 Y22.514 Z-0.563
X8.748 Y22.658 Z-0.565
X8.702 Y22.799 Z-0.567
X8.646 Y22.936 Z-0.569
X8.578 Y23.067 Z-0.572
X8.5 Y23.193 Z-0.574
X8.412 Y23.311 Z-0.576
X8.315 Y23.422 Z-0.578
X8.209 Y23.524 Z-0.58
X8.095 Y23.617 Z-0.582
X7.974 Y23.7 Z-0.584
X7.847 Y23.773 Z-0.586
X7.714 Y23.835 Z-0.588
X7.577 Y23.886 Z-0.59
X7.436 Y23.926 Z-0.592
X7.293 Y23.954 Z-0.594
X7.148 Y23.97 Z-0.597
X7.003 Y23.974 Z-0.599
X6.858 Y23.966 Z-0.601
X6.714 Y23.947 Z-0.603
X6.572 Y23.915 Z-0.605
X6.434 Y23.872 Z-0.607
X6.299 Y23.818 Z-0.609
X6.17 Y23.754 Z-0.611
X6.047 Y23.679 Z-0.613
X5.93 Y23.594 Z-0.615
X5.821 Y23.5 Z-0.617
X5.72 Y23.397 Z-0.619
X5.628 Y23.287 Z-0.622
X5.545 Y23.17 Z-0.624
X5.472 Y23.046 Z-0.626
X5.41 Y22.917 Z-0.628
X5.359 Y22.784 Z-0.63
X5.318 Y22.647 Z-0.632
X5.29 Y22.507 Z-0.634
X5.272 Y22.365 Z-0.636
X5.267 Y22.223 Z-0.638
X5.273 Y22.081 Z-0.64
X5.291 Y21.94 Z-0.642
X5.32 Y21.801 Z-0.645
X5.36 Y21.666 Z-0.647
X5.412 Y21.534 Z-0.649
X5.474 Y21.407 Z-0.651
X5.546 Y21.285 Z-0.653
X5.627 Y21.17 Z-0.655
X5.718 Y21.063 Z-0.657
X5.817 Y20.963 Z-0.659
X5.924 Y20.872 Z-0.661
X6.038 Y20.79 Z-0.663
X6.158 Y20.717 Z-0.665
X6.283 Y20.655 Z-0.667
X6.413 Y20.604 Z-0.67
X6.547 Y20.563 Z-0.672
X6.683 Y20.533 Z-0.674
X6.821 Y20.515 Z-0.676
X6.96 Y20.508 Z-0.678
X7.099 Y20.513 Z-0.68
X7.237 Y20.528 Z-0.682
X7.373 Y20.555 Z-0.684
X7.506 Y20.594 Z-0.686
X7.635 Y20.642 Z-0.688
X7.76 Y20.702 Z-0.69
X7.879 Y20.771 Z-0.692
X7.992 Y20.849 Z-0.695
X8.098 Y20.937 Z-0.697
X8.197 Y21.032 Z-0.699
X8.287 Y21.136 Z-0.701
X8.368 Y21.246 Z-0.703
X8.44 Y21.363 Z-0.705
X8.502 Y21.484 Z-0.707
X8.554 Y21.611 Z-0.709
X8.595 Y21.741 Z-0.711
X8.626 Y21.874 Z-0.713
X8.645 Y22.008 Z-0.715
X8.653 Y22.144 Z-0.718
X8.65 Y22.279 Z-0.72
X8.636 Y22.414 Z-0.722
X8.611 Y22.547 Z-0.724
X8.575 Y22.678 Z-0.726
X8.529 Y22.804 Z-0.728
X8.472 Y22.927 Z-0.73
X8.406 Y23.044 Z-0.732
X8.331 Y23.155 Z-0.734
X8.246 Y23.26 Z-0.736
X8.154 Y23.357 Z-0.738
X8.054 Y23.446 Z-0.74
X7.947 Y23.527 Z-0.743
X7.834 Y23.598 Z-0.745
X7.716 Y23.66 Z-0.747
X7.593 Y23.712 Z-0.749
X7.467 Y23.753 Z-0.751
X7.337 Y23.784 Z-0.753
X7.206 Y23.805 Z-0.755
X7.074 Y23.814 Z-0.757
X6.941 Y23.813 Z-0.759
X6.81 Y23.8 Z-0.761
X6.68 Y23.777 Z-0.763
X6.552 Y23.744 Z-0.765
X6.428 Y23.7 Z-0.768
X6.308 Y23.646 Z-0.77
X6.193 Y23.583 Z-0.772
X6.083 Y23.51 Z-0.774
X5.981 Y23.429 Z-0.776
X5.885 Y23.34 Z-0.778
X5.797 Y23.243 Z-0.78
X5.717 Y23.14 Z-0.782
X5.646 Y23.03 Z-0.784
X5.585 Y22.915 Z-0.786
X5.533 Y22.796 Z-0.788
X5.491 Y22.673 Z-0.791
X5.459 Y22.547 Z-0.793
X5.438 Y22.42 Z-0.795
X5.428 Y22.291 Z-0.797
Y22.162 Z-0.799
X5.438 Y22.033 Z-0.801
X5.46 Y21.906 Z-0.803
X5.491 Y21.781 Z-0.805
X5.532 Y21.66 Z-0.807
X5.584 Y21.542 Z-0.809
X5.644 Y21.429 Z-0.811
X5.714 Y21.322 Z-0.813
X5.792 Y21.22 Z-0.816
X5.878 Y21.126 Z-0.818
X5.971 Y21.039 Z-0.82
X6.071 Y20.961 Z-0.822
X6.177 Y20.89 Z-0.824
X6.289 Y20.829 Z-0.826
X6.404 Y20.777 Z-0.828
X6.524 Y20.735 Z-0.83
X6.646 Y20.703 Z-0.832
X6.77 Y20.681 Z-0.834
X6.896 Y20.67 Z-0.836
X7.022 Y20.668 Z-0.838
X7.147 Y20.677 Z-0.841
X7.271 Y20.697 Z-0.843
X7.393 Y20.726 Z-0.845
X7.512 Y20.765 Z-0.847
X7.627 Y20.814 Z-0.849
X7.738 Y20.872 Z-0.851
X7.843 Y20.939 Z-0.853
X7.943 Y21.014 Z-0.855
X8.036 Y21.096 Z-0.857
X8.121 Y21.186 Z-0.859
X8.199 Y21.283 Z-0.861
X8.268 Y21.386 Z-0.864
X8.329 Y21.493 Z-0.866
X8.381 Y21.606 Z-0.868
X8.423 Y21.721 Z-0.87
X8.456 Y21.84 Z-0.872
X8.478 Y21.961 Z-0.874
X8.491 Y22.083 Z-0.876
X8.493 Y22.206 Z-0.878
X8.486 Y22.328 Z-0.88
X8.468 Y22.449 Z-0.882
X8.441 Y22.568 Z-0.884
X8.404 Y22.685 Z-0.886
X8.358 Y22.797 Z-0.889
X8.303 Y22.906 Z-0.891
X8.239 Y23.009 Z-0.893
X8.167 Y23.107 Z-0.895
X8.087 Y23.198 Z-0.897
X8. Y23.282 Z-0.899
X7.907 Y23.359 Z-0.901
X7.808 Y23.428 Z-0.903
X7.704 Y23.488 Z-0.905
X7.595 Y23.539 Z-0.907
X7.482 Y23.582 Z-0.909
X7.367 Y23.614 Z-0.911
X7.25 Y23.638 Z-0.914
X7.131 Y23.651 Z-0.916
X7.011 Y23.655 Z-0.918
X6.892 Y23.649 Z-0.92
X6.774 Y23.633 Z-0.922
X6.658 Y23.608 Z-0.924
X6.545 Y23.573 Z-0.926
X6.434 Y23.529 Z-0.928
X6.328 Y23.477 Z-0.93
X6.227 Y23.415 Z-0.932
X6.132 Y23.346 Z-0.934
X6.042 Y23.27 Z-0.937
X5.959 Y23.186 Z-0.939
X5.883 Y23.096 Z-0.941
X5.816 Y23. Z-0.943
X5.756 Y22.9 Z-0.945
X5.705 Y22.794 Z-0.947
X5.662 Y22.685 Z-0.949
X5.629 Y22.574 Z-0.951
X5.605 Y22.46 Z-0.953
X5.591 Y22.344 Z-0.955
X5.586 Y22.228 Z-0.957
X5.591 Y22.112 Z-0.959
X5.605 Y21.997 Z-0.962
X5.628 Y21.884 Z-0.964
X5.661 Y21.773 Z-0.966
X5.702 Y21.666 Z-0.968
X5.753 Y21.562 Z-0.97
X5.811 Y21.463 Z-0.972
X5.877 Y21.369 Z-0.974
X5.951 Y21.281 Z-0.976
X6.031 Y21.2 Z-0.978
X6.118 Y21.125 Z-0.98
X6.21 Y21.058 Z-0.982
X6.308 Y20.999 Z-0.984
X6.41 Y20.948 Z-0.987
X6.515 Y20.906 Z-0.989
X6.623 Y20.873 Z-0.991
X6.734 Y20.848 Z-0.993
X6.846 Y20.833 Z-0.995
X6.959 Y20.827 Z-0.997
X7.071 Y20.831 Z-0.999
X7.183 Y20.843 Z-1.001
X7.294 Y20.865 Z-1.003
X7.402 Y20.895 Z-1.005
X7.507 Y20.935 Z-1.007
X7.608 Y20.982 Z-1.01
X7.705 Y21.038 Z-1.012
X7.796 Y21.101 Z-1.014
X7.883 Y21.172 Z-1.016
X7.963 Y21.249 Z-1.018
X8.036 Y21.333 Z-1.02
X8.102 Y21.422 Z-1.022
X8.16 Y21.516 Z-1.024
X8.211 Y21.614 Z-1.026
X8.253 Y21.716 Z-1.028
X8.286 Y21.821 Z-1.03
X8.311 Y21.928 Z-1.032
X8.327 Y22.037 Z-1.035
X8.334 Y22.147 Z-1.037
X8.332 Y22.256 Z-1.039
X8.321 Y22.365 Z-1.041
X8.301 Y22.472 Z-1.043
X8.272 Y22.577 Z-1.045
X8.235 Y22.68 Z-1.047
X8.19 Y22.778 Z-1.049
X8.137 Y22.873 Z-1.051
X8.076 Y22.963 Z-1.053
X8.009 Y23.047 Z-1.055
X7.934 Y23.125 Z-1.057
X7.854 Y23.197 Z-1.06
X7.768 Y23.262 Z-1.062
X7.678 Y23.32 Z-1.064
X7.583 Y23.37 Z-1.066
X7.484 Y23.412 Z-1.068
X7.383 Y23.445 Z-1.07
X7.279 Y23.47 Z-1.072
X7.174 Y23.487 Z-1.074
X7.067 Y23.495 Z-1.076
X6.961 Y23.494 Z-1.078
X6.856 Y23.484 Z-1.08
X6.751 Y23.466 Z-1.083
X6.649 Y23.439 Z-1.085
X6.549 Y23.405 Z-1.087
X6.453 Y23.362 Z-1.089
X6.361 Y23.311 Z-1.091
X6.273 Y23.253 Z-1.093
X6.191 Y23.188 Z-1.095
X6.114 Y23.117 Z-1.097
X6.043 Y23.04 Z-1.099
X5.979 Y22.958 Z-1.101
X5.923 Y22.87 Z-1.103
X5.873 Y22.779 Z-1.105
X5.832 Y22.684 Z-1.108
X5.798 Y22.586 Z-1.11
X5.773 Y22.485 Z-1.112
X5.755 Y22.383 Z-1.114
X5.747 Y22.28 Z-1.116
Y22.178 Z-1.118
X5.755 Y22.075 Z-1.12
X5.771 Y21.974 Z-1.122
X5.796 Y21.874 Z-1.124
X5.829 Y21.777 Z-1.126
X5.87 Y21.684 Z-1.128
X5.918 Y21.594 Z-1.13
X5.973 Y21.508 Z-1.133
X6.035 Y21.428 Z-1.135
X6.103 Y21.353 Z-1.137
X6.177 Y21.283 Z-1.139
X6.256 Y21.221 Z-1.141
X6.34 Y21.165 Z-1.143
X6.429 Y21.116 Z-1.145
X6.52 Y21.075 Z-1.147
X6.615 Y21.041 Z-1.149
X6.712 Y21.016 Z-1.151
X6.81 Y20.998 Z-1.153
X6.91 Y20.989 Z-1.156
X7.01 Y20.987 Z-1.158
X7.109 Y20.994 Z-1.16
X7.207 Y21.009 Z-1.162
X7.304 Y21.032 Z-1.164
X7.398 Y21.063 Z-1.166
X7.489 Y21.102 Z-1.168
X7.576 Y21.147 Z-1.17
X7.66 Y21.2 Z-1.172
X7.738 Y21.259 Z-1.174
X7.812 Y21.324 Z-1.176
X7.879 Y21.395 Z-1.178
X7.941 Y21.471 Z-1.181
X7.996 Y21.552 Z-1.183
X8.044 Y21.637 Z-1.185
X8.085 Y21.725 Z-1.187
X8.118 Y21.816 Z-1.189
X8.144 Y21.91 Z-1.191
X8.162 Y22.005 Z-1.193
X8.172 Y22.101 Z-1.195
X8.174 Y22.198 Z-1.197
X8.169 Y22.294 Z-1.199
X8.155 Y22.389 Z-1.201
X8.134 Y22.482 Z-1.203
X8.105 Y22.574 Z-1.206
X8.069 Y22.662 Z-1.208
X8.025 Y22.747 Z-1.21
X7.975 Y22.829 Z-1.212
X7.919 Y22.905 Z-1.214
X7.857 Y22.977 Z-1.216
X7.789 Y23.043 Z-1.218
X7.716 Y23.103 Z-1.22
X7.638 Y23.157 Z-1.222
X7.557 Y23.204 Z-1.224
X7.472 Y23.245 Z-1.226
X7.384 Y23.278 Z-1.229
X7.294 Y23.304 Z-1.231
X7.202 Y23.322 Z-1.233
X7.109 Y23.333 Z-1.235
X7.016 Y23.336 Z-1.237
X6.923 Y23.331 Z-1.239
X6.831 Y23.319 Z-1.241
X6.74 Y23.299 Z-1.243
X6.652 Y23.272 Z-1.245
X6.566 Y23.238 Z-1.247
X6.483 Y23.197 Z-1.249
X6.405 Y23.15 Z-1.251
X6.33 Y23.096 Z-1.254
X6.26 Y23.037 Z-1.256
X6.196 Y22.972 Z-1.258
X6.137 Y22.902 Z-1.26
X6.084 Y22.828 Z-1.262
X6.038 Y22.749 Z-1.264
X5.998 Y22.668 Z-1.266
X5.965 Y22.583 Z-1.268
X5.939 Y22.497 Z-1.27
X5.92 Y22.408 Z-1.272
X5.909 Y22.319 Z-1.274
X5.905 Y22.229 Z-1.277
X5.909 Y22.139 Z-1.279
X5.92 Y22.05 Z-1.281
X5.938 Y21.963 Z-1.283
X5.963 Y21.877 Z-1.285
X5.995 Y21.794 Z-1.287
X6.034 Y21.714 Z-1.289
X6.079 Y21.637 Z-1.291
X6.13 Y21.565 Z-1.293
X6.186 Y21.497 Z-1.295
X6.248 Y21.434 Z-1.297
X6.315 Y21.376 Z-1.299
X6.386 Y21.325 Z-1.302
X6.461 Y21.279 Z-1.304
X6.54 Y21.24 Z-1.306
X6.621 Y21.207 Z-1.308
X6.704 Y21.182 Z-1.31
X6.789 Y21.163 Z-1.312
X6.875 Y21.151 Z-1.314
X6.962 Y21.147 Z-1.316
X7.048 Y21.149 Z-1.318
X7.134 Y21.159 Z-1.32
X7.219 Y21.175 Z-1.322
X7.301 Y21.199 Z-1.324
X7.382 Y21.229 Z-1.327
X7.46 Y21.265 Z-1.329
X7.534 Y21.308 Z-1.331
X7.604 Y21.356 Z-1.333
X7.67 Y21.41 Z-1.335
X7.731 Y21.469 Z-1.337
X7.787 Y21.533 Z-1.339
X7.837 Y21.601 Z-1.341
X7.882 Y21.673 Z-1.343
X7.921 Y21.748 Z-1.345
X7.953 Y21.825 Z-1.347
X7.978 Y21.905 Z-1.35
X7.997 Y21.987 Z-1.352
X8.009 Y22.07 Z-1.354
X8.015 Y22.153 Z-1.356
X8.013 Y22.236 Z-1.358
X8.005 Y22.319 Z-1.36
X7.99 Y22.401 Z-1.362
X7.968 Y22.481 Z-1.364
X7.94 Y22.558 Z-1.366
X7.905 Y22.633 Z-1.368
X7.865 Y22.705 Z-1.37
X7.819 Y22.773 Z-1.372
X7.768 Y22.837 Z-1.375
X7.712 Y22.896 Z-1.377
X7.651 Y22.951 Z-1.379
X7.586 Y23. Z-1.381
X7.518 Y23.044 Z-1.383
X7.446 Y23.081 Z-1.385
X7.371 Y23.113 Z-1.387
X7.295 Y23.138 Z-1.389
X7.216 Y23.157 Z-1.391
X7.137 Y23.17 Z-1.393
X7.057 Y23.176 Z-1.395
X6.977 Y23.175 Z-1.397
X6.897 Y23.168 Z-1.4
X6.819 Y23.154 Z-1.402
X6.742 Y23.134 Z-1.404
X6.667 Y23.108 Z-1.406
X6.595 Y23.076 Z-1.408
X6.525 Y23.038 Z-1.41
X6.46 Y22.994 Z-1.412
X6.398 Y22.945 Z-1.414
X6.34 Y22.892 Z-1.416
X6.287 Y22.834 Z-1.418
X6.239 Y22.772 Z-1.42
X6.197 Y22.707 Z-1.423
X6.16 Y22.638 Z-1.425
X6.129 Y22.567 Z-1.427
X6.104 Y22.494 Z-1.429
X6.085 Y22.419 Z-1.431
X6.072 Y22.343 Z-1.433
X6.066 Y22.266 Z-1.435
Y22.189 Z-1.437
X6.072 Y22.113 Z-1.439
X6.084 Y22.038 Z-1.441
X6.103 Y21.964 Z-1.443
X6.127 Y21.892 Z-1.445
X6.157 Y21.822 Z-1.448
X6.193 Y21.755 Z-1.45
X6.234 Y21.692 Z-1.452
X6.28 Y21.632 Z-1.454
X6.331 Y21.576 Z-1.456
X6.386 Y21.525 Z-1.458
X6.445 Y21.478 Z-1.46
X6.507 Y21.437 Z-1.462
X6.572 Y21.401 Z-1.464
X6.64 Y21.371 Z-1.466
X6.71 Y21.346 Z-1.468
X6.782 Y21.327 Z-1.47
X6.854 Y21.314 Z-1.473
X6.928 Y21.307 Z-1.475
X7.001 Y21.306 Z-1.477
X7.075 Y21.312 Z-1.479
X7.147 Y21.323 Z-1.481
X7.218 Y21.34 Z-1.483
X7.287 Y21.363 Z-1.485
X7.354 Y21.391 Z-1.487
X7.418 Y21.424 Z-1.489
X7.48 Y21.463 Z-1.491
X7.537 Y21.507 Z-1.493
X7.591 Y21.555 Z-1.496
X7.641 Y21.607 Z-1.498
X7.685 Y21.662 Z-1.5
X7.726 Y21.722 Z-1.502
X7.761 Y21.784 Z-1.504
X7.79 Y21.848 Z-1.506
X7.815 Y21.915 Z-1.508
X7.833 Y21.983 Z-1.51
X7.846 Y22.053 Z-1.512
X7.854 Y22.123 Z-1.514
X7.855 Y22.193 Z-1.516
X7.851 Y22.263 Z-1.518
X7.841 Y22.332 Z-1.521
X7.825 Y22.4 Z-1.523
X7.804 Y22.467 Z-1.525
X7.778 Y22.531 Z-1.527
X7.746 Y22.593 Z-1.529
X7.71 Y22.651 Z-1.531
X7.669 Y22.707 Z-1.533
X7.624 Y22.759 Z-1.535
X7.574 Y22.806 Z-1.537
X7.522 Y22.85 Z-1.539
X7.465 Y22.889 Z-1.541
X7.406 Y22.923 Z-1.543
X7.345 Y22.952 Z-1.546
X7.282 Y22.976 Z-1.548
X7.217 Y22.994 Z-1.55
X7.151 Y23.007 Z-1.552
X7.084 Y23.015 Z-1.554
X7.017 Y23.017 Z-1.556
X6.95 Y23.013 Z-1.558
X6.884 Y23.004 Z-1.56
X6.819 Y22.99 Z-1.562
X6.755 Y22.971 Z-1.564
X6.694 Y22.946 Z-1.566
X6.635 Y22.917 Z-1.569
X6.579 Y22.882 Z-1.571
X6.525 Y22.844 Z-1.573
X6.476 Y22.801 Z-1.575
X6.43 Y22.755 Z-1.577
X6.388 Y22.705 Z-1.579
X6.35 Y22.652 Z-1.581
X6.317 Y22.596 Z-1.583
X6.289 Y22.538 Z-1.585
X6.266 Y22.477 Z-1.587
X6.248 Y22.416 Z-1.589
X6.235 Y22.353 Z-1.591
X6.227 Y22.289 Z-1.594
X6.224 Y22.226 Z-1.596
X6.227 Y22.162 Z-1.598
X6.235 Y22.099 Z-1.6
X6.248 Y22.037 Z-1.602
X6.266 Y21.977 Z-1.604
X6.289 Y21.918 Z-1.606
X6.316 Y21.862 Z-1.608
X6.348 Y21.808 Z-1.61
X6.384 Y21.757 Z-1.612
X6.424 Y21.709 Z-1.614
X6.468 Y21.665 Z-1.616
X6.515 Y21.625 Z-1.619
X6.565 Y21.589 Z-1.621
X6.618 Y21.557 Z-1.623
X6.673 Y21.53 Z-1.625
X6.73 Y21.507 Z-1.627
X6.788 Y21.489 Z-1.629
X6.848 Y21.477 Z-1.631
X6.908 Y21.469 Z-1.633
X6.969 Y21.466 Z-1.635
X7.029 Y21.468 Z-1.637
X7.089 Y21.475 Z-1.639
X7.148 Y21.486 Z-1.642
X7.205 Y21.503 Z-1.644
X7.261 Y21.524 Z-1.646
X7.315 Y21.55 Z-1.648
X7.366 Y21.579 Z-1.65
X7.415 Y21.613 Z-1.652
X7.46 Y21.651 Z-1.654
X7.502 Y21.692 Z-1.656
X7.541 Y21.736 Z-1.658
X7.575 Y21.783 Z-1.66
X7.606 Y21.833 Z-1.662
X7.632 Y21.885 Z-1.664
X7.654 Y21.938 Z-1.667
X7.672 Y21.994 Z-1.669
X7.684 Y22.05 Z-1.671
X7.692 Y22.107 Z-1.673
X7.696 Y22.164 Z-1.675
X7.694 Y22.221 Z-1.677
X7.688 Y22.278 Z-1.679
X7.678 Y22.333 Z-1.681
X7.663 Y22.388 Z-1.683
X7.643 Y22.441 Z-1.685
X7.619 Y22.492 Z-1.687
X7.592 Y22.541 Z-1.689
X7.56 Y22.587 Z-1.692
X7.525 Y22.63 Z-1.694
X7.486 Y22.67 Z-1.696
X7.445 Y22.707 Z-1.698
X7.401 Y22.74 Z-1.7
X7.354 Y22.77 Z-1.702
X7.305 Y22.795 Z-1.704
X7.255 Y22.816 Z-1.706
X7.203 Y22.833 Z-1.708
X7.15 Y22.845 Z-1.71
X7.096 Y22.853 Z-1.712
X7.042 Y22.857 Z-1.715
X6.989 Y22.856 Z-1.717
X6.935 Y22.851 Z-1.719
X6.882 Y22.841 Z-1.721
X6.831 Y22.828 Z-1.723
X6.781 Y22.81 Z-1.725
X6.733 Y22.788 Z-1.727
X6.686 Y22.762 Z-1.729
X6.643 Y22.733 Z-1.731
X6.602 Y22.7 Z-1.733
X6.563 Y22.664 Z-1.735
X6.529 Y22.625 Z-1.737
X6.497 Y22.584 Z-1.74
X6.469 Y22.54 Z-1.742
X6.445 Y22.495 Z-1.744
X6.425 Y22.447 Z-1.746
X6.408 Y22.399 Z-1.748
X6.396 Y22.349 Z-1.75
X6.388 Y22.299 Z-1.752
X6.384 Y22.248 Z-1.754
X6.385 Y22.197 Z-1.756
X6.389 Y22.147 Z-1.758
X6.398 Y22.098 Z-1.76
X6.41 Y22.049 Z-1.762
X6.427 Y22.002 Z-1.765
X6.447 Y21.956 Z-1.767
X6.471 Y21.913 Z-1.769
X6.498 Y21.872 Z-1.771
X6.528 Y21.833 Z-1.773
X6.562 Y21.797 Z-1.775
X6.598 Y21.764 Z-1.777
X6.636 Y21.734 Z-1.779
X6.677 Y21.707 Z-1.781
X6.719 Y21.684 Z-1.783
X6.764 Y21.665 Z-1.785
X6.809 Y21.649 Z-1.788
X6.855 Y21.638 Z-1.79
X6.903 Y21.63 Z-1.792
X6.95 Y21.626 Z-1.794
X6.997 Z-1.796
X7.044 Y21.629 Z-1.798
X7.091 Y21.637 Z-1.8
X7.136 Y21.648 Z-1.802
X7.18 Y21.663 Z-1.804
X7.223 Y21.682 Z-1.806
X7.264 Y21.704 Z-1.808
X7.303 Y21.729 Z-1.81
X7.339 Y21.757 Z-1.813
X7.373 Y21.788 Z-1.815
X7.404 Y21.821 Z-1.817
X7.432 Y21.857 Z-1.819
X7.457 Y21.895 Z-1.821
X7.479 Y21.934 Z-1.823
X7.498 Y21.975 Z-1.825
X7.513 Y22.018 Z-1.827
X7.524 Y22.061 Z-1.829
X7.532 Y22.105 Z-1.831
X7.536 Y22.149 Z-1.833
Y22.193 Z-1.835
X7.533 Y22.237 Z-1.838
X7.526 Y22.28 Z-1.84
X7.516 Y22.322 Z-1.842
X7.502 Y22.364 Z-1.844
X7.485 Y22.403 Z-1.846
X7.465 Y22.442 Z-1.848
X7.442 Y22.478 Z-1.85
X7.416 Y22.512 Z-1.852
X7.388 Y22.544 Z-1.854
X7.357 Y22.573 Z-1.856
X7.324 Y22.599 Z-1.858
X7.289 Y22.623 Z-1.861
X7.253 Y22.643 Z-1.863
X7.215 Y22.66 Z-1.865
X7.176 Y22.675 Z-1.867
X7.136 Y22.685 Z-1.869
X7.095 Y22.693 Z-1.871
X7.054 Y22.697 Z-1.873
X7.013 Y22.698 Z-1.875
X6.973 Y22.695 Z-1.877
X6.933 Y22.689 Z-1.879
X6.893 Y22.68 Z-1.881
X6.855 Y22.667 Z-1.883
X6.818 Y22.652 Z-1.886
X6.783 Y22.634 Z-1.888
X6.749 Y22.613 Z-1.89
X6.717 Y22.589 Z-1.892
X6.688 Y22.563 Z-1.894
X6.661 Y22.535 Z-1.896
X6.636 Y22.504 Z-1.898
X6.614 Y22.472 Z-1.9
X6.595 Y22.439 Z-1.902
X6.579 Y22.404 Z-1.904
X6.566 Y22.368 Z-1.906
X6.555 Y22.331 Z-1.908
X6.548 Y22.294 Z-1.911
X6.544 Y22.256 Z-1.913
Y22.219 Z-1.915
X6.546 Y22.181 Z-1.917
X6.551 Y22.144 Z-1.919
X6.559 Y22.108 Z-1.921
X6.57 Y22.073 Z-1.923
X6.584 Y22.039 Z-1.925
X6.601 Y22.006 Z-1.927
X6.62 Y21.975 Z-1.929
X6.641 Y21.946 Z-1.931
X6.665 Y21.919 Z-1.934
X6.691 Y21.894 Z-1.936
X6.719 Y21.871 Z-1.938
X6.748 Y21.851 Z-1.94
X6.779 Y21.833 Z-1.942
X6.81 Y21.818 Z-1.944
X6.843 Y21.806 Z-1.946
X6.877 Y21.796 Z-1.948
X6.911 Y21.789 Z-1.95
X6.945 Y21.786 Z-1.952
X6.98 Y21.785 Z-1.954
X7.014 Y21.786 Z-1.956
X7.048 Y21.791 Z-1.959
X7.081 Y21.798 Z-1.961
X7.113 Y21.808 Z-1.963
X7.144 Y21.821 Z-1.965
X7.174 Y21.836 Z-1.967
X7.202 Y21.853 Z-1.969
X7.229 Y21.872 Z-1.971
X7.254 Y21.894 Z-1.973
X7.276 Y21.917 Z-1.975
X7.297 Y21.942 Z-1.977
X7.316 Y21.969 Z-1.979
X7.332 Y21.997 Z-1.981
X7.346 Y22.025 Z-1.984
X7.357 Y22.055 Z-1.986
X7.366 Y22.086 Z-1.988
X7.372 Y22.116 Z-1.99
X7.376 Y22.148 Z-1.992
X7.377 Y22.179 Z-1.994
X7.375 Y22.21 Z-1.996
X7.371 Y22.24 Z-1.998
X7.365 Y22.27 Z-2.
X7.356 Y22.299 Z-2.002
X7.345 Y22.327 Z-2.004
X7.331 Y22.354 Z-2.007
X7.316 Y22.38 Z-2.009
X7.298 Y22.404 Z-2.011
X7.279 Y22.427 Z-2.013
X7.258 Y22.447 Z-2.015
X7.236 Y22.466 Z-2.017
X7.212 Y22.483 Z-2.019
X7.187 Y22.498 Z-2.021
X7.161 Y22.51 Z-2.023
X7.135 Y22.52 Z-2.025
X7.107 Y22.528 Z-2.027
X7.08 Y22.534 Z-2.029
X7.052 Y22.537 Z-2.032
X7.024 Y22.538 Z-2.034
X6.996 Y22.537 Z-2.036
X6.969 Y22.534 Z-2.038
X6.942 Y22.528 Z-2.04
X6.916 Y22.52 Z-2.042
X6.891 Y22.51 Z-2.044
X6.867 Y22.498 Z-2.046
X6.844 Y22.484 Z-2.048
X6.822 Y22.469 Z-2.05
X6.802 Y22.452 Z-2.052
X6.784 Y22.433 Z-2.054
X6.767 Y22.413 Z-2.057
X6.752 Y22.392 Z-2.059
X6.739 Y22.37 Z-2.061
X6.728 Y22.347 Z-2.063
X6.719 Y22.324 Z-2.065
X6.712 Y22.299 Z-2.067
X6.707 Y22.275 Z-2.069
X6.704 Y22.25 Z-2.071
X6.703 Y22.226 Z-2.073
X6.704 Y22.201 Z-2.075
X6.707 Y22.177 Z-2.077
X6.712 Y22.154 Z-2.08
X6.719 Y22.131 Z-2.082
X6.728 Y22.108 Z-2.084
X6.738 Y22.087 Z-2.086
G3 X7.262 Y22.315 I0.262 J0.114
X6.738 Y22.087 I-0.262 J-0.114
G1 X6.76 Y22.055
X6.793 Y22.034
X6.831 Y22.027
X6.87 Y22.035
X6.961 Y22.075
X6.996 Y22.091 Z-2.078
X7.026 Y22.104 Z-2.056
X7.046 Y22.112 Z-2.024
X7.053 Y22.115 Z-1.986
G0 Z5.
X19.428 Y31.821
Z2.
G1 Z0.1 F1300.
X19.421 Z0.062
X19.399 Z0.029
X19.367 Z0.008
X19.328 Z0.
X19.228
X19.19 Y31.814
X19.158 Y31.792
X19.136 Y31.759
X19.128 Y31.721
X19.138 Y31.527 Z-0.002
X19.164 Y31.334 Z-0.004
X19.206 Y31.145 Z-0.006
X19.263 Y30.959 Z-0.008
X19.335 Y30.779 Z-0.01
X19.421 Y30.606 Z-0.013
X19.522 Y30.44 Z-0.015
X19.635 Y30.283 Z-0.017
X19.761 Y30.137 Z-0.019
X19.898 Y30.001 Z-0.021
X20.046 Y29.877 Z-0.023
X20.203 Y29.766 Z-0.025
X20.369 Y29.668 Z-0.027
X20.542 Y29.584 Z-0.029
X20.721 Y29.514 Z-0.031
X20.905 Y29.46 Z-0.033
X21.093 Y29.421 Z-0.035
X21.283 Y29.397 Z-0.038
X21.474 Y29.389 Z-0.04
X21.665 Y29.397 Z-0.042
X21.855 Y29.421 Z-0.044
X22.042 Y29.46 Z-0.046
X22.225 Y29.514 Z-0.048
X22.403 Y29.582 Z-0.05
X22.574 Y29.665 Z-0.052
X22.738 Y29.762 Z-0.054
X22.893 Y29.872 Z-0.056
X23.039 Y29.994 Z-0.058
X23.174 Y30.127 Z-0.06
X23.297 Y30.271 Z-0.063
X23.408 Y30.425 Z-0.065
X23.506 Y30.587 Z-0.067
X23.591 Y30.756 Z-0.069
X23.661 Y30.931 Z-0.071
X23.716 Y31.112 Z-0.073
X23.757 Y31.296 Z-0.075
X23.782 Y31.483 Z-0.077
X23.792 Y31.671 Z-0.079
X23.786 Y31.858 Z-0.081
X23.765 Y32.045 Z-0.083
X23.729 Y32.229 Z-0.086
X23.678 Y32.41 Z-0.088
X23.612 Y32.585 Z-0.09
X23.532 Y32.755 Z-0.092
X23.439 Y32.917 Z-0.094
X23.333 Y33.07 Z-0.096
X23.214 Y33.215 Z-0.098
X23.084 Y33.349 Z-0.1
X22.944 Y33.472 Z-0.102
X22.795 Y33.582 Z-0.104
X22.637 Y33.681 Z-0.106
X22.471 Y33.765 Z-0.108
X22.3 Y33.836 Z-0.111
X22.123 Y33.892 Z-0.113
X21.942 Y33.934 Z-0.115
X21.759 Y33.961 Z-0.117
X21.575 Y33.973 Z-0.119
X21.39 Y33.969 Z-0.121
X21.206 Y33.95 Z-0.123
X21.025 Y33.917 Z-0.125
X20.847 Y33.868 Z-0.127
X20.674 Y33.806 Z-0.129
X20.507 Y33.729 Z-0.131
X20.346 Y33.639 Z-0.133
X20.194 Y33.536 Z-0.136
X20.051 Y33.422 Z-0.138
X19.918 Y33.296 Z-0.14
X19.796 Y33.159 Z-0.142
X19.685 Y33.013 Z-0.144
X19.587 Y32.859 Z-0.146
X19.502 Y32.698 Z-0.148
X19.431 Y32.53 Z-0.15
X19.374 Y32.357 Z-0.152
X19.331 Y32.18 Z-0.154
X19.303 Y32. Z-0.156
X19.289 Y31.819 Z-0.159
X19.291 Y31.637 Z-0.161
X19.307 Y31.457 Z-0.163
X19.338 Y31.278 Z-0.165
X19.384 Y31.103 Z-0.167
X19.443 Y30.932 Z-0.169
X19.517 Y30.767 Z-0.171
X19.604 Y30.609 Z-0.173
X19.703 Y30.458 Z-0.175
X19.814 Y30.317 Z-0.177
X19.936 Y30.185 Z-0.179
X20.069 Y30.063 Z-0.181
X20.211 Y29.953 Z-0.184
X20.362 Y29.855 Z-0.186
X20.519 Y29.77 Z-0.188
X20.683 Y29.698 Z-0.19
X20.853 Y29.64 Z-0.192
X21.026 Y29.596 Z-0.194
X21.202 Y29.566 Z-0.196
X21.38 Y29.551 Z-0.198
X21.558 Z-0.2
X21.736 Y29.565 Z-0.202
X21.911 Y29.593 Z-0.204
X22.084 Y29.636 Z-0.206
X22.252 Y29.693 Z-0.209
X22.415 Y29.764 Z-0.211
X22.572 Y29.847 Z-0.213
X22.72 Y29.943 Z-0.215
X22.861 Y30.051 Z-0.217
X22.992 Y30.169 Z-0.219
X23.112 Y30.298 Z-0.221
X23.222 Y30.437 Z-0.223
X23.32 Y30.583 Z-0.225
X23.405 Y30.737 Z-0.227
X23.477 Y30.898 Z-0.229
X23.536 Y31.063 Z-0.232
X23.581 Y31.233 Z-0.234
X23.612 Y31.405 Z-0.236
X23.629 Y31.58 Z-0.238
X23.631 Y31.755 Z-0.24
X23.619 Y31.929 Z-0.242
X23.593 Y32.102 Z-0.244
X23.553 Y32.272 Z-0.246
X23.499 Y32.438 Z-0.248
X23.431 Y32.598 Z-0.25
X23.351 Y32.753 Z-0.252
X23.259 Y32.9 Z-0.254
X23.154 Y33.039 Z-0.257
X23.039 Y33.169 Z-0.259
X22.914 Y33.288 Z-0.261
X22.78 Y33.397 Z-0.263
X22.637 Y33.495 Z-0.265
X22.486 Y33.58 Z-0.267
X22.33 Y33.653 Z-0.269
X22.168 Y33.713 Z-0.271
X22.002 Y33.759 Z-0.273
X21.833 Y33.791 Z-0.275
X21.662 Y33.809 Z-0.277
X21.49 Y33.813 Z-0.279
X21.319 Y33.803 Z-0.282
X21.149 Y33.779 Z-0.284
X20.982 Y33.742 Z-0.286
X20.819 Y33.69 Z-0.288
X20.66 Y33.626 Z-0.29
X20.508 Y33.549 Z-0.292
X20.363 Y33.46 Z-0.294
X20.225 Y33.359 Z-0.296
X20.097 Y33.247 Z-0.298
X19.978 Y33.126 Z-0.3
X19.869 Y32.995 Z-0.302
X19.772 Y32.856 Z-0.305
X19.687 Y32.709 Z-0.307
X19.614 Y32.556 Z-0.309
X19.554 Y32.398 Z-0.311
X19.507 Y32.236 Z-0.313
X19.473 Y32.07 Z-0.315
X19.453 Y31.903 Z-0.317
X19.448 Y31.734 Z-0.319
X19.456 Y31.566 Z-0.321
X19.477 Y31.399 Z-0.323
X19.512 Y31.235 Z-0.325
X19.561 Y31.074 Z-0.327
X19.622 Y30.918 Z-0.33
X19.697 Y30.768 Z-0.332
X19.783 Y30.624 Z-0.334
X19.88 Y30.488 Z-0.336
X19.988 Y30.361 Z-0.338
X20.106 Y30.243 Z-0.34
X20.233 Y30.136 Z-0.342
X20.369 Y30.039 Z-0.344
X20.511 Y29.953 Z-0.346
X20.661 Y29.88 Z-0.348
X20.815 Y29.82 Z-0.35
X20.974 Y29.772 Z-0.352
X21.136 Y29.737 Z-0.355
X21.3 Y29.716 Z-0.357
X21.465 Y29.709 Z-0.359
X21.63 Y29.715 Z-0.361
X21.794 Y29.734 Z-0.363
X21.955 Y29.767 Z-0.365
X22.113 Y29.813 Z-0.367
X22.267 Y29.872 Z-0.369
X22.415 Y29.942 Z-0.371
X22.557 Y30.025 Z-0.373
X22.691 Y30.119 Z-0.375
X22.817 Y30.224 Z-0.378
X22.934 Y30.338 Z-0.38
X23.041 Y30.462 Z-0.382
X23.137 Y30.594 Z-0.384
X23.222 Y30.733 Z-0.386
X23.296 Y30.878 Z-0.388
X23.357 Y31.029 Z-0.39
X23.405 Y31.184 Z-0.392
X23.441 Y31.343 Z-0.394
X23.463 Y31.503 Z-0.396
X23.472 Y31.665 Z-0.398
X23.468 Y31.827 Z-0.4
X23.451 Y31.988 Z-0.403
X23.42 Y32.146 Z-0.405
X23.377 Y32.302 Z-0.407
X23.321 Y32.453 Z-0.409
X23.253 Y32.599 Z-0.411
X23.174 Y32.739 Z-0.413
X23.083 Y32.871 Z-0.415
X22.982 Y32.996 Z-0.417
X22.871 Y33.111 Z-0.419
X22.751 Y33.218 Z-0.421
X22.623 Y33.313 Z-0.423
X22.487 Y33.398 Z-0.426
X22.345 Y33.472 Z-0.428
X22.198 Y33.533 Z-0.43
X22.047 Y33.582 Z-0.432
X21.892 Y33.619 Z-0.434
X21.735 Y33.643 Z-0.436
X21.576 Y33.653 Z-0.438
X21.418 Y33.651 Z-0.44
X21.26 Y33.636 Z-0.442
X21.104 Y33.607 Z-0.444
X20.952 Y33.567 Z-0.446
X20.803 Y33.513 Z-0.448
X20.659 Y33.448 Z-0.451
X20.521 Y33.372 Z-0.453
X20.39 Y33.284 Z-0.455
X20.267 Y33.186 Z-0.457
X20.153 Y33.079 Z-0.459
X20.048 Y32.963 Z-0.461
X19.952 Y32.838 Z-0.463
X19.868 Y32.706 Z-0.465
X19.794 Y32.568 Z-0.467
X19.733 Y32.425 Z-0.469
X19.683 Y32.277 Z-0.471
X19.645 Y32.126 Z-0.473
X19.621 Y31.972 Z-0.476
X19.608 Y31.817 Z-0.478
X19.609 Y31.661 Z-0.48
X19.622 Y31.507 Z-0.482
X19.648 Y31.354 Z-0.484
X19.687 Y31.204 Z-0.486
X19.737 Y31.058 Z-0.488
X19.799 Y30.916 Z-0.49
X19.873 Y30.781 Z-0.492
X19.957 Y30.652 Z-0.494
X20.052 Y30.53 Z-0.496
X20.156 Y30.417 Z-0.499
X20.269 Y30.312 Z-0.501
X20.39 Y30.218 Z-0.503
X20.518 Y30.134 Z-0.505
X20.652 Y30.06 Z-0.507
X20.792 Y29.998 Z-0.509
X20.936 Y29.948 Z-0.511
X21.084 Y29.91 Z-0.513
X21.234 Y29.884 Z-0.515
X21.386 Y29.87 Z-0.517
X21.538 Y29.869 Z-0.519
X21.69 Y29.881 Z-0.521
X21.839 Y29.905 Z-0.524
X21.987 Y29.941 Z-0.526
X22.13 Y29.988 Z-0.528
X22.269 Y30.048 Z-0.53
X22.403 Y30.118 Z-0.532
X22.53 Y30.2 Z-0.534
X22.65 Y30.291 Z-0.536
X22.762 Y30.391 Z-0.538
X22.865 Y30.501 Z-0.54
X22.959 Y30.618 Z-0.542
X23.043 Y30.743 Z-0.544
X23.116 Y30.873 Z-0.546
X23.178 Y31.01 Z-0.549
X23.229 Y31.15 Z-0.551
X23.268 Y31.294 Z-0.553
X23.295 Y31.441 Z-0.555
X23.31 Y31.59 Z-0.557
X23.313 Y31.738 Z-0.559
X23.303 Y31.887 Z-0.561
X23.281 Y32.034 Z-0.563
X23.248 Y32.178 Z-0.565
X23.202 Y32.319 Z-0.567
X23.146 Y32.456 Z-0.569
X23.078 Y32.587 Z-0.572
X23. Y32.713 Z-0.574
X22.912 Y32.831 Z-0.576
X22.815 Y32.942 Z-0.578
X22.709 Y33.044 Z-0.58
X22.595 Y33.137 Z-0.582
X22.474 Y33.22 Z-0.584
X22.347 Y33.293 Z-0.586
X22.214 Y33.355 Z-0.588
X22.077 Y33.406 Z-0.59
X21.936 Y33.446 Z-0.592
X21.793 Y33.474 Z-0.594
X21.648 Y33.49 Z-0.597
X21.503 Y33.494 Z-0.599
X21.358 Y33.486 Z-0.601
X21.214 Y33.467 Z-0.603
X21.072 Y33.435 Z-0.605
X20.934 Y33.392 Z-0.607
X20.799 Y33.338 Z-0.609
X20.67 Y33.274 Z-0.611
X20.547 Y33.199 Z-0.613
X20.43 Y33.114 Z-0.615
X20.321 Y33.02 Z-0.617
X20.22 Y32.917 Z-0.619
X20.128 Y32.807 Z-0.622
X20.045 Y32.69 Z-0.624
X19.972 Y32.566 Z-0.626
X19.91 Y32.437 Z-0.628
X19.859 Y32.304 Z-0.63
X19.818 Y32.167 Z-0.632
X19.79 Y32.027 Z-0.634
X19.772 Y31.885 Z-0.636
X19.767 Y31.743 Z-0.638
X19.773 Y31.601 Z-0.64
X19.791 Y31.46 Z-0.642
X19.82 Y31.321 Z-0.645
X19.86 Y31.186 Z-0.647
X19.912 Y31.054 Z-0.649
X19.974 Y30.927 Z-0.651
X20.046 Y30.805 Z-0.653
X20.127 Y30.69 Z-0.655
X20.218 Y30.583 Z-0.657
X20.317 Y30.483 Z-0.659
X20.424 Y30.392 Z-0.661
X20.538 Y30.31 Z-0.663
X20.658 Y30.237 Z-0.665
X20.783 Y30.175 Z-0.667
X20.913 Y30.124 Z-0.67
X21.047 Y30.083 Z-0.672
X21.183 Y30.053 Z-0.674
X21.321 Y30.035 Z-0.676
X21.46 Y30.028 Z-0.678
X21.599 Y30.032 Z-0.68
X21.737 Y30.048 Z-0.682
X21.873 Y30.075 Z-0.684
X22.006 Y30.113 Z-0.686
X22.135 Y30.162 Z-0.688
X22.26 Y30.221 Z-0.69
X22.379 Y30.291 Z-0.692
X22.492 Y30.369 Z-0.695
X22.598 Y30.457 Z-0.697
X22.697 Y30.552 Z-0.699
X22.787 Y30.656 Z-0.701
X22.868 Y30.766 Z-0.703
X22.94 Y30.883 Z-0.705
X23.002 Y31.004 Z-0.707
X23.054 Y31.131 Z-0.709
X23.095 Y31.261 Z-0.711
X23.126 Y31.394 Z-0.713
X23.145 Y31.528 Z-0.715
X23.153 Y31.664 Z-0.718
X23.15 Y31.799 Z-0.72
X23.136 Y31.934 Z-0.722
X23.111 Y32.067 Z-0.724
X23.075 Y32.198 Z-0.726
X23.029 Y32.324 Z-0.728
X22.972 Y32.447 Z-0.73
X22.906 Y32.564 Z-0.732
X22.831 Y32.675 Z-0.734
X22.746 Y32.78 Z-0.736
X22.654 Y32.877 Z-0.738
X22.554 Y32.966 Z-0.74
X22.447 Y33.047 Z-0.743
X22.334 Y33.118 Z-0.745
X22.216 Y33.18 Z-0.747
X22.093 Y33.232 Z-0.749
X21.967 Y33.273 Z-0.751
X21.837 Y33.304 Z-0.753
X21.706 Y33.324 Z-0.755
X21.574 Y33.334 Z-0.757
X21.441 Y33.332 Z-0.759
X21.31 Y33.32 Z-0.761
X21.18 Y33.297 Z-0.763
X21.052 Y33.264 Z-0.765
X20.928 Y33.22 Z-0.768
X20.808 Y33.166 Z-0.77
X20.693 Y33.102 Z-0.772
X20.583 Y33.03 Z-0.774
X20.481 Y32.949 Z-0.776
X20.385 Y32.859 Z-0.778
X20.297 Y32.763 Z-0.78
X20.217 Y32.659 Z-0.782
X20.146 Y32.55 Z-0.784
X20.085 Y32.435 Z-0.786
X20.033 Y32.316 Z-0.788
X19.991 Y32.193 Z-0.791
X19.959 Y32.067 Z-0.793
X19.938 Y31.94 Z-0.795
X19.928 Y31.811 Z-0.797
Y31.681 Z-0.799
X19.938 Y31.553 Z-0.801
X19.96 Y31.426 Z-0.803
X19.991 Y31.301 Z-0.805
X20.032 Y31.179 Z-0.807
X20.084 Y31.062 Z-0.809
X20.144 Y30.949 Z-0.811
X20.214 Y30.842 Z-0.813
X20.292 Y30.74 Z-0.816
X20.378 Y30.646 Z-0.818
X20.471 Y30.559 Z-0.82
X20.571 Y30.48 Z-0.822
X20.677 Y30.41 Z-0.824
X20.789 Y30.349 Z-0.826
X20.904 Y30.297 Z-0.828
X21.024 Y30.255 Z-0.83
X21.146 Y30.223 Z-0.832
X21.27 Y30.201 Z-0.834
X21.396 Y30.19 Z-0.836
X21.522 Y30.188 Z-0.838
X21.647 Y30.197 Z-0.841
X21.771 Y30.217 Z-0.843
X21.893 Y30.246 Z-0.845
X22.012 Y30.285 Z-0.847
X22.127 Y30.334 Z-0.849
X22.238 Y30.392 Z-0.851
X22.343 Y30.458 Z-0.853
X22.443 Y30.533 Z-0.855
X22.536 Y30.616 Z-0.857
X22.621 Y30.706 Z-0.859
X22.699 Y30.803 Z-0.861
X22.768 Y30.906 Z-0.864
X22.829 Y31.013 Z-0.866
X22.881 Y31.125 Z-0.868
X22.923 Y31.241 Z-0.87
X22.956 Y31.36 Z-0.872
X22.978 Y31.481 Z-0.874
X22.991 Y31.603 Z-0.876
X22.993 Y31.726 Z-0.878
X22.986 Y31.848 Z-0.88
X22.968 Y31.969 Z-0.882
X22.941 Y32.088 Z-0.884
X22.904 Y32.205 Z-0.886
X22.858 Y32.317 Z-0.889
X22.803 Y32.426 Z-0.891
X22.739 Y32.529 Z-0.893
X22.667 Y32.626 Z-0.895
X22.587 Y32.718 Z-0.897
X22.5 Y32.802 Z-0.899
X22.407 Y32.879 Z-0.901
X22.308 Y32.947 Z-0.903
X22.204 Y33.008 Z-0.905
X22.095 Y33.059 Z-0.907
X21.982 Y33.101 Z-0.909
X21.867 Y33.134 Z-0.911
X21.75 Y33.158 Z-0.914
X21.631 Y33.171 Z-0.916
X21.511 Y33.175 Z-0.918
X21.392 Y33.169 Z-0.92
X21.274 Y33.153 Z-0.922
X21.158 Y33.128 Z-0.924
X21.045 Y33.093 Z-0.926
X20.934 Y33.049 Z-0.928
X20.828 Y32.996 Z-0.93
X20.727 Y32.935 Z-0.932
X20.632 Y32.866 Z-0.934
X20.542 Y32.79 Z-0.937
X20.459 Y32.706 Z-0.939
X20.383 Y32.616 Z-0.941
X20.316 Y32.52 Z-0.943
X20.256 Y32.42 Z-0.945
X20.205 Y32.314 Z-0.947
X20.162 Y32.205 Z-0.949
X20.129 Y32.093 Z-0.951
X20.105 Y31.979 Z-0.953
X20.091 Y31.864 Z-0.955
X20.086 Y31.748 Z-0.957
X20.091 Y31.632 Z-0.959
X20.105 Y31.517 Z-0.962
X20.128 Y31.404 Z-0.964
X20.161 Y31.293 Z-0.966
X20.202 Y31.185 Z-0.968
X20.253 Y31.082 Z-0.97
X20.311 Y30.983 Z-0.972
X20.377 Y30.889 Z-0.974
X20.451 Y30.801 Z-0.976
X20.531 Y30.72 Z-0.978
X20.618 Y30.645 Z-0.98
X20.71 Y30.578 Z-0.982
X20.808 Y30.519 Z-0.984
X20.91 Y30.468 Z-0.987
X21.015 Y30.426 Z-0.989
X21.123 Y30.393 Z-0.991
X21.234 Y30.368 Z-0.993
X21.346 Y30.353 Z-0.995
X21.459 Y30.347 Z-0.997
X21.571 Y30.351 Z-0.999
X21.683 Y30.363 Z-1.001
X21.794 Y30.385 Z-1.003
X21.902 Y30.415 Z-1.005
X22.007 Y30.455 Z-1.007
X22.108 Y30.502 Z-1.01
X22.205 Y30.558 Z-1.012
X22.296 Y30.621 Z-1.014
X22.383 Y30.692 Z-1.016
X22.463 Y30.769 Z-1.018
X22.536 Y30.853 Z-1.02
X22.602 Y30.942 Z-1.022
X22.66 Y31.036 Z-1.024
X22.711 Y31.134 Z-1.026
X22.753 Y31.236 Z-1.028
X22.786 Y31.341 Z-1.03
X22.811 Y31.448 Z-1.032
X22.827 Y31.557 Z-1.035
X22.834 Y31.666 Z-1.037
X22.832 Y31.776 Z-1.039
X22.821 Y31.885 Z-1.041
X22.801 Y31.992 Z-1.043
X22.772 Y32.097 Z-1.045
X22.735 Y32.199 Z-1.047
X22.69 Y32.298 Z-1.049
X22.637 Y32.393 Z-1.051
X22.576 Y32.483 Z-1.053
X22.509 Y32.567 Z-1.055
X22.434 Y32.645 Z-1.057
X22.354 Y32.717 Z-1.06
X22.268 Y32.782 Z-1.062
X22.178 Y32.84 Z-1.064
X22.083 Y32.89 Z-1.066
X21.984 Y32.932 Z-1.068
X21.883 Y32.965 Z-1.07
X21.779 Y32.99 Z-1.072
X21.674 Y33.007 Z-1.074
X21.567 Y33.015 Z-1.076
X21.461 Y33.014 Z-1.078
X21.356 Y33.004 Z-1.08
X21.251 Y32.986 Z-1.083
X21.149 Y32.959 Z-1.085
X21.049 Y32.924 Z-1.087
X20.953 Y32.882 Z-1.089
X20.861 Y32.831 Z-1.091
X20.773 Y32.773 Z-1.093
X20.691 Y32.708 Z-1.095
X20.614 Y32.637 Z-1.097
X20.543 Y32.56 Z-1.099
X20.479 Y32.478 Z-1.101
X20.423 Y32.39 Z-1.103
X20.373 Y32.299 Z-1.105
X20.332 Y32.203 Z-1.108
X20.298 Y32.105 Z-1.11
X20.273 Y32.005 Z-1.112
X20.255 Y31.903 Z-1.114
X20.247 Y31.8 Z-1.116
Y31.697 Z-1.118
X20.255 Y31.595 Z-1.12
X20.271 Y31.494 Z-1.122
X20.296 Y31.394 Z-1.124
X20.329 Y31.297 Z-1.126
X20.37 Y31.204 Z-1.128
X20.418 Y31.114 Z-1.13
X20.473 Y31.028 Z-1.133
X20.535 Y30.948 Z-1.135
X20.603 Y30.872 Z-1.137
X20.677 Y30.803 Z-1.139
X20.756 Y30.741 Z-1.141
X20.84 Y30.685 Z-1.143
X20.929 Y30.636 Z-1.145
X21.02 Y30.595 Z-1.147
X21.115 Y30.561 Z-1.149
X21.212 Y30.535 Z-1.151
X21.31 Y30.518 Z-1.153
X21.41 Y30.508 Z-1.156
X21.51 Y30.507 Z-1.158
X21.609 Y30.514 Z-1.16
X21.707 Y30.529 Z-1.162
X21.804 Y30.552 Z-1.164
X21.898 Y30.583 Z-1.166
X21.989 Y30.621 Z-1.168
X22.076 Y30.667 Z-1.17
X22.16 Y30.72 Z-1.172
X22.238 Y30.779 Z-1.174
X22.312 Y30.844 Z-1.176
X22.379 Y30.915 Z-1.178
X22.441 Y30.991 Z-1.181
X22.496 Y31.072 Z-1.183
X22.544 Y31.157 Z-1.185
X22.585 Y31.245 Z-1.187
X22.618 Y31.336 Z-1.189
X22.644 Y31.43 Z-1.191
X22.662 Y31.525 Z-1.193
X22.672 Y31.621 Z-1.195
X22.674 Y31.717 Z-1.197
X22.669 Y31.814 Z-1.199
X22.655 Y31.909 Z-1.201
X22.634 Y32.002 Z-1.203
X22.605 Y32.094 Z-1.206
X22.569 Y32.182 Z-1.208
X22.525 Y32.267 Z-1.21
X22.475 Y32.348 Z-1.212
X22.419 Y32.425 Z-1.214
X22.357 Y32.497 Z-1.216
X22.289 Y32.563 Z-1.218
X22.216 Y32.623 Z-1.22
X22.138 Y32.677 Z-1.222
X22.057 Y32.724 Z-1.224
X21.972 Y32.765 Z-1.226
X21.884 Y32.798 Z-1.229
X21.794 Y32.824 Z-1.231
X21.702 Y32.842 Z-1.233
X21.609 Y32.853 Z-1.235
X21.516 Y32.856 Z-1.237
X21.423 Y32.851 Z-1.239
X21.331 Y32.839 Z-1.241
X21.24 Y32.819 Z-1.243
X21.152 Y32.792 Z-1.245
X21.066 Y32.758 Z-1.247
X20.983 Y32.717 Z-1.249
X20.905 Y32.67 Z-1.251
X20.83 Y32.616 Z-1.254
X20.76 Y32.557 Z-1.256
X20.696 Y32.492 Z-1.258
X20.637 Y32.422 Z-1.26
X20.584 Y32.348 Z-1.262
X20.538 Y32.269 Z-1.264
X20.498 Y32.188 Z-1.266
X20.465 Y32.103 Z-1.268
X20.439 Y32.017 Z-1.27
X20.42 Y31.928 Z-1.272
X20.409 Y31.839 Z-1.274
X20.405 Y31.749 Z-1.277
X20.409 Y31.659 Z-1.279
X20.42 Y31.57 Z-1.281
X20.438 Y31.482 Z-1.283
X20.463 Y31.397 Z-1.285
X20.495 Y31.314 Z-1.287
X20.534 Y31.234 Z-1.289
X20.579 Y31.157 Z-1.291
X20.63 Y31.085 Z-1.293
X20.686 Y31.017 Z-1.295
X20.748 Y30.954 Z-1.297
X20.815 Y30.896 Z-1.299
X20.886 Y30.845 Z-1.302
X20.961 Y30.799 Z-1.304
X21.039 Y30.76 Z-1.306
X21.121 Y30.727 Z-1.308
X21.204 Y30.702 Z-1.31
X21.289 Y30.683 Z-1.312
X21.375 Y30.671 Z-1.314
X21.462 Y30.666 Z-1.316
X21.548 Y30.669 Z-1.318
X21.634 Y30.678 Z-1.32
X21.719 Y30.695 Z-1.322
X21.801 Y30.718 Z-1.324
X21.882 Y30.748 Z-1.327
X21.96 Y30.785 Z-1.329
X22.034 Y30.828 Z-1.331
X22.104 Y30.876 Z-1.333
X22.17 Y30.93 Z-1.335
X22.231 Y30.989 Z-1.337
X22.287 Y31.053 Z-1.339
X22.337 Y31.121 Z-1.341
X22.382 Y31.193 Z-1.343
X22.421 Y31.268 Z-1.345
X22.453 Y31.345 Z-1.347
X22.478 Y31.425 Z-1.35
X22.497 Y31.507 Z-1.352
X22.509 Y31.59 Z-1.354
X22.515 Y31.673 Z-1.356
X22.513 Y31.756 Z-1.358
X22.505 Y31.839 Z-1.36
X22.49 Y31.921 Z-1.362
X22.468 Y32.001 Z-1.364
X22.44 Y32.078 Z-1.366
X22.405 Y32.153 Z-1.368
X22.365 Y32.225 Z-1.37
X22.319 Y32.293 Z-1.372
X22.268 Y32.357 Z-1.375
X22.212 Y32.416 Z-1.377
X22.151 Y32.471 Z-1.379
X22.086 Y32.52 Z-1.381
X22.018 Y32.564 Z-1.383
X21.946 Y32.601 Z-1.385
X21.871 Y32.633 Z-1.387
X21.795 Y32.658 Z-1.389
X21.716 Y32.677 Z-1.391
X21.637 Y32.69 Z-1.393
X21.557 Y32.696 Z-1.395
X21.477 Y32.695 Z-1.397
X21.397 Y32.688 Z-1.4
X21.319 Y32.674 Z-1.402
X21.242 Y32.654 Z-1.404
X21.167 Y32.628 Z-1.406
X21.095 Y32.595 Z-1.408
X21.025 Y32.557 Z-1.41
X20.96 Y32.514 Z-1.412
X20.898 Y32.465 Z-1.414
X20.84 Y32.412 Z-1.416
X20.787 Y32.354 Z-1.418
X20.739 Y32.292 Z-1.42
X20.697 Y32.227 Z-1.423
X20.66 Y32.158 Z-1.425
X20.629 Y32.087 Z-1.427
X20.604 Y32.014 Z-1.429
X20.585 Y31.939 Z-1.431
X20.572 Y31.863 Z-1.433
X20.566 Y31.786 Z-1.435
Y31.709 Z-1.437
X20.572 Y31.633 Z-1.439
X20.584 Y31.558 Z-1.441
X20.603 Y31.484 Z-1.443
X20.627 Y31.411 Z-1.445
X20.657 Y31.342 Z-1.448
X20.693 Y31.275 Z-1.45
X20.734 Y31.211 Z-1.452
X20.78 Y31.152 Z-1.454
X20.831 Y31.096 Z-1.456
X20.886 Y31.045 Z-1.458
X20.945 Y30.998 Z-1.46
X21.007 Y30.957 Z-1.462
X21.072 Y30.921 Z-1.464
X21.14 Y30.891 Z-1.466
X21.21 Y30.866 Z-1.468
X21.282 Y30.847 Z-1.47
X21.354 Y30.834 Z-1.473
X21.428 Y30.827 Z-1.475
X21.501 Y30.826 Z-1.477
X21.575 Y30.832 Z-1.479
X21.647 Y30.843 Z-1.481
X21.718 Y30.86 Z-1.483
X21.787 Y30.883 Z-1.485
X21.854 Y30.911 Z-1.487
X21.918 Y30.944 Z-1.489
X21.98 Y30.983 Z-1.491
X22.037 Y31.027 Z-1.493
X22.091 Y31.074 Z-1.496
X22.141 Y31.127 Z-1.498
X22.185 Y31.182 Z-1.5
X22.226 Y31.242 Z-1.502
X22.261 Y31.304 Z-1.504
X22.29 Y31.368 Z-1.506
X22.315 Y31.435 Z-1.508
X22.333 Y31.503 Z-1.51
X22.346 Y31.573 Z-1.512
X22.354 Y31.643 Z-1.514
X22.355 Y31.713 Z-1.516
X22.351 Y31.783 Z-1.518
X22.341 Y31.852 Z-1.521
X22.325 Y31.92 Z-1.523
X22.304 Y31.987 Z-1.525
X22.278 Y32.051 Z-1.527
X22.246 Y32.113 Z-1.529
X22.21 Y32.171 Z-1.531
X22.169 Y32.227 Z-1.533
X22.124 Y32.279 Z-1.535
X22.074 Y32.326 Z-1.537
X22.022 Y32.37 Z-1.539
X21.965 Y32.409 Z-1.541
X21.906 Y32.443 Z-1.543
X21.845 Y32.472 Z-1.546
X21.782 Y32.495 Z-1.548
X21.717 Y32.514 Z-1.55
X21.651 Y32.527 Z-1.552
X21.584 Y32.535 Z-1.554
X21.517 Y32.537 Z-1.556
X21.45 Y32.533 Z-1.558
X21.384 Y32.524 Z-1.56
X21.319 Y32.51 Z-1.562
X21.255 Y32.49 Z-1.564
X21.194 Y32.466 Z-1.566
X21.135 Y32.436 Z-1.569
X21.079 Y32.402 Z-1.571
X21.025 Y32.364 Z-1.573
X20.976 Y32.321 Z-1.575
X20.93 Y32.275 Z-1.577
X20.888 Y32.225 Z-1.579
X20.85 Y32.172 Z-1.581
X20.817 Y32.116 Z-1.583
X20.789 Y32.058 Z-1.585
X20.766 Y31.997 Z-1.587
X20.748 Y31.936 Z-1.589
X20.735 Y31.873 Z-1.591
X20.727 Y31.809 Z-1.594
X20.724 Y31.746 Z-1.596
X20.727 Y31.682 Z-1.598
X20.735 Y31.619 Z-1.6
X20.748 Y31.557 Z-1.602
X20.766 Y31.497 Z-1.604
X20.789 Y31.438 Z-1.606
X20.816 Y31.382 Z-1.608
X20.848 Y31.328 Z-1.61
X20.884 Y31.277 Z-1.612
X20.924 Y31.229 Z-1.614
X20.968 Y31.185 Z-1.616
X21.015 Y31.145 Z-1.619
X21.065 Y31.109 Z-1.621
X21.118 Y31.077 Z-1.623
X21.173 Y31.05 Z-1.625
X21.23 Y31.027 Z-1.627
X21.288 Y31.009 Z-1.629
X21.348 Y30.996 Z-1.631
X21.408 Y30.989 Z-1.633
X21.469 Y30.986 Z-1.635
X21.529 Y30.988 Z-1.637
X21.589 Y30.994 Z-1.639
X21.648 Y31.006 Z-1.642
X21.705 Y31.023 Z-1.644
X21.761 Y31.044 Z-1.646
X21.815 Y31.069 Z-1.648
X21.866 Y31.099 Z-1.65
X21.915 Y31.133 Z-1.652
X21.96 Y31.171 Z-1.654
X22.002 Y31.212 Z-1.656
X22.041 Y31.256 Z-1.658
X22.075 Y31.303 Z-1.66
X22.106 Y31.353 Z-1.662
X22.132 Y31.405 Z-1.664
X22.154 Y31.458 Z-1.667
X22.172 Y31.513 Z-1.669
X22.184 Y31.57 Z-1.671
X22.192 Y31.627 Z-1.673
X22.196 Y31.684 Z-1.675
X22.194 Y31.741 Z-1.677
X22.188 Y31.798 Z-1.679
X22.178 Y31.853 Z-1.681
X22.163 Y31.908 Z-1.683
X22.143 Y31.961 Z-1.685
X22.119 Y32.012 Z-1.687
X22.092 Y32.061 Z-1.689
X22.06 Y32.107 Z-1.692
X22.025 Y32.15 Z-1.694
X21.986 Y32.19 Z-1.696
X21.945 Y32.227 Z-1.698
X21.901 Y32.26 Z-1.7
X21.854 Y32.289 Z-1.702
X21.805 Y32.315 Z-1.704
X21.755 Y32.336 Z-1.706
X21.703 Y32.353 Z-1.708
X21.65 Y32.365 Z-1.71
X21.596 Y32.373 Z-1.712
X21.542 Y32.377 Z-1.715
X21.489 Y32.376 Z-1.717
X21.435 Y32.371 Z-1.719
X21.382 Y32.361 Z-1.721
X21.331 Y32.347 Z-1.723
X21.281 Y32.33 Z-1.725
X21.233 Y32.308 Z-1.727
X21.186 Y32.282 Z-1.729
X21.143 Y32.253 Z-1.731
X21.102 Y32.22 Z-1.733
X21.063 Y32.184 Z-1.735
X21.029 Y32.145 Z-1.737
X20.997 Y32.104 Z-1.74
X20.969 Y32.06 Z-1.742
X20.945 Y32.015 Z-1.744
X20.925 Y31.967 Z-1.746
X20.908 Y31.919 Z-1.748
X20.896 Y31.869 Z-1.75
X20.888 Y31.819 Z-1.752
X20.884 Y31.768 Z-1.754
X20.885 Y31.717 Z-1.756
X20.889 Y31.667 Z-1.758
X20.898 Y31.617 Z-1.76
X20.91 Y31.569 Z-1.762
X20.927 Y31.522 Z-1.765
X20.947 Y31.476 Z-1.767
X20.971 Y31.433 Z-1.769
X20.998 Y31.391 Z-1.771
X21.028 Y31.353 Z-1.773
X21.062 Y31.317 Z-1.775
X21.098 Y31.284 Z-1.777
X21.136 Y31.254 Z-1.779
X21.177 Y31.227 Z-1.781
X21.219 Y31.204 Z-1.783
X21.264 Y31.185 Z-1.785
X21.309 Y31.169 Z-1.788
X21.355 Y31.157 Z-1.79
X21.403 Y31.15 Z-1.792
X21.45 Y31.146 Z-1.794
X21.497 Y31.145 Z-1.796
X21.544 Y31.149 Z-1.798
X21.591 Y31.157 Z-1.8
X21.636 Y31.168 Z-1.802
X21.68 Y31.183 Z-1.804
X21.723 Y31.202 Z-1.806
X21.764 Y31.224 Z-1.808
X21.803 Y31.249 Z-1.81
X21.839 Y31.277 Z-1.813
X21.873 Y31.308 Z-1.815
X21.904 Y31.341 Z-1.817
X21.932 Y31.377 Z-1.819
X21.957 Y31.415 Z-1.821
X21.979 Y31.454 Z-1.823
X21.998 Y31.495 Z-1.825
X22.013 Y31.537 Z-1.827
X22.024 Y31.581 Z-1.829
X22.032 Y31.624 Z-1.831
X22.036 Y31.669 Z-1.833
Y31.713 Z-1.835
X22.033 Y31.757 Z-1.838
X22.026 Y31.8 Z-1.84
X22.016 Y31.842 Z-1.842
X22.002 Y31.883 Z-1.844
X21.985 Y31.923 Z-1.846
X21.965 Y31.961 Z-1.848
X21.942 Y31.998 Z-1.85
X21.916 Y32.032 Z-1.852
X21.888 Y32.063 Z-1.854
X21.857 Y32.093 Z-1.856
X21.824 Y32.119 Z-1.858
X21.789 Y32.143 Z-1.861
X21.753 Y32.163 Z-1.863
X21.715 Y32.18 Z-1.865
X21.676 Y32.194 Z-1.867
X21.636 Y32.205 Z-1.869
X21.595 Y32.213 Z-1.871
X21.554 Y32.217 Z-1.873
X21.513 Z-1.875
X21.473 Y32.215 Z-1.877
X21.433 Y32.209 Z-1.879
X21.393 Y32.2 Z-1.881
X21.355 Y32.187 Z-1.883
X21.318 Y32.172 Z-1.886
X21.283 Y32.154 Z-1.888
X21.249 Y32.133 Z-1.89
X21.217 Y32.109 Z-1.892
X21.188 Y32.083 Z-1.894
X21.161 Y32.055 Z-1.896
X21.136 Y32.024 Z-1.898
X21.114 Y31.992 Z-1.9
X21.095 Y31.959 Z-1.902
X21.079 Y31.924 Z-1.904
X21.066 Y31.888 Z-1.906
X21.055 Y31.851 Z-1.908
X21.048 Y31.814 Z-1.911
X21.044 Y31.776 Z-1.913
Y31.738 Z-1.915
X21.046 Y31.701 Z-1.917
X21.051 Y31.664 Z-1.919
X21.059 Y31.628 Z-1.921
X21.07 Y31.593 Z-1.923
X21.084 Y31.559 Z-1.925
X21.101 Y31.526 Z-1.927
X21.12 Y31.495 Z-1.929
X21.141 Y31.466 Z-1.931
X21.165 Y31.439 Z-1.934
X21.191 Y31.414 Z-1.936
X21.219 Y31.391 Z-1.938
X21.248 Y31.371 Z-1.94
X21.279 Y31.353 Z-1.942
X21.31 Y31.338 Z-1.944
X21.343 Y31.326 Z-1.946
X21.377 Y31.316 Z-1.948
X21.411 Y31.309 Z-1.95
X21.445 Y31.305 Z-1.952
X21.48 Y31.304 Z-1.954
X21.514 Y31.306 Z-1.956
X21.548 Y31.311 Z-1.959
X21.581 Y31.318 Z-1.961
X21.613 Y31.328 Z-1.963
X21.644 Y31.341 Z-1.965
X21.674 Y31.356 Z-1.967
X21.702 Y31.373 Z-1.969
X21.729 Y31.392 Z-1.971
X21.754 Y31.414 Z-1.973
X21.776 Y31.437 Z-1.975
X21.797 Y31.462 Z-1.977
X21.816 Y31.489 Z-1.979
X21.832 Y31.516 Z-1.981
X21.846 Y31.545 Z-1.984
X21.857 Y31.575 Z-1.986
X21.866 Y31.605 Z-1.988
X21.872 Y31.636 Z-1.99
X21.876 Y31.667 Z-1.992
X21.877 Y31.699 Z-1.994
X21.875 Y31.729 Z-1.996
X21.871 Y31.76 Z-1.998
X21.865 Y31.79 Z-2.
X21.856 Y31.819 Z-2.002
X21.845 Y31.847 Z-2.004
X21.831 Y31.874 Z-2.007
X21.816 Y31.9 Z-2.009
X21.798 Y31.924 Z-2.011
X21.779 Y31.946 Z-2.013
X21.758 Y31.967 Z-2.015
X21.736 Y31.986 Z-2.017
X21.712 Y32.003 Z-2.019
X21.687 Y32.017 Z-2.021
X21.661 Y32.03 Z-2.023
X21.635 Y32.04 Z-2.025
X21.607 Y32.048 Z-2.027
X21.58 Y32.054 Z-2.029
X21.552 Y32.057 Z-2.032
X21.524 Y32.058 Z-2.034
X21.496 Y32.057 Z-2.036
X21.469 Y32.053 Z-2.038
X21.442 Y32.048 Z-2.04
X21.416 Y32.04 Z-2.042
X21.391 Y32.03 Z-2.044
X21.367 Y32.018 Z-2.046
X21.344 Y32.004 Z-2.048
X21.322 Y31.989 Z-2.05
X21.302 Y31.972 Z-2.052
X21.284 Y31.953 Z-2.054
X21.267 Y31.933 Z-2.057
X21.252 Y31.912 Z-2.059
X21.239 Y31.89 Z-2.061
X21.228 Y31.867 Z-2.063
X21.219 Y31.844 Z-2.065
X21.212 Y31.819 Z-2.067
X21.207 Y31.795 Z-2.069
X21.204 Y31.77 Z-2.071
X21.203 Y31.746 Z-2.073
X21.204 Y31.721 Z-2.075
X21.207 Y31.697 Z-2.077
X21.212 Y31.673 Z-2.08
X21.219 Y31.65 Z-2.082
X21.228 Y31.628 Z-2.084
X21.238 Y31.607 Z-2.086
G3 X21.762 Y31.835 I0.262 J0.114
X21.238 Y31.607 I-0.262 J-0.114
G1 X21.26 Y31.575
X21.293 Y31.554
X21.331 Y31.547
X21.37 Y31.555
X21.461 Y31.595
X21.496 Y31.611 Z-2.078
X21.526 Y31.623 Z-2.056
X21.546 Y31.632 Z-2.024
X21.553 Y31.635 Z-1.986
G0 Z5.
X35.428 Y31.821
Z2.
G1 Z0.1 F1300.
X35.421 Z0.062
X35.399 Z0.029
X35.367 Z0.008
X35.328 Z0.
X35.228
X35.19 Y31.814
X35.158 Y31.792
X35.136 Y31.759
X35.128 Y31.721
X35.138 Y31.527 Z-0.002
X35.164 Y31.334 Z-0.004
X35.206 Y31.145 Z-0.006
X35.263 Y30.959 Z-0.008
X35.335 Y30.779 Z-0.01
X35.421 Y30.606 Z-0.013
X35.522 Y30.44 Z-0.015
X35.635 Y30.283 Z-0.017
X35.761 Y30.137 Z-0.019
X35.898 Y30.001 Z-0.021
X36.046 Y29.877 Z-0.023
X36.203 Y29.766 Z-0.025
X36.369 Y29.668 Z-0.027
X36.542 Y29.584 Z-0.029
X36.721 Y29.514 Z-0.031
X36.905 Y29.46 Z-0.033
X37.093 Y29.421 Z-0.035
X37.283 Y29.397 Z-0.038
X37.474 Y29.389 Z-0.04
X37.665 Y29.397 Z-0.042
X37.855 Y29.421 Z-0.044
X38.042 Y29.46 Z-0.046
X38.225 Y29.514 Z-0.048
X38.403 Y29.582 Z-0.05
X38.574 Y29.665 Z-0.052
X38.738 Y29.762 Z-0.054
X38.893 Y29.872 Z-0.056
X39.039 Y29.994 Z-0.058
X39.174 Y30.127 Z-0.06
X39.297 Y30.271 Z-0.063
X39.408 Y30.425 Z-0.065
X39.506 Y30.587 Z-0.067
X39.591 Y30.756 Z-0.069
X39.661 Y30.931 Z-0.071
X39.716 Y31.112 Z-0.073
X39.757 Y31.296 Z-0.075
X39.782 Y31.483 Z-0.077
X39.792 Y31.671 Z-0.079
X39.786 Y31.858 Z-0.081
X39.765 Y32.045 Z-0.083
X39.729 Y32.229 Z-0.086
X39.678 Y32.41 Z-0.088
X39.612 Y32.585 Z-0.09
X39.532 Y32.755 Z-0.092
X39.439 Y32.917 Z-0.094
X39.333 Y33.07 Z-0.096
X39.214 Y33.215 Z-0.098
X39.084 Y33.349 Z-0.1
X38.944 Y33.472 Z-0.102
X38.795 Y33.582 Z-0.104
X38.637 Y33.681 Z-0.106
X38.471 Y33.765 Z-0.108
X38.3 Y33.836 Z-0.111
X38.123 Y33.892 Z-0.113
X37.942 Y33.934 Z-0.115
X37.759 Y33.961 Z-0.117
X37.575 Y33.973 Z-0.119
X37.39 Y33.969 Z-0.121
X37.206 Y33.95 Z-0.123
X37.025 Y33.917 Z-0.125
X36.847 Y33.868 Z-0.127
X36.674 Y33.806 Z-0.129
X36.507 Y33.729 Z-0.131
X36.346 Y33.639 Z-0.133
X36.194 Y33.536 Z-0.136
X36.051 Y33.422 Z-0.138
X35.918 Y33.296 Z-0.14
X35.796 Y33.159 Z-0.142
X35.685 Y33.013 Z-0.144
X35.587 Y32.859 Z-0.146
X35.502 Y32.698 Z-0.148
X35.431 Y32.53 Z-0.15
X35.374 Y32.357 Z-0.152
X35.331 Y32.18 Z-0.154
X35.303 Y32. Z-0.156
X35.289 Y31.819 Z-0.159
X35.291 Y31.637 Z-0.161
X35.307 Y31.457 Z-0.163
X35.338 Y31.278 Z-0.165
X35.384 Y31.103 Z-0.167
X35.443 Y30.932 Z-0.169
X35.517 Y30.767 Z-0.171
X35.604 Y30.609 Z-0.173
X35.703 Y30.458 Z-0.175
X35.814 Y30.317 Z-0.177
X35.936 Y30.185 Z-0.179
X36.069 Y30.063 Z-0.181
X36.211 Y29.953 Z-0.184
X36.362 Y29.855 Z-0.186
X36.519 Y29.77 Z-0.188
X36.683 Y29.698 Z-0.19
X36.853 Y29.64 Z-0.192
X37.026 Y29.596 Z-0.194
X37.202 Y29.566 Z-0.196
X37.38 Y29.551 Z-0.198
X37.558 Z-0.2
X37.736 Y29.565 Z-0.202
X37.911 Y29.593 Z-0.204
X38.084 Y29.636 Z-0.206
X38.252 Y29.693 Z-0.209
X38.415 Y29.764 Z-0.211
X38.572 Y29.847 Z-0.213
X38.72 Y29.943 Z-0.215
X38.861 Y30.051 Z-0.217
X38.992 Y30.169 Z-0.219
X39.112 Y30.298 Z-0.221
X39.222 Y30.437 Z-0.223
X39.32 Y30.583 Z-0.225
X39.405 Y30.737 Z-0.227
X39.477 Y30.898 Z-0.229
X39.536 Y31.063 Z-0.232
X39.581 Y31.233 Z-0.234
X39.612 Y31.405 Z-0.236
X39.629 Y31.58 Z-0.238
X39.631 Y31.755 Z-0.24
X39.619 Y31.929 Z-0.242
X39.593 Y32.102 Z-0.244
X39.553 Y32.272 Z-0.246
X39.499 Y32.438 Z-0.248
X39.431 Y32.598 Z-0.25
X39.351 Y32.753 Z-0.252
X39.259 Y32.9 Z-0.254
X39.154 Y33.039 Z-0.257
X39.039 Y33.169 Z-0.259
X38.914 Y33.288 Z-0.261
X38.78 Y33.397 Z-0.263
X38.637 Y33.495 Z-0.265
X38.486 Y33.58 Z-0.267
X38.33 Y33.653 Z-0.269
X38.168 Y33.713 Z-0.271
X38.002 Y33.759 Z-0.273
X37.833 Y33.791 Z-0.275
X37.662 Y33.809 Z-0.277
X37.49 Y33.813 Z-0.279
X37.319 Y33.803 Z-0.282
X37.149 Y33.779 Z-0.284
X36.982 Y33.742 Z-0.286
X36.819 Y33.69 Z-0.288
X36.66 Y33.626 Z-0.29
X36.508 Y33.549 Z-0.292
X36.363 Y33.46 Z-0.294
X36.225 Y33.359 Z-0.296
X36.097 Y33.247 Z-0.298
X35.978 Y33.126 Z-0.3
X35.869 Y32.995 Z-0.302
X35.772 Y32.856 Z-0.305
X35.687 Y32.709 Z-0.307
X35.614 Y32.556 Z-0.309
X35.554 Y32.398 Z-0.311
X35.507 Y32.236 Z-0.313
X35.473 Y32.07 Z-0.315
X35.453 Y31.903 Z-0.317
X35.448 Y31.734 Z-0.319
X35.456 Y31.566 Z-0.321
X35.477 Y31.399 Z-0.323
X35.512 Y31.235 Z-0.325
X35.561 Y31.074 Z-0.327
X35.622 Y30.918 Z-0.33
X35.697 Y30.768 Z-0.332
X35.783 Y30.624 Z-0.334
X35.88 Y30.488 Z-0.336
X35.988 Y30.361 Z-0.338
X36.106 Y30.243 Z-0.34
X36.233 Y30.136 Z-0.342
X36.369 Y30.039 Z-0.344
X36.511 Y29.953 Z-0.346
X36.661 Y29.88 Z-0.348
X36.815 Y29.82 Z-0.35
X36.974 Y29.772 Z-0.352
X37.136 Y29.737 Z-0.355
X37.3 Y29.716 Z-0.357
X37.465 Y29.709 Z-0.359
X37.63 Y29.715 Z-0.361
X37.794 Y29.734 Z-0.363
X37.955 Y29.767 Z-0.365
X38.113 Y29.813 Z-0.367
X38.267 Y29.872 Z-0.369
X38.415 Y29.942 Z-0.371
X38.557 Y30.025 Z-0.373
X38.691 Y30.119 Z-0.375
X38.817 Y30.224 Z-0.378
X38.934 Y30.338 Z-0.38
X39.041 Y30.462 Z-0.382
X39.137 Y30.594 Z-0.384
X39.222 Y30.733 Z-0.386
X39.296 Y30.878 Z-0.388
X39.357 Y31.029 Z-0.39
X39.405 Y31.184 Z-0.392
X39.441 Y31.343 Z-0.394
X39.463 Y31.503 Z-0.396
X39.472 Y31.665 Z-0.398
X39.468 Y31.827 Z-0.4
X39.451 Y31.988 Z-0.403
X39.42 Y32.146 Z-0.405
X39.377 Y32.302 Z-0.407
X39.321 Y32.453 Z-0.409
X39.253 Y32.599 Z-0.411
X39.174 Y32.739 Z-0.413
X39.083 Y32.871 Z-0.415
X38.982 Y32.996 Z-0.417
X38.871 Y33.111 Z-0.419
X38.751 Y33.218 Z-0.421
X38.623 Y33.313 Z-0.423
X38.487 Y33.398 Z-0.426
X38.345 Y33.472 Z-0.428
X38.198 Y33.533 Z-0.43
X38.047 Y33.582 Z-0.432
X37.892 Y33.619 Z-0.434
X37.735 Y33.643 Z-0.436
X37.576 Y33.653 Z-0.438
X37.418 Y33.651 Z-0.44
X37.26 Y33.636 Z-0.442
X37.104 Y33.607 Z-0.444
X36.952 Y33.567 Z-0.446
X36.803 Y33.513 Z-0.448
X36.659 Y33.448 Z-0.451
X36.521 Y33.372 Z-0.453
X36.39 Y33.284 Z-0.455
X36.267 Y33.186 Z-0.457
X36.153 Y33.079 Z-0.459
X36.048 Y32.963 Z-0.461
X35.952 Y32.838 Z-0.463
X35.868 Y32.706 Z-0.465
X35.794 Y32.568 Z-0.467
X35.733 Y32.425 Z-0.469
X35.683 Y32.277 Z-0.471
X35.645 Y32.126 Z-0.473
X35.621 Y31.972 Z-0.476
X35.608 Y31.817 Z-0.478
X35.609 Y31.661 Z-0.48
X35.622 Y31.507 Z-0.482
X35.648 Y31.354 Z-0.484
X35.687 Y31.204 Z-0.486
X35.737 Y31.058 Z-0.488
X35.799 Y30.916 Z-0.49
X35.873 Y30.781 Z-0.492
X35.957 Y30.652 Z-0.494
X36.052 Y30.53 Z-0.496
X36.156 Y30.417 Z-0.499
X36.269 Y30.312 Z-0.501
X36.39 Y30.218 Z-0.503
X36.518 Y30.134 Z-0.505
X36.652 Y30.06 Z-0.507
X36.792 Y29.998 Z-0.509
X36.936 Y29.948 Z-0.511
X37.084 Y29.91 Z-0.513
X37.234 Y29.884 Z-0.515
X37.386 Y29.87 Z-0.517
X37.538 Y29.869 Z-0.519
X37.69 Y29.881 Z-0.521
X37.839 Y29.905 Z-0.524
X37.987 Y29.941 Z-0.526
X38.13 Y29.988 Z-0.528
X38.269 Y30.048 Z-0.53
X38.403 Y30.118 Z-0.532
X38.53 Y30.2 Z-0.534
X38.65 Y30.291 Z-0.536
X38.762 Y30.391 Z-0.538
X38.865 Y30.501 Z-0.54
X38.959 Y30.618 Z-0.542
X39.043 Y30.743 Z-0.544
X39.116 Y30.873 Z-0.546
X39.178 Y31.01 Z-0.549
X39.229 Y31.15 Z-0.551
X39.268 Y31.294 Z-0.553
X39.295 Y31.441 Z-0.555
X39.31 Y31.59 Z-0.557
X39.313 Y31.738 Z-0.559
X39.303 Y31.887 Z-0.561
X39.281 Y32.034 Z-0.563
X39.248 Y32.178 Z-0.565
X39.202 Y32.319 Z-0.567
X39.146 Y32.456 Z-0.569
X39.078 Y32.587 Z-0.572
X39. Y32.713 Z-0.574
X38.912 Y32.831 Z-0.576
X38.815 Y32.942 Z-0.578
X38.709 Y33.044 Z-0.58
X38.595 Y33.137 Z-0.582
X38.474 Y33.22 Z-0.584
X38.347 Y33.293 Z-0.586
X38.214 Y33.355 Z-0.588
X38.077 Y33.406 Z-0.59
X37.936 Y33.446 Z-0.592
X37.793 Y33.474 Z-0.594
X37.648 Y33.49 Z-0.597
X37.503 Y33.494 Z-0.599
X37.358 Y33.486 Z-0.601
X37.214 Y33.467 Z-0.603
X37.072 Y33.435 Z-0.605
X36.934 Y33.392 Z-0.607
X36.799 Y33.338 Z-0.609
X36.67 Y33.274 Z-0.611
X36.547 Y33.199 Z-0.613
X36.43 Y33.114 Z-0.615
X36.321 Y33.02 Z-0.617
X36.22 Y32.917 Z-0.619
X36.128 Y32.807 Z-0.622
X36.045 Y32.69 Z-0.624
X35.972 Y32.566 Z-0.626
X35.91 Y32.437 Z-0.628
X35.859 Y32.304 Z-0.63
X35.818 Y32.167 Z-0.632
X35.79 Y32.027 Z-0.634
X35.772 Y31.885 Z-0.636
X35.767 Y31.743 Z-0.638
X35.773 Y31.601 Z-0.64
X35.791 Y31.46 Z-0.642
X35.82 Y31.321 Z-0.645
X35.86 Y31.186 Z-0.647
X35.912 Y31.054 Z-0.649
X35.974 Y30.927 Z-0.651
X36.046 Y30.805 Z-0.653
X36.127 Y30.69 Z-0.655
X36.218 Y30.583 Z-0.657
X36.317 Y30.483 Z-0.659
X36.424 Y30.392 Z-0.661
X36.538 Y30.31 Z-0.663
X36.658 Y30.237 Z-0.665
X36.783 Y30.175 Z-0.667
X36.913 Y30.124 Z-0.67
X37.047 Y30.083 Z-0.672
X37.183 Y30.053 Z-0.674
X37.321 Y30.035 Z-0.676
X37.46 Y30.028 Z-0.678
X37.599 Y30.032 Z-0.68
X37.737 Y30.048 Z-0.682
X37.873 Y30.075 Z-0.684
X38.006 Y30.113 Z-0.686
X38.135 Y30.162 Z-0.688
X38.26 Y30.221 Z-0.69
X38.379 Y30.291 Z-0.692
X38.492 Y30.369 Z-0.695
X38.598 Y30.457 Z-0.697
X38.697 Y30.552 Z-0.699
X38.787 Y30.656 Z-0.701
X38.868 Y30.766 Z-0.703
X38.94 Y30.883 Z-0.705
X39.002 Y31.004 Z-0.707
X39.054 Y31.131 Z-0.709
X39.095 Y31.261 Z-0.711
X39.126 Y31.394 Z-0.713
X39.145 Y31.528 Z-0.715
X39.153 Y31.664 Z-0.718
X39.15 Y31.799 Z-0.72
X39.136 Y31.934 Z-0.722
X39.111 Y32.067 Z-0.724
X39.075 Y32.198 Z-0.726
X39.029 Y32.324 Z-0.728
X38.972 Y32.447 Z-0.73
X38.906 Y32.564 Z-0.732
X38.831 Y32.675 Z-0.734
X38.746 Y32.78 Z-0.736
X38.654 Y32.877 Z-0.738
X38.554 Y32.966 Z-0.74
X38.447 Y33.047 Z-0.743
X38.334 Y33.118 Z-0.745
X38.216 Y33.18 Z-0.747
X38.093 Y33.232 Z-0.749
X37.967 Y33.273 Z-0.751
X37.837 Y33.304 Z-0.753
X37.706 Y33.324 Z-0.755
X37.574 Y33.334 Z-0.757
X37.441 Y33.332 Z-0.759
X37.31 Y33.32 Z-0.761
X37.18 Y33.297 Z-0.763
X37.052 Y33.264 Z-0.765
X36.928 Y33.22 Z-0.768
X36.808 Y33.166 Z-0.77
X36.693 Y33.102 Z-0.772
X36.583 Y33.03 Z-0.774
X36.481 Y32.949 Z-0.776
X36.385 Y32.859 Z-0.778
X36.297 Y32.763 Z-0.78
X36.217 Y32.659 Z-0.782
X36.146 Y32.55 Z-0.784
X36.085 Y32.435 Z-0.786
X36.033 Y32.316 Z-0.788
X35.991 Y32.193 Z-0.791
X35.959 Y32.067 Z-0.793
X35.938 Y31.94 Z-0.795
X35.928 Y31.811 Z-0.797
Y31.681 Z-0.799
X35.938 Y31.553 Z-0.801
X35.96 Y31.426 Z-0.803
X35.991 Y31.301 Z-0.805
X36.032 Y31.179 Z-0.807
X36.084 Y31.062 Z-0.809
X36.144 Y30.949 Z-0.811
X36.214 Y30.842 Z-0.813
X36.292 Y30.74 Z-0.816
X36.378 Y30.646 Z-0.818
X36.471 Y30.559 Z-0.82
X36.571 Y30.48 Z-0.822
X36.677 Y30.41 Z-0.824
X36.789 Y30.349 Z-0.826
X36.904 Y30.297 Z-0.828
X37.024 Y30.255 Z-0.83
X37.146 Y30.223 Z-0.832
X37.27 Y30.201 Z-0.834
X37.396 Y30.19 Z-0.836
X37.522 Y30.188 Z-0.838
X37.647 Y30.197 Z-0.841
X37.771 Y30.217 Z-0.843
X37.893 Y30.246 Z-0.845
X38.012 Y30.285 Z-0.847
X38.127 Y30.334 Z-0.849
X38.238 Y30.392 Z-0.851
X38.343 Y30.458 Z-0.853
X38.443 Y30.533 Z-0.855
X38.536 Y30.616 Z-0.857
X38.621 Y30.706 Z-0.859
X38.699 Y30.803 Z-0.861
X38.768 Y30.906 Z-0.864
X38.829 Y31.013 Z-0.866
X38.881 Y31.125 Z-0.868
X38.923 Y31.241 Z-0.87
X38.956 Y31.36 Z-0.872
X38.978 Y31.481 Z-0.874
X38.991 Y31.603 Z-0.876
X38.993 Y31.726 Z-0.878
X38.986 Y31.848 Z-0.88
X38.968 Y31.969 Z-0.882
X38.941 Y32.088 Z-0.884
X38.904 Y32.205 Z-0.886
X38.858 Y32.317 Z-0.889
X38.803 Y32.426 Z-0.891
X38.739 Y32.529 Z-0.893
X38.667 Y32.626 Z-0.895
X38.587 Y32.718 Z-0.897
X38.5 Y32.802 Z-0.899
X38.407 Y32.879 Z-0.901
X38.308 Y32.947 Z-0.903
X38.204 Y33.008 Z-0.905
X38.095 Y33.059 Z-0.907
X37.982 Y33.101 Z-0.909
X37.867 Y33.134 Z-0.911
X37.75 Y33.158 Z-0.914
X37.631 Y33.171 Z-0.916
X37.511 Y33.175 Z-0.918
X37.392 Y33.169 Z-0.92
X37.274 Y33.153 Z-0.922
X37.158 Y33.128 Z-0.924
X37.045 Y33.093 Z-0.926
X36.934 Y33.049 Z-0.928
X36.828 Y32.996 Z-0.93
X36.727 Y32.935 Z-0.932
X36.632 Y32.866 Z-0.934
X36.542 Y32.79 Z-0.937
X36.459 Y32.706 Z-0.939
X36.383 Y32.616 Z-0.941
X36.316 Y32.52 Z-0.943
X36.256 Y32.42 Z-0.945
X36.205 Y32.314 Z-0.947
X36.162 Y32.205 Z-0.949
X36.129 Y32.093 Z-0.951
X36.105 Y31.979 Z-0.953
X36.091 Y31.864 Z-0.955
X36.086 Y31.748 Z-0.957
X36.091 Y31.632 Z-0.959
X36.105 Y31.517 Z-0.962
X36.128 Y31.404 Z-0.964
X36.161 Y31.293 Z-0.966
X36.202 Y31.186 Z-0.968
X36.253 Y31.082 Z-0.97
X36.311 Y30.983 Z-0.972
X36.377 Y30.889 Z-0.974
X36.451 Y30.801 Z-0.976
X36.531 Y30.72 Z-0.978
X36.618 Y30.645 Z-0.98
X36.71 Y30.578 Z-0.982
X36.808 Y30.519 Z-0.984
X36.91 Y30.468 Z-0.987
X37.015 Y30.426 Z-0.989
X37.123 Y30.393 Z-0.991
X37.234 Y30.368 Z-0.993
X37.346 Y30.353 Z-0.995
X37.459 Y30.347 Z-0.997
X37.571 Y30.351 Z-0.999
X37.683 Y30.363 Z-1.001
X37.794 Y30.385 Z-1.003
X37.902 Y30.415 Z-1.005
X38.007 Y30.455 Z-1.007
X38.108 Y30.502 Z-1.01
X38.205 Y30.558 Z-1.012
X38.296 Y30.621 Z-1.014
X38.383 Y30.692 Z-1.016
X38.463 Y30.769 Z-1.018
X38.536 Y30.853 Z-1.02
X38.602 Y30.942 Z-1.022
X38.66 Y31.036 Z-1.024
X38.711 Y31.134 Z-1.026
X38.753 Y31.236 Z-1.028
X38.786 Y31.341 Z-1.03
X38.811 Y31.448 Z-1.032
X38.827 Y31.557 Z-1.035
X38.834 Y31.666 Z-1.037
X38.832 Y31.776 Z-1.039
X38.821 Y31.885 Z-1.041
X38.801 Y31.992 Z-1.043
X38.772 Y32.097 Z-1.045
X38.735 Y32.199 Z-1.047
X38.69 Y32.298 Z-1.049
X38.637 Y32.393 Z-1.051
X38.576 Y32.483 Z-1.053
X38.509 Y32.567 Z-1.055
X38.434 Y32.645 Z-1.057
X38.354 Y32.717 Z-1.06
X38.268 Y32.782 Z-1.062
X38.178 Y32.84 Z-1.064
X38.083 Y32.89 Z-1.066
X37.984 Y32.932 Z-1.068
X37.883 Y32.965 Z-1.07
X37.779 Y32.99 Z-1.072
X37.674 Y33.007 Z-1.074
X37.567 Y33.015 Z-1.076
X37.461 Y33.014 Z-1.078
X37.356 Y33.004 Z-1.08
X37.251 Y32.986 Z-1.083
X37.149 Y32.959 Z-1.085
X37.049 Y32.924 Z-1.087
X36.953 Y32.882 Z-1.089
X36.861 Y32.831 Z-1.091
X36.773 Y32.773 Z-1.093
X36.691 Y32.708 Z-1.095
X36.614 Y32.637 Z-1.097
X36.543 Y32.56 Z-1.099
X36.479 Y32.478 Z-1.101
X36.423 Y32.39 Z-1.103
X36.373 Y32.299 Z-1.105
X36.332 Y32.204 Z-1.108
X36.298 Y32.105 Z-1.11
X36.273 Y32.005 Z-1.112
X36.255 Y31.903 Z-1.114
X36.247 Y31.8 Z-1.116
Y31.697 Z-1.118
X36.255 Y31.595 Z-1.12
X36.271 Y31.494 Z-1.122
X36.296 Y31.394 Z-1.124
X36.329 Y31.297 Z-1.126
X36.37 Y31.204 Z-1.128
X36.418 Y31.114 Z-1.13
X36.473 Y31.028 Z-1.133
X36.535 Y30.948 Z-1.135
X36.603 Y30.872 Z-1.137
X36.677 Y30.803 Z-1.139
X36.756 Y30.741 Z-1.141
X36.84 Y30.685 Z-1.143
X36.929 Y30.636 Z-1.145
X37.02 Y30.595 Z-1.147
X37.115 Y30.561 Z-1.149
X37.212 Y30.535 Z-1.151
X37.31 Y30.518 Z-1.153
X37.41 Y30.508 Z-1.156
X37.51 Y30.507 Z-1.158
X37.609 Y30.514 Z-1.16
X37.707 Y30.529 Z-1.162
X37.804 Y30.552 Z-1.164
X37.898 Y30.583 Z-1.166
X37.989 Y30.621 Z-1.168
X38.076 Y30.667 Z-1.17
X38.16 Y30.72 Z-1.172
X38.238 Y30.779 Z-1.174
X38.312 Y30.844 Z-1.176
X38.379 Y30.915 Z-1.178
X38.441 Y30.991 Z-1.181
X38.496 Y31.072 Z-1.183
X38.544 Y31.157 Z-1.185
X38.585 Y31.245 Z-1.187
X38.618 Y31.336 Z-1.189
X38.644 Y31.43 Z-1.191
X38.662 Y31.525 Z-1.193
X38.672 Y31.621 Z-1.195
X38.674 Y31.717 Z-1.197
X38.669 Y31.814 Z-1.199
X38.655 Y31.909 Z-1.201
X38.634 Y32.002 Z-1.203
X38.605 Y32.094 Z-1.206
X38.569 Y32.182 Z-1.208
X38.525 Y32.267 Z-1.21
X38.475 Y32.348 Z-1.212
X38.419 Y32.425 Z-1.214
X38.357 Y32.497 Z-1.216
X38.289 Y32.563 Z-1.218
X38.216 Y32.623 Z-1.22
X38.138 Y32.677 Z-1.222
X38.057 Y32.724 Z-1.224
X37.972 Y32.765 Z-1.226
X37.884 Y32.798 Z-1.229
X37.794 Y32.824 Z-1.231
X37.702 Y32.842 Z-1.233
X37.609 Y32.853 Z-1.235
X37.516 Y32.856 Z-1.237
X37.423 Y32.851 Z-1.239
X37.331 Y32.839 Z-1.241
X37.24 Y32.819 Z-1.243
X37.152 Y32.792 Z-1.245
X37.066 Y32.758 Z-1.247
X36.983 Y32.717 Z-1.249
X36.905 Y32.67 Z-1.251
X36.83 Y32.616 Z-1.254
X36.76 Y32.557 Z-1.256
X36.696 Y32.492 Z-1.258
X36.637 Y32.422 Z-1.26
X36.584 Y32.348 Z-1.262
X36.538 Y32.269 Z-1.264
X36.498 Y32.188 Z-1.266
X36.465 Y32.103 Z-1.268
X36.439 Y32.017 Z-1.27
X36.42 Y31.928 Z-1.272
X36.409 Y31.839 Z-1.274
X36.405 Y31.749 Z-1.277
X36.409 Y31.659 Z-1.279
X36.42 Y31.57 Z-1.281
X36.438 Y31.482 Z-1.283
X36.463 Y31.397 Z-1.285
X36.495 Y31.314 Z-1.287
X36.534 Y31.234 Z-1.289
X36.579 Y31.157 Z-1.291
X36.63 Y31.085 Z-1.293
X36.686 Y31.017 Z-1.295
X36.748 Y30.954 Z-1.297
X36.815 Y30.896 Z-1.299
X36.886 Y30.845 Z-1.302
X36.961 Y30.799 Z-1.304
X37.039 Y30.76 Z-1.306
X37.121 Y30.727 Z-1.308
X37.204 Y30.702 Z-1.31
X37.289 Y30.683 Z-1.312
X37.375 Y30.671 Z-1.314
X37.462 Y30.666 Z-1.316
X37.548 Y30.669 Z-1.318
X37.634 Y30.678 Z-1.32
X37.719 Y30.695 Z-1.322
X37.801 Y30.718 Z-1.324
X37.882 Y30.748 Z-1.327
X37.96 Y30.785 Z-1.329
X38.034 Y30.828 Z-1.331
X38.104 Y30.876 Z-1.333
X38.17 Y30.93 Z-1.335
X38.231 Y30.989 Z-1.337
X38.287 Y31.053 Z-1.339
X38.337 Y31.121 Z-1.341
X38.382 Y31.193 Z-1.343
X38.421 Y31.268 Z-1.345
X38.453 Y31.345 Z-1.347
X38.478 Y31.425 Z-1.35
X38.497 Y31.507 Z-1.352
X38.509 Y31.59 Z-1.354
X38.515 Y31.673 Z-1.356
X38.513 Y31.756 Z-1.358
X38.505 Y31.839 Z-1.36
X38.49 Y31.921 Z-1.362
X38.468 Y32.001 Z-1.364
X38.44 Y32.078 Z-1.366
X38.406 Y32.153 Z-1.368
X38.365 Y32.225 Z-1.37
X38.319 Y32.293 Z-1.372
X38.268 Y32.357 Z-1.375
X38.212 Y32.416 Z-1.377
X38.151 Y32.471 Z-1.379
X38.086 Y32.52 Z-1.381
X38.018 Y32.564 Z-1.383
X37.946 Y32.601 Z-1.385
X37.871 Y32.633 Z-1.387
X37.795 Y32.658 Z-1.389
X37.716 Y32.677 Z-1.391
X37.637 Y32.69 Z-1.393
X37.557 Y32.696 Z-1.395
X37.477 Y32.695 Z-1.397
X37.397 Y32.688 Z-1.4
X37.319 Y32.674 Z-1.402
X37.242 Y32.654 Z-1.404
X37.167 Y32.628 Z-1.406
X37.095 Y32.595 Z-1.408
X37.025 Y32.557 Z-1.41
X36.96 Y32.514 Z-1.412
X36.898 Y32.465 Z-1.414
X36.84 Y32.412 Z-1.416
X36.787 Y32.354 Z-1.418
X36.739 Y32.292 Z-1.42
X36.697 Y32.227 Z-1.423
X36.66 Y32.158 Z-1.425
X36.629 Y32.087 Z-1.427
X36.604 Y32.014 Z-1.429
X36.585 Y31.939 Z-1.431
X36.572 Y31.863 Z-1.433
X36.566 Y31.786 Z-1.435
Y31.709 Z-1.437
X36.572 Y31.633 Z-1.439
X36.584 Y31.558 Z-1.441
X36.603 Y31.484 Z-1.443
X36.627 Y31.411 Z-1.445
X36.657 Y31.342 Z-1.448
X36.693 Y31.275 Z-1.45
X36.734 Y31.211 Z-1.452
X36.78 Y31.152 Z-1.454
X36.831 Y31.096 Z-1.456
X36.886 Y31.045 Z-1.458
X36.945 Y30.998 Z-1.46
X37.007 Y30.957 Z-1.462
X37.072 Y30.921 Z-1.464
X37.14 Y30.891 Z-1.466
X37.21 Y30.866 Z-1.468
X37.282 Y30.847 Z-1.47
X37.354 Y30.834 Z-1.473
X37.428 Y30.827 Z-1.475
X37.501 Y30.826 Z-1.477
X37.575 Y30.832 Z-1.479
X37.647 Y30.843 Z-1.481
X37.718 Y30.86 Z-1.483
X37.787 Y30.883 Z-1.485
X37.854 Y30.911 Z-1.487
X37.918 Y30.944 Z-1.489
X37.98 Y30.983 Z-1.491
X38.037 Y31.027 Z-1.493
X38.091 Y31.074 Z-1.496
X38.141 Y31.127 Z-1.498
X38.185 Y31.182 Z-1.5
X38.226 Y31.242 Z-1.502
X38.261 Y31.304 Z-1.504
X38.29 Y31.368 Z-1.506
X38.315 Y31.435 Z-1.508
X38.333 Y31.503 Z-1.51
X38.346 Y31.573 Z-1.512
X38.354 Y31.643 Z-1.514
X38.355 Y31.713 Z-1.516
X38.351 Y31.783 Z-1.518
X38.341 Y31.852 Z-1.521
X38.325 Y31.92 Z-1.523
X38.304 Y31.987 Z-1.525
X38.278 Y32.051 Z-1.527
X38.246 Y32.113 Z-1.529
X38.21 Y32.171 Z-1.531
X38.169 Y32.227 Z-1.533
X38.124 Y32.279 Z-1.535
X38.074 Y32.326 Z-1.537
X38.022 Y32.37 Z-1.539
X37.965 Y32.409 Z-1.541
X37.906 Y32.443 Z-1.543
X37.845 Y32.472 Z-1.546
X37.782 Y32.495 Z-1.548
X37.717 Y32.514 Z-1.55
X37.651 Y32.527 Z-1.552
X37.584 Y32.535 Z-1.554
X37.517 Y32.537 Z-1.556
X37.45 Y32.533 Z-1.558
X37.384 Y32.524 Z-1.56
X37.319 Y32.51 Z-1.562
X37.255 Y32.49 Z-1.564
X37.194 Y32.466 Z-1.566
X37.135 Y32.436 Z-1.569
X37.079 Y32.402 Z-1.571
X37.025 Y32.364 Z-1.573
X36.976 Y32.321 Z-1.575
X36.93 Y32.275 Z-1.577
X36.888 Y32.225 Z-1.579
X36.85 Y32.172 Z-1.581
X36.817 Y32.116 Z-1.583
X36.789 Y32.058 Z-1.585
X36.766 Y31.997 Z-1.587
X36.748 Y31.936 Z-1.589
X36.735 Y31.873 Z-1.591
X36.727 Y31.809 Z-1.594
X36.724 Y31.746 Z-1.596
X36.727 Y31.682 Z-1.598
X36.735 Y31.619 Z-1.6
X36.748 Y31.557 Z-1.602
X36.766 Y31.497 Z-1.604
X36.789 Y31.438 Z-1.606
X36.816 Y31.382 Z-1.608
X36.848 Y31.328 Z-1.61
X36.884 Y31.277 Z-1.612
X36.924 Y31.229 Z-1.614
X36.968 Y31.185 Z-1.616
X37.015 Y31.145 Z-1.619
X37.065 Y31.109 Z-1.621
X37.118 Y31.077 Z-1.623
X37.173 Y31.05 Z-1.625
X37.23 Y31.027 Z-1.627
X37.288 Y31.009 Z-1.629
X37.348 Y30.996 Z-1.631
X37.408 Y30.989 Z-1.633
X37.469 Y30.986 Z-1.635
X37.529 Y30.988 Z-1.637
X37.589 Y30.994 Z-1.639
X37.648 Y31.006 Z-1.642
X37.705 Y31.023 Z-1.644
X37.761 Y31.044 Z-1.646
X37.815 Y31.069 Z-1.648
X37.866 Y31.099 Z-1.65
X37.915 Y31.133 Z-1.652
X37.96 Y31.171 Z-1.654
X38.002 Y31.212 Z-1.656
X38.041 Y31.256 Z-1.658
X38.075 Y31.303 Z-1.66
X38.106 Y31.353 Z-1.662
X38.132 Y31.405 Z-1.664
X38.154 Y31.458 Z-1.667
X38.172 Y31.513 Z-1.669
X38.184 Y31.57 Z-1.671
X38.192 Y31.627 Z-1.673
X38.196 Y31.684 Z-1.675
X38.194 Y31.741 Z-1.677
X38.188 Y31.798 Z-1.679
X38.178 Y31.853 Z-1.681
X38.163 Y31.908 Z-1.683
X38.143 Y31.961 Z-1.685
X38.119 Y32.012 Z-1.687
X38.092 Y32.061 Z-1.689
X38.06 Y32.107 Z-1.692
X38.025 Y32.15 Z-1.694
X37.986 Y32.19 Z-1.696
X37.945 Y32.227 Z-1.698
X37.901 Y32.26 Z-1.7
X37.854 Y32.289 Z-1.702
X37.805 Y32.315 Z-1.704
X37.755 Y32.336 Z-1.706
X37.703 Y32.353 Z-1.708
X37.65 Y32.365 Z-1.71
X37.596 Y32.373 Z-1.712
X37.542 Y32.377 Z-1.715
X37.489 Y32.376 Z-1.717
X37.435 Y32.371 Z-1.719
X37.382 Y32.361 Z-1.721
X37.331 Y32.347 Z-1.723
X37.281 Y32.33 Z-1.725
X37.233 Y32.308 Z-1.727
X37.186 Y32.282 Z-1.729
X37.143 Y32.253 Z-1.731
X37.102 Y32.22 Z-1.733
X37.063 Y32.184 Z-1.735
X37.029 Y32.145 Z-1.737
X36.997 Y32.104 Z-1.74
X36.969 Y32.06 Z-1.742
X36.945 Y32.015 Z-1.744
X36.925 Y31.967 Z-1.746
X36.908 Y31.919 Z-1.748
X36.896 Y31.869 Z-1.75
X36.888 Y31.819 Z-1.752
X36.884 Y31.768 Z-1.754
X36.885 Y31.717 Z-1.756
X36.889 Y31.667 Z-1.758
X36.898 Y31.617 Z-1.76
X36.91 Y31.569 Z-1.762
X36.927 Y31.522 Z-1.765
X36.947 Y31.476 Z-1.767
X36.971 Y31.433 Z-1.769
X36.998 Y31.391 Z-1.771
X37.028 Y31.353 Z-1.773
X37.062 Y31.317 Z-1.775
X37.098 Y31.284 Z-1.777
X37.136 Y31.254 Z-1.779
X37.177 Y31.227 Z-1.781
X37.219 Y31.204 Z-1.783
X37.264 Y31.185 Z-1.785
X37.309 Y31.169 Z-1.788
X37.355 Y31.157 Z-1.79
X37.403 Y31.15 Z-1.792
X37.45 Y31.146 Z-1.794
X37.497 Y31.145 Z-1.796
X37.544 Y31.149 Z-1.798
X37.591 Y31.157 Z-1.8
X37.636 Y31.168 Z-1.802
X37.68 Y31.183 Z-1.804
X37.723 Y31.202 Z-1.806
X37.764 Y31.224 Z-1.808
X37.803 Y31.249 Z-1.81
X37.839 Y31.277 Z-1.813
X37.873 Y31.308 Z-1.815
X37.904 Y31.341 Z-1.817
X37.932 Y31.377 Z-1.819
X37.957 Y31.415 Z-1.821
X37.979 Y31.454 Z-1.823
X37.998 Y31.495 Z-1.825
X38.013 Y31.537 Z-1.827
X38.024 Y31.581 Z-1.829
X38.032 Y31.624 Z-1.831
X38.036 Y31.669 Z-1.833
Y31.713 Z-1.835
X38.033 Y31.757 Z-1.838
X38.026 Y31.8 Z-1.84
X38.016 Y31.842 Z-1.842
X38.002 Y31.883 Z-1.844
X37.985 Y31.923 Z-1.846
X37.965 Y31.961 Z-1.848
X37.942 Y31.998 Z-1.85
X37.916 Y32.032 Z-1.852
X37.888 Y32.063 Z-1.854
X37.857 Y32.093 Z-1.856
X37.824 Y32.119 Z-1.858
X37.789 Y32.143 Z-1.861
X37.753 Y32.163 Z-1.863
X37.715 Y32.18 Z-1.865
X37.676 Y32.194 Z-1.867
X37.636 Y32.205 Z-1.869
X37.595 Y32.213 Z-1.871
X37.554 Y32.217 Z-1.873
X37.513 Z-1.875
X37.473 Y32.215 Z-1.877
X37.433 Y32.209 Z-1.879
X37.393 Y32.2 Z-1.881
X37.355 Y32.187 Z-1.883
X37.318 Y32.172 Z-1.886
X37.283 Y32.154 Z-1.888
X37.249 Y32.133 Z-1.89
X37.217 Y32.109 Z-1.892
X37.188 Y32.083 Z-1.894
X37.161 Y32.055 Z-1.896
X37.136 Y32.024 Z-1.898
X37.114 Y31.992 Z-1.9
X37.095 Y31.959 Z-1.902
X37.079 Y31.924 Z-1.904
X37.066 Y31.888 Z-1.906
X37.055 Y31.851 Z-1.908
X37.048 Y31.814 Z-1.911
X37.044 Y31.776 Z-1.913
Y31.738 Z-1.915
X37.046 Y31.701 Z-1.917
X37.051 Y31.664 Z-1.919
X37.059 Y31.628 Z-1.921
X37.07 Y31.593 Z-1.923
X37.084 Y31.559 Z-1.925
X37.101 Y31.526 Z-1.927
X37.12 Y31.495 Z-1.929
X37.141 Y31.466 Z-1.931
X37.165 Y31.439 Z-1.934
X37.191 Y31.414 Z-1.936
X37.219 Y31.391 Z-1.938
X37.248 Y31.371 Z-1.94
X37.279 Y31.353 Z-1.942
X37.31 Y31.338 Z-1.944
X37.343 Y31.326 Z-1.946
X37.377 Y31.316 Z-1.948
X37.411 Y31.309 Z-1.95
X37.445 Y31.305 Z-1.952
X37.48 Y31.304 Z-1.954
X37.514 Y31.306 Z-1.956
X37.547 Y31.311 Z-1.959
X37.581 Y31.318 Z-1.961
X37.613 Y31.328 Z-1.963
X37.644 Y31.341 Z-1.965
X37.674 Y31.356 Z-1.967
X37.702 Y31.373 Z-1.969
X37.729 Y31.392 Z-1.971
X37.754 Y31.414 Z-1.973
X37.776 Y31.437 Z-1.975
X37.797 Y31.462 Z-1.977
X37.816 Y31.489 Z-1.979
X37.832 Y31.516 Z-1.981
X37.846 Y31.545 Z-1.984
X37.857 Y31.575 Z-1.986
X37.866 Y31.605 Z-1.988
X37.872 Y31.636 Z-1.99
X37.876 Y31.667 Z-1.992
X37.877 Y31.699 Z-1.994
X37.875 Y31.729 Z-1.996
X37.871 Y31.76 Z-1.998
X37.865 Y31.79 Z-2.
X37.856 Y31.819 Z-2.002
X37.845 Y31.847 Z-2.004
X37.831 Y31.874 Z-2.007
X37.816 Y31.9 Z-2.009
X37.799 Y31.924 Z-2.011
X37.779 Y31.946 Z-2.013
