%
(BODENPLATTE1)
(T1 D=6. CR=0. - ZMIN=-15. - FLAT END MILL)
(T3 D=4. CR=0. - ZMIN=-15. - FLAT END MILL)
(T4 D=8. CR=0. - ZMIN=-15.05 - FLAT END MILL)
(T8 D=8. CR=0. TAPER=45DEG - ZMIN=-11.227 - CHAMFER MILL)
(T10 D=8. CR=0. - ZMIN=-15. - FLAT END MILL)
G90 G94 G17 G91.1
G21
G53 G0 Z0.
(2D ADAPTIVE1)
T4 M600
S21400 M300
G17 G90 G94
G54
G64 P0.1 Q0.1
G0 X-0.626 Y-8.37
G43 Z15. H4
G0 Z5.
Z-5.2
G1 Z-6. F3300.
Z-8.
G3 X0. Y-4.014 I-19.785 J5.068
G1 Y-3.884
X-0.735 Y-3.134
X-1.319 Y-2.262
X-1.766 Y-1.312
X-2.094 Y-0.315
X-2.328 Y0.708
X-2.489 Y1.746
X-2.598 Y2.79
X-2.67 Y3.837
X-2.717 Y4.886
X-2.747 Y5.935
X-2.766 Y6.985
X-2.779 Y8.034
X-2.786 Y9.084
X-2.791 Y10.134
X-2.795 Y11.183
X-2.798 Y13.283
X-2.8 Y17.482
Y45.825
Y87.814
X-2.574 Y88.839
X-2.07 Y89.76
X-1.366 Y90.538
X-0.524 Y91.165
X0.407 Y91.65
X1.393 Y92.01
X2.411 Y92.269
X3.445 Y92.449
X4.488 Y92.571
X5.534 Y92.652
X6.583 Y92.705
X7.632 Y92.739
X8.681 Y92.761
X9.731 Y92.776
X10.781 Y92.784
X11.83 Y92.79
X12.88 Y92.794
X14.979 Y92.798
X19.178 Y92.8
X53.82
X104.207
X154.594
X204.981
X255.368
X305.755
X327.8
X328.826 Y92.578
X329.748 Y92.077
X330.529 Y91.375
X331.158 Y90.535
X331.644 Y89.605
X332.006 Y88.619
X332.266 Y87.602
X332.447 Y86.568
X332.569 Y85.526
X332.651 Y84.479
X332.704 Y83.431
X332.739 Y82.381
X332.761 Y81.332
X332.775 Y80.282
X332.784 Y79.233
X332.79 Y78.183
X332.794 Y77.133
X332.797 Y75.034
X332.8 Y70.835
Y66.636
Y16.249
Y2.602
X332.709 Y1.556
X332.304 Y0.588
X331.67 Y-0.249
X330.876 Y-0.936
X329.976 Y-1.475
X329.008 Y-1.882
X328.001 Y-2.177
X326.972 Y-2.386
X325.932 Y-2.528
X324.887 Y-2.624
X323.839 Y-2.687
X322.79 Y-2.728
X321.74 Y-2.754
X320.691 Y-2.771
X319.641 Y-2.781
X318.591 Y-2.788
X317.542 Y-2.793
X316.492 Y-2.795
X314.392 Y-2.798
X309.144 Y-2.8
X298.646
X248.259
X197.872
X147.485
X97.098
X46.711
X4.721
X3.672 Y-2.757
X2.669 Y-2.448
X1.763 Y-1.919
X0.982 Y-1.218
X0.335 Y-0.391
X-0.182 Y0.523
X-0.583 Y1.493
X-0.884 Y2.499
X-1.103 Y3.525
X-1.26 Y4.563
X-1.37 Y5.607
X-1.446 Y6.654
X-1.497 Y7.703
X-1.532 Y8.752
X-1.555 Y9.801
X-1.57 Y10.851
X-1.58 Y11.901
X-1.587 Y12.95
X-1.592 Y14.
X-1.595 Y15.05
X-1.598 Y17.149
X-1.6 Y21.348
Y52.84
Y85.382
X-1.436 Y86.419
X-1.052 Y87.396
X-0.478 Y88.274
X0.248 Y89.033
X1.087 Y89.664
X2.006 Y90.171
X2.979 Y90.567
X3.985 Y90.866
X5.011 Y91.086
X6.049 Y91.245
X7.092 Y91.358
X8.139 Y91.436
X9.188 Y91.49
X10.237 Y91.527
X11.286 Y91.551
X12.336 Y91.568
X13.385 Y91.579
X14.435 Y91.586
X15.485 Y91.591
X16.535 Y91.594
X18.634 Y91.597
X22.833 Y91.6
X63.773
X114.16
X164.547
X214.934
X265.321
X315.708
X325.156
X326.199 Y91.484
X327.193 Y91.146
X328.096 Y90.61
X328.882 Y89.914
X329.54 Y89.097
X330.073 Y88.192
X330.491 Y87.229
X330.809 Y86.229
X331.045 Y85.206
X331.216 Y84.17
X331.337 Y83.127
X331.422 Y82.081
X331.48 Y81.033
X331.52 Y79.984
X331.547 Y78.935
X331.565 Y77.885
X331.577 Y76.835
X331.585 Y75.786
X331.59 Y74.736
X331.593 Y73.686
X331.597 Y71.587
X331.599 Y67.388
X331.6 Y53.741
Y5.454
X331.595 Y4.404
X331.383 Y3.376
X330.959 Y2.416
X330.352 Y1.559
X329.6 Y0.827
X328.742 Y0.222
X327.81 Y-0.26
X326.829 Y-0.634
X325.818 Y-0.916
X324.788 Y-1.123
X323.749 Y-1.272
X322.705 Y-1.377
X321.658 Y-1.449
X320.609 Y-1.499
X319.56 Y-1.533
X318.51 Y-1.555
X317.461 Y-1.57
X316.411 Y-1.58
X315.361 Y-1.587
X314.312 Y-1.592
X312.212 Y-1.596
X309.063 Y-1.599
X296.466 Y-1.6
X282.82
X232.432
X182.045
X131.658
X81.271
X30.884
X6.74
X5.692 Y-1.531
X4.677 Y-1.266
X3.732 Y-0.808
X2.888 Y-0.184
X2.84 Y-0.133
X2.767 Y-0.064
X2.689 Y-0.002
X2.606 Y0.053
X2.235 Y0.344
X2.033 Y0.533
X1.995 Y0.569
X1.82 Y0.773
X1.62 Y1.012
X1.515 Y1.175
X1.317 Y1.492
X1.275 Y1.562
X1.197 Y1.731
X1.107 Y1.971
X0.689 Y2.934
X0.396 Y3.942
X0.173 Y4.968
X0.008 Y6.005
X-0.113 Y7.047
X-0.2 Y8.093
X-0.262 Y9.141
X-0.305 Y10.19
X-0.335 Y11.239
X-0.356 Y12.289
X-0.37 Y13.339
X-0.38 Y14.388
X-0.386 Y15.438
X-0.391 Y16.488
X-0.396 Y18.587
X-0.399 Y21.736
X-0.4 Y31.184
Y52.179
Y82.621
X-0.376 Y83.67
X-0.193 Y84.704
X0.177 Y85.686
X0.477 Y86.184
X0.651 Y86.514
X0.786 Y86.862
X0.879 Y87.224
X0.942 Y87.549
X1.017 Y87.789
X1.197 Y88.269
X1.275 Y88.438
X1.317 Y88.508
X1.515 Y88.825
X1.62 Y88.988
X1.82 Y89.228
X1.995 Y89.431
X2.033 Y89.467
X2.235 Y89.656
X2.606 Y89.947
X2.714 Y90.012
X3.194 Y90.286
X3.254 Y90.32
X3.314 Y90.342
X3.914 Y90.55
X4.154 Y90.6
X4.633 Y90.682
X5.353 Y90.7
X324.647
X325.367 Y90.682
X325.846 Y90.6
X326.086 Y90.55
X326.686 Y90.342
X326.746 Y90.32
X326.806 Y90.286
X327.286 Y90.012
X327.394 Y89.947
X327.765 Y89.656
X327.967 Y89.467
X328.005 Y89.431
X328.18 Y89.228
X328.38 Y88.988
X328.485 Y88.825
X328.683 Y88.508
X328.725 Y88.438
X328.803 Y88.269
X328.983 Y87.789
X329.058 Y87.549
X329.065 Y87.51
X329.102 Y87.364
X329.396 Y86.357
X329.639 Y85.335
X329.833 Y84.304
X329.984 Y83.265
X330.098 Y82.221
X330.184 Y81.175
X330.247 Y80.127
X330.292 Y79.078
X330.325 Y78.029
X330.348 Y76.98
X330.364 Y75.93
X330.375 Y74.88
X330.383 Y73.831
X330.388 Y72.781
X330.392 Y71.731
X330.396 Y69.632
X330.399 Y66.483
X330.4 Y54.936
Y37.09
Y7.698
X330.399 Y6.648
X330.273 Y5.606
X329.961 Y4.604
X329.47 Y3.676
X329.306 Y3.325
X329.176 Y2.959
X329.084 Y2.583
X329.058 Y2.451
X328.983 Y2.211
X328.803 Y1.731
X328.725 Y1.562
X328.683 Y1.492
X328.485 Y1.175
X328.38 Y1.012
X328.18 Y0.773
X328.005 Y0.569
X327.967 Y0.533
X327.765 Y0.344
X327.394 Y0.053
X327.286 Y-0.012
X326.806 Y-0.286
X326.746 Y-0.32
X326.686 Y-0.342
X326.086 Y-0.55
X325.846 Y-0.6
X325.367 Y-0.682
X324.647 Y-0.7
X5.353
X4.633 Y-0.682
X4.262 Y-0.618
G3 X4.001 Y-0.617 Z-7.958 I-0.135 J-0.789
G2 X3.544 Y-0.555 Z-7.884 I-0.126 J0.79
G1 X3.502 Y-0.536 Z-7.876
X3.065 Y-0.337 Z-7.8
X1.621 Y0.318
G2 X1.215 Y0.735 I0.331 J0.728
X1.165 Y1.188 Z-7.874 I0.737 J0.312
G3 X1.107 Y1.971 Z-8. I-1.558 J0.279
G1 X1.017 Y2.211
X0.942 Y2.451
X0.849 Y2.93
X0.823 Y3.17
X0.804 Y3.649
X0.8 Y3.889
Y86.111
X0.804 Y86.351
X0.823 Y86.83
X0.849 Y87.07
X0.879 Y87.224
G3 X0.632 Y87.936 I-0.79 J0.126
G1 X0.556 Y88.007 Z-7.993
X0.48 Y88.077 Z-7.973
X0.408 Y88.145 Z-7.939
X0.339 Y88.208 Z-7.893
X0.275 Y88.267 Z-7.835
X0.217 Y88.321 Z-7.766
X0.167 Y88.368 Z-7.687
X0.124 Y88.407 Z-7.6
X0.09 Y88.439 Z-7.506
X0.066 Y88.462 Z-7.407
X0.051 Y88.476 Z-7.304
X0.046 Y88.48 Z-7.2
G0 Z5.
X329.407 Y89.045
Z-6.4
G1 Z-7.2 F3300.
X329.405 Y89.039 Z-7.304
X329.398 Y89.019 Z-7.407
X329.387 Y88.988 Z-7.506
X329.371 Y88.944 Z-7.6
X329.352 Y88.889 Z-7.687
X329.328 Y88.824 Z-7.766
X329.302 Y88.75 Z-7.835
X329.273 Y88.668 Z-7.893
X329.241 Y88.58 Z-7.939
X329.208 Y88.487 Z-7.973
X329.173 Y88.39 Z-7.993
X329.138 Y88.292 Z-8.
G3 X329.065 Y87.51 I1.49 J-0.533
G1 X329.151 Y87.07
X329.177 Y86.83
X329.196 Y86.351
X329.2 Y86.111
Y3.889
X329.196 Y3.649
X329.177 Y3.17
X329.151 Y2.93
X329.084 Y2.583
X329.079 Y2.52 Z-7.997
X329.074 Y2.457 Z-7.99
X329.087 Y2.371 Z-7.97
X329.1 Y2.288 Z-7.941
X329.113 Y2.209 Z-7.903
X329.145 Y2.146 Z-7.858
X329.176 Y2.087 Z-7.806
X329.203 Y2.033 Z-7.747
X329.227 Y1.985 Z-7.682
X329.263 Y1.945 Z-7.598
X329.292 Y1.913 Z-7.508
X329.313 Y1.889 Z-7.413
X329.326 Y1.875 Z-7.315
X329.33 Y1.87 Z-7.215
G0 Z5.
X-0.626 Y-8.37
Z-12.25
G1 Z-13.05 F3300.
Z-15.05
G3 X0. Y-4.014 I-19.785 J5.068
G1 Y-3.884
X-0.735 Y-3.134
X-1.319 Y-2.262
X-1.766 Y-1.312
X-2.094 Y-0.315
X-2.328 Y0.708
X-2.489 Y1.746
X-2.598 Y2.79
X-2.67 Y3.837
X-2.717 Y4.886
X-2.747 Y5.935
X-2.766 Y6.985
X-2.779 Y8.034
X-2.786 Y9.084
X-2.791 Y10.134
X-2.795 Y11.183
X-2.798 Y13.283
X-2.8 Y17.482
Y45.825
Y87.814
X-2.574 Y88.839
X-2.07 Y89.76
X-1.366 Y90.538
X-0.524 Y91.165
X0.407 Y91.65
X1.393 Y92.01
X2.411 Y92.269
X3.445 Y92.449
X4.488 Y92.571
X5.534 Y92.652
X6.583 Y92.705
X7.632 Y92.739
X8.681 Y92.761
X9.731 Y92.776
X10.781 Y92.784
X11.83 Y92.79
X12.88 Y92.794
X14.979 Y92.798
X19.178 Y92.8
X53.82
X104.207
X154.594
X204.981
X255.368
X305.755
X327.8
X328.826 Y92.578
X329.748 Y92.077
X330.529 Y91.375
X331.158 Y90.535
X331.644 Y89.605
X332.006 Y88.619
X332.266 Y87.602
X332.447 Y86.568
X332.569 Y85.526
X332.651 Y84.479
X332.704 Y83.431
X332.739 Y82.381
X332.761 Y81.332
X332.775 Y80.282
X332.784 Y79.233
X332.79 Y78.183
X332.794 Y77.133
X332.797 Y75.034
X332.8 Y70.835
Y66.636
Y16.249
Y2.602
X332.709 Y1.556
X332.304 Y0.588
X331.67 Y-0.249
X330.876 Y-0.936
X329.976 Y-1.475
X329.008 Y-1.882
X328.001 Y-2.177
X326.972 Y-2.386
X325.932 Y-2.528
X324.887 Y-2.624
X323.839 Y-2.687
X322.79 Y-2.728
X321.74 Y-2.754
X320.691 Y-2.771
X319.641 Y-2.781
X318.591 Y-2.788
X317.542 Y-2.793
X316.492 Y-2.795
X314.392 Y-2.798
X309.144 Y-2.8
X298.646
X248.259
X197.872
X147.485
X97.098
X46.711
X4.721
X3.672 Y-2.757
X2.669 Y-2.448
X1.763 Y-1.919
X0.982 Y-1.218
X0.335 Y-0.391
X-0.182 Y0.523
X-0.583 Y1.493
X-0.884 Y2.499
X-1.103 Y3.525
X-1.26 Y4.563
X-1.37 Y5.607
X-1.446 Y6.654
X-1.497 Y7.703
X-1.532 Y8.752
X-1.555 Y9.801
X-1.57 Y10.851
X-1.58 Y11.901
X-1.587 Y12.95
X-1.592 Y14.
X-1.595 Y15.05
X-1.598 Y17.149
X-1.6 Y21.348
Y52.84
Y85.382
X-1.436 Y86.419
X-1.052 Y87.396
X-0.478 Y88.274
X0.248 Y89.033
X1.087 Y89.664
X2.006 Y90.171
X2.979 Y90.567
X3.985 Y90.866
X5.011 Y91.086
X6.049 Y91.245
X7.092 Y91.358
X8.139 Y91.436
X9.188 Y91.49
X10.237 Y91.527
X11.286 Y91.551
X12.336 Y91.568
X13.385 Y91.579
X14.435 Y91.586
X15.485 Y91.591
X16.535 Y91.594
X18.634 Y91.597
X22.833 Y91.6
X63.773
X114.16
X164.547
X214.934
X265.321
X315.708
X325.156
X326.199 Y91.484
X327.193 Y91.146
X328.096 Y90.61
X328.882 Y89.914
X329.54 Y89.097
X330.073 Y88.192
X330.491 Y87.229
X330.809 Y86.229
X331.045 Y85.206
X331.216 Y84.17
X331.337 Y83.127
X331.422 Y82.081
X331.48 Y81.033
X331.52 Y79.984
X331.547 Y78.935
X331.565 Y77.885
X331.577 Y76.835
X331.585 Y75.786
X331.59 Y74.736
X331.593 Y73.686
X331.597 Y71.587
X331.599 Y67.388
X331.6 Y53.741
Y5.454
X331.595 Y4.404
X331.383 Y3.376
X330.959 Y2.416
X330.352 Y1.559
X329.6 Y0.827
X328.742 Y0.222
X327.81 Y-0.26
X326.829 Y-0.634
X325.818 Y-0.916
X324.788 Y-1.123
X323.749 Y-1.272
X322.705 Y-1.377
X321.658 Y-1.449
X320.609 Y-1.499
X319.56 Y-1.533
X318.51 Y-1.555
X317.461 Y-1.57
X316.411 Y-1.58
X315.361 Y-1.587
X314.312 Y-1.592
X312.212 Y-1.596
X309.063 Y-1.599
X296.466 Y-1.6
X282.82
X232.432
X182.045
X131.658
X81.271
X30.884
X6.74
X5.692 Y-1.531
X4.677 Y-1.266
X3.732 Y-0.808
X2.888 Y-0.184
X2.84 Y-0.133
X2.767 Y-0.064
X2.689 Y-0.002
X2.606 Y0.053
X2.235 Y0.344
X2.033 Y0.533
X1.995 Y0.569
X1.82 Y0.773
X1.62 Y1.012
X1.515 Y1.175
X1.317 Y1.492
X1.275 Y1.562
X1.197 Y1.731
X1.107 Y1.971
X0.689 Y2.934
X0.396 Y3.942
X0.173 Y4.968
X0.008 Y6.005
X-0.113 Y7.047
X-0.2 Y8.093
X-0.262 Y9.141
X-0.305 Y10.19
X-0.335 Y11.239
X-0.356 Y12.289
X-0.37 Y13.339
X-0.38 Y14.388
X-0.386 Y15.438
X-0.391 Y16.488
X-0.396 Y18.587
X-0.399 Y21.736
X-0.4 Y31.184
Y52.179
Y82.621
X-0.376 Y83.67
X-0.193 Y84.704
X0.177 Y85.686
X0.477 Y86.184
X0.651 Y86.514
X0.786 Y86.862
X0.879 Y87.224
X0.942 Y87.549
X1.017 Y87.789
X1.197 Y88.269
X1.275 Y88.438
X1.317 Y88.508
X1.515 Y88.825
X1.62 Y88.988
X1.82 Y89.228
X1.995 Y89.431
X2.033 Y89.467
X2.235 Y89.656
X2.606 Y89.947
X2.714 Y90.012
X3.194 Y90.286
X3.254 Y90.32
X3.314 Y90.342
X3.914 Y90.55
X4.154 Y90.6
X4.633 Y90.682
X5.353 Y90.7
X324.647
X325.367 Y90.682
X325.846 Y90.6
X326.086 Y90.55
X326.686 Y90.342
X326.746 Y90.32
X326.806 Y90.286
X327.286 Y90.012
X327.394 Y89.947
X327.765 Y89.656
X327.967 Y89.467
X328.005 Y89.431
X328.18 Y89.228
X328.38 Y88.988
X328.485 Y88.825
X328.683 Y88.508
X328.725 Y88.438
X328.803 Y88.269
X328.983 Y87.789
X329.058 Y87.549
X329.065 Y87.51
X329.102 Y87.364
X329.396 Y86.357
X329.639 Y85.335
X329.833 Y84.304
X329.984 Y83.265
X330.098 Y82.221
X330.184 Y81.175
X330.247 Y80.127
X330.292 Y79.078
X330.325 Y78.029
X330.348 Y76.98
X330.364 Y75.93
X330.375 Y74.88
X330.383 Y73.831
X330.388 Y72.781
X330.392 Y71.731
X330.396 Y69.632
X330.399 Y66.483
X330.4 Y54.936
Y37.09
Y7.698
X330.399 Y6.648
X330.273 Y5.606
X329.961 Y4.604
X329.47 Y3.676
X329.306 Y3.325
X329.176 Y2.959
X329.084 Y2.583
X329.058 Y2.451
X328.983 Y2.211
X328.803 Y1.731
X328.725 Y1.562
X328.683 Y1.492
X328.485 Y1.175
X328.38 Y1.012
X328.18 Y0.773
X328.005 Y0.569
X327.967 Y0.533
X327.765 Y0.344
X327.394 Y0.053
X327.286 Y-0.012
X326.806 Y-0.286
X326.746 Y-0.32
X326.686 Y-0.342
X326.086 Y-0.55
X325.846 Y-0.6
X325.367 Y-0.682
X324.647 Y-0.7
X5.353
X4.633 Y-0.682
X4.262 Y-0.618
G3 X4.001 Y-0.617 Z-15.008 I-0.135 J-0.789
G2 X3.544 Y-0.555 Z-14.934 I-0.126 J0.79
G1 X3.502 Y-0.536 Z-14.926
X3.065 Y-0.337 Z-14.85
X1.621 Y0.318
G2 X1.215 Y0.735 I0.331 J0.728
X1.165 Y1.188 Z-14.924 I0.737 J0.312
G3 X1.107 Y1.971 Z-15.05 I-1.558 J0.279
G1 X1.017 Y2.211
X0.942 Y2.451
X0.849 Y2.93
X0.823 Y3.17
X0.804 Y3.649
X0.8 Y3.889
Y86.111
X0.804 Y86.351
X0.823 Y86.83
X0.849 Y87.07
X0.879 Y87.224
G3 X0.632 Y87.936 I-0.79 J0.126
G1 X0.556 Y88.007 Z-15.043
X0.48 Y88.077 Z-15.023
X0.408 Y88.145 Z-14.989
X0.339 Y88.208 Z-14.943
X0.275 Y88.267 Z-14.885
X0.217 Y88.321 Z-14.816
X0.167 Y88.368 Z-14.737
X0.124 Y88.407 Z-14.65
X0.09 Y88.439 Z-14.556
X0.066 Y88.462 Z-14.457
X0.051 Y88.476 Z-14.354
X0.046 Y88.48 Z-14.25
G0 Z5.
X329.407 Y89.045
Z-13.45
G1 Z-14.25 F3300.
X329.405 Y89.039 Z-14.354
X329.398 Y89.019 Z-14.457
X329.387 Y88.988 Z-14.556
X329.371 Y88.944 Z-14.65
X329.352 Y88.889 Z-14.737
X329.328 Y88.824 Z-14.816
X329.302 Y88.75 Z-14.885
X329.273 Y88.668 Z-14.943
X329.241 Y88.58 Z-14.989
X329.208 Y88.487 Z-15.023
X329.173 Y88.39 Z-15.043
X329.138 Y88.292 Z-15.05
G3 X329.065 Y87.51 I1.49 J-0.533
G1 X329.151 Y87.07
X329.177 Y86.83
X329.196 Y86.351
X329.2 Y86.111
Y3.889
X329.196 Y3.649
X329.177 Y3.17
X329.151 Y2.93
X329.084 Y2.583
G3 X329.33 Y1.87 I0.79 J-0.126
G1 X329.406 Y1.799 Z-15.043
X329.482 Y1.73 Z-15.023
X329.554 Y1.662 Z-14.989
X329.623 Y1.598 Z-14.943
X329.687 Y1.539 Z-14.885
X329.745 Y1.486 Z-14.816
X329.795 Y1.439 Z-14.737
X329.838 Y1.399 Z-14.65
X329.872 Y1.368 Z-14.556
X329.897 Y1.345 Z-14.457
X329.912 Y1.331 Z-14.354
X329.917 Y1.326 Z-14.25
G0 Z15.
(2D ADAPTIVE2)
S22000 M300
G0 X166.982 Y30.085
Z15.
Z5.
Z2.5
G3 X161.495 Y31.857 Z2.045 I-3.542 J-1.585 F3500.
X160.308 Y26.226 Z1.591 I1.942 J-3.35
X166.02 Y25.634 Z1.136 I3.123 J2.276
X166.013 Y31.365 Z0.682 I-2.584 J2.862
X160.325 Y30.761 Z0.227 I-2.572 J-2.863
X161.517 Y25.179 Z-0.227 I3.109 J-2.254
X166.933 Y26.944 Z-0.682 I1.913 J3.321
X164.618 Y32.135 Z-1.136 I-3.495 J1.553
X159.707 Y29.297 Z-1.591 I-1.178 J-3.63
X163.035 Y24.718 Z-2.045 I3.726 J-0.791
X167.232 Y28.498 Z-2.5 I0.397 J3.78
X159.631 I-3.801 J0.
X167.232 I3.801 J0.
G1 X167.235 Y28.629
X167.262 Y28.757
X167.315 Y28.878
X167.914 Y29.739
X168.075 Y29.948
X168.224 Y30.205
X168.352 Y30.512
X168.448 Y30.867
X168.502 Y31.267
X168.504 Y31.708
X168.444 Y32.183
X168.312 Y32.684
X168.101 Y33.199
X167.989 Y33.396
X167.862 Y33.563
X167.696 Y33.692
X167.502 Y33.772
X167.294 Y33.8
X162.961
X162.241 Y33.798
X162.002 Y33.78
X161.042 Y33.685
X160.922 Y33.663
X160.771 Y33.618
X160.082 Y33.409
X159.992 Y33.378
X159.843 Y33.304
X159.123 Y32.92
X159.088 Y32.899
X158.883 Y32.739
X158.403 Y32.346
X158.223 Y32.18
X157.684 Y31.523
X157.635 Y31.461
X157.497 Y31.221
X157.204 Y30.674
X157.12 Y30.503
X157.044 Y30.263
X156.899 Y29.784
X156.829 Y29.544
X156.8 Y29.304
X156.729 Y28.586
X156.725 Y28.466
X156.736 Y28.346
X156.807 Y27.627
X156.82 Y27.507
X156.847 Y27.387
X157.065 Y26.669
X157.15 Y26.429
X157.533 Y25.71
X157.598 Y25.594
X157.689 Y25.47
X158.163 Y24.892
X158.288 Y24.752
X158.403 Y24.654
X158.883 Y24.261
X159.123 Y24.08
X159.843 Y23.696
X159.963 Y23.634
X160.082 Y23.591
X160.802 Y23.373
X160.922 Y23.337
X161.042 Y23.315
X162.002 Y23.22
X162.241 Y23.202
X163.201 Y23.2
X166.079
X166.729 Y23.232
X167.236 Y23.325
X167.766 Y23.495
X168.304 Y23.75
X168.839 Y24.094
X169.64 Y24.773
X170.387 Y25.511
X171.06 Y26.316
X171.641 Y27.19
X172.116 Y28.127
X172.471 Y29.115
X172.698 Y30.139
X172.794 Y31.185
X172.759 Y32.208
X172.605 Y33.137
X172.576 Y33.233
X172.492 Y33.418
X172.364 Y33.577
X172.201 Y33.698
X172.012 Y33.774
X171.81 Y33.8
X167.294
G3 X166.529 Y33.107 Z-2.321 I0.028 J-0.8
G1 X166.511 Y32.974 Z-2.3
X165.315 Y24.106
X165.308 Y24.027
G3 X166.079 Y23.2 Z-2.5 I0.8 J-0.027
G1 X170.637
X171.3 Y23.233
X171.876 Y23.338
X172.497 Y23.538
X173.172 Y23.857
X173.853 Y24.295
X174.549 Y24.885
X175.24 Y25.644
X175.839 Y26.506
X176.323 Y27.438
X176.702 Y28.416
X176.978 Y29.429
X177.147 Y30.465
X177.215 Y31.513
X177.163 Y32.474
X177.038 Y33.147
X176.968 Y33.356
X176.843 Y33.539
X176.673 Y33.68
X176.47 Y33.769
X176.251 Y33.8
X171.81
G3 X171.045 Y33.104 Z-2.321 I0.028 J-0.8
G1 X171.028 Y32.974 Z-2.3
X169.872 Y24.103
X169.866 Y24.027
G3 X170.637 Y23.2 Z-2.5 I0.8 J-0.027
G1 X175.435
X175.882 Y23.222
X176.421 Y23.321
X177.008 Y23.51
X177.627 Y23.802
X178.286 Y24.226
X178.96 Y24.797
X179.616 Y25.518
X180.215 Y26.38
X180.706 Y27.308
X181.094 Y28.283
X181.378 Y29.294
X181.564 Y30.327
X181.648 Y31.373
X181.614 Y32.354
X181.47 Y33.216
X181.465 Y33.233
X181.381 Y33.419
X181.253 Y33.577
X181.09 Y33.698
X180.901 Y33.774
X180.699 Y33.8
X176.251
G3 X175.483 Y33.073 Z-2.316 I0.028 J-0.8
G1 X175.474 Y32.974 Z-2.3
X174.666 Y24.072
X174.663 Y24.027
G3 X175.435 Y23.2 Z-2.5 I0.8 J-0.027
G1 X179.753
X180.331 Y23.229
X180.875 Y23.328
X181.444 Y23.511
X182.072 Y23.808
X182.716 Y24.222
X183.397 Y24.799
X184.049 Y25.517
X184.648 Y26.379
X185.138 Y27.307
X185.528 Y28.282
X185.813 Y29.292
X185.999 Y30.325
X186.088 Y31.371
X186.055 Y32.345
X185.91 Y33.222
X185.907 Y33.232
X185.823 Y33.418
X185.696 Y33.577
X185.532 Y33.698
X185.343 Y33.774
X185.141 Y33.8
X180.699
G3 X179.932 Y33.084 Z-2.318 I0.028 J-0.8
G1 X179.92 Y32.974 Z-2.3
X178.985 Y24.083
X178.981 Y24.027
G3 X179.753 Y23.2 Z-2.5 I0.8 J-0.027
G1 X184.31
X184.761 Y23.223
X185.305 Y23.322
X185.875 Y23.505
X186.504 Y23.803
X187.149 Y24.218
X187.832 Y24.796
X188.484 Y25.513
X189.083 Y26.375
X189.573 Y27.303
X189.964 Y28.277
X190.251 Y29.287
X190.437 Y30.32
X190.527 Y31.366
X190.495 Y32.339
X190.351 Y33.217
X190.347 Y33.231
X190.263 Y33.417
X190.136 Y33.576
X189.972 Y33.698
X189.783 Y33.774
X189.581 Y33.8
X185.141
G3 X184.372 Y33.074 Z-2.316 I0.028 J-0.8
G1 X184.363 Y32.974 Z-2.3
X183.542 Y24.073
X183.539 Y24.027
G3 X184.31 Y23.2 Z-2.5 I0.8 J-0.027
G1 X188.628
X189.201 Y23.229
X189.745 Y23.328
X190.314 Y23.511
X190.945 Y23.809
X191.589 Y24.223
X192.272 Y24.802
X192.924 Y25.519
X193.522 Y26.381
X194.013 Y27.309
X194.404 Y28.283
X194.69 Y29.293
X194.877 Y30.326
X194.966 Y31.372
X194.934 Y32.344
X194.79 Y33.22
X194.786 Y33.232
X194.703 Y33.418
X194.575 Y33.576
X194.411 Y33.698
X194.222 Y33.774
X194.02 Y33.8
X189.581
G3 X188.813 Y33.085 Z-2.318 I0.028 J-0.8
G1 X188.802 Y32.974 Z-2.3
X187.86 Y24.084
X187.856 Y24.027
G3 X188.628 Y23.2 Z-2.5 I0.8 J-0.027
G1 X193.186
X193.634 Y23.222
X194.178 Y23.322
X194.749 Y23.505
X195.379 Y23.803
X196.025 Y24.219
X196.709 Y24.798
X197.361 Y25.515
X197.96 Y26.378
X198.451 Y27.306
X198.842 Y28.28
X199.129 Y29.29
X199.315 Y30.323
X199.405 Y31.368
X199.374 Y32.341
X199.23 Y33.218
X199.225 Y33.231
X199.142 Y33.417
X199.014 Y33.576
X198.851 Y33.698
X198.662 Y33.774
X198.46 Y33.8
X194.02
G3 X193.252 Y33.074 Z-2.316 I0.028 J-0.8
G1 X193.242 Y32.974 Z-2.3
X192.417 Y24.073
X192.414 Y24.027
G3 X193.186 Y23.2 Z-2.5 I0.8 J-0.027
G1 X197.504
X198.077 Y23.229
X198.621 Y23.328
X199.191 Y23.511
X199.821 Y23.809
X200.466 Y24.224
X201.15 Y24.803
X201.801 Y25.52
X202.4 Y26.382
X202.891 Y27.31
X203.282 Y28.285
X203.568 Y29.294
X203.755 Y30.327
X203.844 Y31.373
X203.812 Y32.345
X203.668 Y33.221
X203.664 Y33.232
X203.581 Y33.418
X203.453 Y33.576
X203.29 Y33.698
X203.101 Y33.774
X202.899 Y33.8
X198.46
G3 X197.692 Y33.085 Z-2.318 I0.028 J-0.8
G1 X197.68 Y32.974 Z-2.3
X196.736 Y24.084
X196.732 Y24.027
G3 X197.504 Y23.2 Z-2.5 I0.8 J-0.027
G1 X202.061
X202.512 Y23.223
X203.056 Y23.322
X203.627 Y23.505
X204.257 Y23.803
X204.903 Y24.219
X205.587 Y24.798
X206.239 Y25.516
X206.838 Y26.378
X207.329 Y27.306
X207.72 Y28.28
X208.007 Y29.29
X208.194 Y30.323
X208.283 Y31.369
X208.252 Y32.341
X208.108 Y33.218
X208.104 Y33.231
X208.02 Y33.417
X207.893 Y33.576
X207.729 Y33.698
X207.54 Y33.774
X207.338 Y33.8
X202.899
G3 X202.13 Y33.075 Z-2.316 I0.028 J-0.8
G1 X202.121 Y32.974 Z-2.3
X201.293 Y24.074
X201.29 Y24.027
G3 X202.061 Y23.2 Z-2.5 I0.8 J-0.027
G1 X206.379
X206.955 Y23.229
X207.499 Y23.328
X208.069 Y23.511
X208.699 Y23.809
X209.344 Y24.224
X210.028 Y24.803
X210.68 Y25.52
X211.279 Y26.382
X211.769 Y27.31
X212.16 Y28.285
X212.447 Y29.295
X212.633 Y30.328
X212.722 Y31.374
X212.69 Y32.345
X212.546 Y33.221
X212.543 Y33.232
X212.459 Y33.418
X212.332 Y33.576
X212.168 Y33.698
X211.979 Y33.774
X211.777 Y33.8
X207.338
G3 X206.57 Y33.085 Z-2.318 I0.028 J-0.8
G1 X206.558 Y32.974 Z-2.3
X205.612 Y24.084
X205.608 Y24.027
G3 X206.379 Y23.2 Z-2.5 I0.8 J-0.027
G1 X210.937
X211.39 Y23.223
X211.934 Y23.322
X212.505 Y23.506
X213.135 Y23.803
X213.781 Y24.219
X214.465 Y24.798
X215.118 Y25.516
X215.717 Y26.378
X216.207 Y27.306
X216.598 Y28.281
X216.885 Y29.29
X217.072 Y30.323
X217.162 Y31.369
X217.13 Y32.341
X216.986 Y33.218
X216.982 Y33.231
X216.898 Y33.417
X216.771 Y33.576
X216.607 Y33.698
X216.418 Y33.774
X216.216 Y33.8
X211.777
G3 X211.008 Y33.075 Z-2.316 I0.028 J-0.8
G1 X210.999 Y32.974 Z-2.3
X210.168 Y24.074
X210.165 Y24.027
G3 X210.937 Y23.2 Z-2.5 I0.8 J-0.027
G1 X215.255
X215.833 Y23.229
X216.377 Y23.328
X216.947 Y23.511
X217.578 Y23.809
X218.222 Y24.224
X218.906 Y24.803
X219.558 Y25.52
X220.157 Y26.383
X220.647 Y27.311
X221.038 Y28.285
X221.325 Y29.295
X221.511 Y30.328
X221.601 Y31.374
X221.569 Y32.345
X221.424 Y33.221
X221.421 Y33.232
X221.337 Y33.418
X221.21 Y33.576
X221.046 Y33.698
X220.857 Y33.774
X220.655 Y33.8
X216.216
G3 X215.448 Y33.085 Z-2.318 I0.028 J-0.8
G1 X215.437 Y32.974 Z-2.3
X214.487 Y24.084
X214.483 Y24.027
G3 X215.255 Y23.2 Z-2.5 I0.8 J-0.027
G1 X219.812
X220.268 Y23.223
X220.812 Y23.322
X221.383 Y23.506
X222.013 Y23.804
X222.659 Y24.219
X223.343 Y24.799
X223.996 Y25.516
X224.595 Y26.378
X225.085 Y27.306
X225.476 Y28.281
X225.763 Y29.29
X225.95 Y30.323
X226.04 Y31.369
X226.008 Y32.342
X225.864 Y33.218
X225.86 Y33.231
X225.777 Y33.417
X225.649 Y33.576
X225.485 Y33.698
X225.296 Y33.774
X225.094 Y33.8
X220.655
G3 X219.887 Y33.075 Z-2.316 I0.028 J-0.8
G1 X219.877 Y32.974 Z-2.3
X219.044 Y24.074
X219.041 Y24.027
G3 X219.812 Y23.2 Z-2.5 I0.8 J-0.027
G1 X224.13
X224.712 Y23.229
X225.256 Y23.328
X225.825 Y23.512
X226.456 Y23.81
X227.1 Y24.224
X227.784 Y24.803
X228.436 Y25.521
X229.035 Y26.383
X229.525 Y27.311
X229.916 Y28.285
X230.203 Y29.295
X230.389 Y30.328
X230.479 Y31.374
X230.447 Y32.345
X230.302 Y33.221
X230.299 Y33.232
X230.216 Y33.418
X230.088 Y33.576
X229.924 Y33.698
X229.735 Y33.774
X229.533 Y33.8
X225.094
G3 X224.327 Y33.086 Z-2.318 I0.028 J-0.8
G1 X224.315 Y32.974 Z-2.3
X223.363 Y24.085
X223.359 Y24.027
G3 X224.13 Y23.2 Z-2.5 I0.8 J-0.027
G1 X228.688
X229.146 Y23.223
X229.69 Y23.322
X230.261 Y23.506
X230.892 Y23.804
X231.537 Y24.22
X232.221 Y24.799
X232.874 Y25.516
X233.473 Y26.378
X233.963 Y27.307
X234.354 Y28.281
X234.641 Y29.291
X234.828 Y30.323
X234.918 Y31.369
X234.886 Y32.342
X234.742 Y33.218
X234.738 Y33.231
X234.655 Y33.417
X234.527 Y33.576
X234.364 Y33.698
X234.174 Y33.774
X233.972 Y33.8
X229.533
G3 X228.765 Y33.075 Z-2.316 I0.028 J-0.8
G1 X228.755 Y32.974 Z-2.3
X227.919 Y24.074
X227.916 Y24.027
G3 X228.688 Y23.2 Z-2.5 I0.8 J-0.027
G1 X233.006
X233.59 Y23.229
X234.134 Y23.329
X234.703 Y23.512
X235.334 Y23.81
X235.978 Y24.225
X236.662 Y24.803
X237.314 Y25.521
X237.913 Y26.383
X238.404 Y27.311
X238.794 Y28.285
X239.081 Y29.295
X239.267 Y30.328
X239.357 Y31.374
X239.325 Y32.345
X239.18 Y33.221
X239.177 Y33.232
X239.094 Y33.418
X238.966 Y33.577
X238.802 Y33.698
X238.614 Y33.774
X238.411 Y33.8
X233.972
G3 X233.205 Y33.086 Z-2.318 I0.028 J-0.8
G1 X233.193 Y32.974 Z-2.3
X232.238 Y24.085
X232.234 Y24.027
G3 X233.006 Y23.2 Z-2.5 I0.8 J-0.027
G1 X237.563
X238.024 Y23.223
X238.568 Y23.322
X239.139 Y23.506
X239.77 Y23.804
X240.416 Y24.22
X241.1 Y24.799
X241.752 Y25.517
X242.351 Y26.379
X242.842 Y27.307
X243.232 Y28.281
X243.519 Y29.291
X243.706 Y30.324
X243.796 Y31.37
X243.764 Y32.342
X243.62 Y33.218
X243.616 Y33.231
X243.533 Y33.417
X243.405 Y33.576
X243.242 Y33.698
X243.053 Y33.774
X242.85 Y33.8
X238.411
G3 X237.643 Y33.076 Z-2.316 I0.028 J-0.8
G1 X237.633 Y32.974 Z-2.3
X236.795 Y24.075
X236.792 Y24.027
G3 X237.563 Y23.2 Z-2.5 I0.8 J-0.027
G1 X241.881
X242.468 Y23.229
X243.012 Y23.329
X243.581 Y23.512
X244.212 Y23.81
X244.856 Y24.225
X245.54 Y24.804
X246.192 Y25.521
X246.791 Y26.383
X247.282 Y27.311
X247.672 Y28.285
X247.959 Y29.295
X248.146 Y30.328
X248.235 Y31.374
X248.203 Y32.345
X248.058 Y33.221
X248.055 Y33.232
X247.972 Y33.418
X247.844 Y33.577
X247.681 Y33.698
X247.492 Y33.774
X247.29 Y33.8
X242.85
G3 X242.083 Y33.086 Z-2.318 I0.028 J-0.8
G1 X242.071 Y32.974 Z-2.3
X241.114 Y24.085
X241.11 Y24.027
G3 X241.881 Y23.2 Z-2.5 I0.8 J-0.027
G1 X246.439
X246.902 Y23.223
X247.446 Y23.322
X248.017 Y23.506
X248.648 Y23.804
X249.294 Y24.22
X249.978 Y24.799
X250.63 Y25.517
X251.229 Y26.379
X251.72 Y27.307
X252.111 Y28.281
X252.397 Y29.291
X252.584 Y30.324
X252.674 Y31.37
X252.642 Y32.342
X252.498 Y33.218
X252.494 Y33.231
X252.411 Y33.417
X252.283 Y33.576
X252.12 Y33.698
X251.931 Y33.774
X251.729 Y33.8
X247.29
G3 X246.521 Y33.076 Z-2.316 I0.028 J-0.8
G1 X246.511 Y32.974 Z-2.3
X245.67 Y24.075
X245.667 Y24.027
G3 X246.439 Y23.2 Z-2.5 I0.8 J-0.027
G1 X250.757
X251.346 Y23.229
X251.89 Y23.329
X252.46 Y23.512
X253.09 Y23.81
X253.735 Y24.225
X254.418 Y24.804
X255.07 Y25.521
X255.669 Y26.383
X256.16 Y27.311
X256.55 Y28.285
X256.837 Y29.295
X257.024 Y30.328
X257.113 Y31.374
X257.081 Y32.346
X256.936 Y33.221
X256.933 Y33.232
X256.85 Y33.418
X256.722 Y33.577
X256.559 Y33.698
X256.37 Y33.774
X256.168 Y33.8
X251.729
G3 X250.961 Y33.086 Z-2.318 I0.028 J-0.8
G1 X250.949 Y32.974 Z-2.3
X249.989 Y24.085
X249.985 Y24.027
G3 X250.757 Y23.2 Z-2.5 I0.8 J-0.027
G1 X255.314
X255.781 Y23.223
X256.324 Y23.323
X256.896 Y23.506
X257.526 Y23.804
X258.172 Y24.22
X258.856 Y24.799
X259.508 Y25.517
X260.107 Y26.379
X260.598 Y27.307
X260.989 Y28.281
X261.276 Y29.291
X261.462 Y30.324
X261.552 Y31.37
X261.521 Y32.342
X261.376 Y33.218
X261.372 Y33.231
X261.289 Y33.417
X261.161 Y33.576
X260.998 Y33.698
X260.809 Y33.774
X260.607 Y33.8
X256.168
G3 X255.399 Y33.076 Z-2.316 I0.028 J-0.8
G1 X255.389 Y32.974 Z-2.3
X254.546 Y24.075
X254.543 Y24.027
G3 X255.314 Y23.2 Z-2.5 I0.8 J-0.027
G1 X259.632
X260.224 Y23.23
X260.768 Y23.329
X261.338 Y23.512
X261.968 Y23.81
X262.613 Y24.225
X263.296 Y24.804
X263.948 Y25.521
X264.547 Y26.383
X265.038 Y27.311
X265.428 Y28.286
X265.715 Y29.295
X265.902 Y30.328
X265.991 Y31.374
X265.959 Y32.346
X265.815 Y33.221
X265.811 Y33.232
X265.728 Y33.418
X265.6 Y33.577
X265.437 Y33.698
X265.248 Y33.774
X265.046 Y33.8
X260.607
G3 X259.839 Y33.087 Z-2.318 I0.028 J-0.8
G1 X259.827 Y32.974 Z-2.3
X258.865 Y24.086
X258.861 Y24.027
G3 X259.632 Y23.2 Z-2.5 I0.8 J-0.027
G1 X264.19
X264.659 Y23.223
X265.203 Y23.323
X265.774 Y23.506
X266.404 Y23.804
X267.05 Y24.22
X267.734 Y24.799
X268.386 Y25.517
X268.985 Y26.379
X269.476 Y27.307
X269.867 Y28.281
X270.154 Y29.291
X270.34 Y30.324
X270.43 Y31.37
X270.399 Y32.342
X270.254 Y33.218
X270.25 Y33.231
X270.167 Y33.417
X270.039 Y33.576
X269.876 Y33.698
X269.687 Y33.774
X269.485 Y33.8
X265.046
G3 X264.277 Y33.076 Z-2.316 I0.028 J-0.8
G1 X264.267 Y32.974 Z-2.3
X263.421 Y24.075
X263.418 Y24.027
G3 X264.19 Y23.2 Z-2.5 I0.8 J-0.027
G1 X268.508
X269.102 Y23.23
X269.646 Y23.329
X270.216 Y23.512
X270.846 Y23.81
X271.491 Y24.225
X272.174 Y24.804
X272.826 Y25.521
X273.425 Y26.383
X273.916 Y27.311
X274.307 Y28.286
X274.593 Y29.295
X274.78 Y30.329
X274.869 Y31.374
X274.837 Y32.346
X274.693 Y33.222
X274.689 Y33.232
X274.606 Y33.418
X274.478 Y33.577
X274.315 Y33.698
X274.126 Y33.774
X273.924 Y33.8
X269.485
G3 X268.717 Y33.087 Z-2.318 I0.028 J-0.8
G1 X268.705 Y32.974 Z-2.3
X267.74 Y24.086
X267.736 Y24.027
G3 X268.508 Y23.2 Z-2.5 I0.8 J-0.027
G1 X273.065
X273.537 Y23.224
X274.081 Y23.323
X274.652 Y23.506
X275.282 Y23.804
X275.928 Y24.22
X276.612 Y24.799
X277.264 Y25.517
X277.863 Y26.379
X278.354 Y27.307
X278.745 Y28.281
X279.032 Y29.291
X279.219 Y30.324
X279.308 Y31.37
X279.277 Y32.342
X279.132 Y33.218
X279.129 Y33.231
X279.045 Y33.417
X278.918 Y33.576
X278.754 Y33.698
X278.565 Y33.774
X278.363 Y33.8
X273.924
G3 X273.155 Y33.076 Z-2.316 I0.028 J-0.8
G1 X273.145 Y32.974 Z-2.3
X272.297 Y24.075
X272.294 Y24.027
G3 X273.065 Y23.2 Z-2.5 I0.8 J-0.027
G1 X277.383
X277.98 Y23.23
X278.524 Y23.329
X279.094 Y23.512
X279.724 Y23.81
X280.369 Y24.225
X281.052 Y24.804
X281.704 Y25.521
X282.303 Y26.383
X282.794 Y27.311
X283.185 Y28.286
X283.471 Y29.296
X283.658 Y30.329
X283.747 Y31.375
X283.715 Y32.346
X283.571 Y33.222
X283.567 Y33.232
X283.484 Y33.418
X283.356 Y33.577
X283.193 Y33.698
X283.004 Y33.774
X282.802 Y33.8
X278.363
G3 X277.595 Y33.087 Z-2.318 I0.028 J-0.8
G1 X277.583 Y32.974 Z-2.3
X276.616 Y24.086
X276.612 Y24.027
G3 X277.383 Y23.2 Z-2.5 I0.8 J-0.027
G1 X281.941
X282.415 Y23.224
X282.959 Y23.323
X283.53 Y23.507
X284.16 Y23.804
X284.806 Y24.22
X285.49 Y24.799
X286.142 Y25.517
X286.741 Y26.379
X287.232 Y27.307
X287.623 Y28.281
X287.91 Y29.291
X288.097 Y30.324
X288.186 Y31.37
X288.155 Y32.342
X288.01 Y33.218
X288.007 Y33.231
X287.923 Y33.417
X287.796 Y33.576
X287.632 Y33.698
X287.443 Y33.774
X287.241 Y33.8
X282.802
G3 X282.033 Y33.077 Z-2.316 I0.028 J-0.8
G1 X282.023 Y32.974 Z-2.3
X281.173 Y24.076
X281.169 Y24.027
G3 X281.941 Y23.2 Z-2.5 I0.8 J-0.027
G1 X286.259
X286.858 Y23.23
X287.402 Y23.329
X287.972 Y23.512
X288.602 Y23.81
X289.247 Y24.225
X289.931 Y24.804
X290.582 Y25.521
X291.181 Y26.383
X291.672 Y27.312
X292.063 Y28.286
X292.349 Y29.296
X292.536 Y30.329
X292.625 Y31.375
X292.593 Y32.346
X292.449 Y33.222
X292.445 Y33.232
X292.362 Y33.418
X292.234 Y33.577
X292.071 Y33.698
X291.882 Y33.774
X291.68 Y33.8
X287.241
G3 X286.473 Y33.087 Z-2.318 I0.028 J-0.8
G1 X286.461 Y32.974 Z-2.3
X285.491 Y24.086
X285.487 Y24.027
G3 X286.259 Y23.2 Z-2.5 I0.8 J-0.027
G1 X290.817
X291.293 Y23.224
X291.837 Y23.323
X292.408 Y23.507
X293.038 Y23.805
X293.684 Y24.22
X294.368 Y24.8
X295.02 Y25.517
X295.619 Y26.379
X296.11 Y27.307
X296.501 Y28.282
X296.788 Y29.291
X296.975 Y30.324
X297.064 Y31.37
X297.033 Y32.342
X296.888 Y33.219
X296.885 Y33.231
X296.801 Y33.417
X296.674 Y33.576
X296.51 Y33.698
X296.321 Y33.774
X296.119 Y33.8
X291.68
G3 X290.911 Y33.077 Z-2.317 I0.028 J-0.8
G1 X290.901 Y32.974 Z-2.3
X290.048 Y24.076
X290.045 Y24.027
G3 X290.817 Y23.2 Z-2.5 I0.8 J-0.027
G1 X295.134
X295.736 Y23.23
X296.28 Y23.329
X296.85 Y23.513
X297.48 Y23.811
X298.125 Y24.225
X298.809 Y24.804
X299.46 Y25.522
X300.059 Y26.384
X300.55 Y27.312
X300.941 Y28.286
X301.227 Y29.296
X301.414 Y30.329
X301.503 Y31.375
X301.471 Y32.346
X301.355 Y33.05
X301.294 Y33.25
X301.184 Y33.428
X301.031 Y33.57
X300.847 Y33.669
X300.644 Y33.716
X300.412 Y33.739
X299.692 Y33.791
X299.452 Y33.8
X296.119
G3 X295.351 Y33.087 Z-2.318 I0.028 J-0.8
G1 X295.339 Y32.974 Z-2.3
X294.367 Y24.086
X294.363 Y24.027
G3 X295.134 Y23.2 Z-2.5 I0.8 J-0.027
G1 X299.452
X299.692 Y23.207
X300.382 Y23.276
X300.947 Y23.409
X301.527 Y23.628
X302.179 Y23.977
X302.822 Y24.438
X303.499 Y25.072
X304.165 Y25.883
X304.72 Y26.774
X305.166 Y27.724
X305.186 Y27.783
X305.205 Y27.843
X305.218 Y27.905
X305.227 Y27.967
G3 X304.601 Y28.28 Z-2.358 I-0.379 J0.024
G1 X304.322 Y28.042 Z-2.3
X299.7 Y24.092
X299.447 Y23.876 Z-2.353
G3 X299.692 Y23.207 Z-2.5 I0.247 J-0.289
G1 X299.932 Y23.219
X300.172 Y23.237
X300.949 Y23.314
X301.04 Y23.328
X301.131 Y23.353
X301.851 Y23.571
X301.971 Y23.608
X302.091 Y23.66
X302.81 Y24.044
X302.93 Y24.114
X303.05 Y24.206
X303.53 Y24.6
X303.711 Y24.752
X303.77 Y24.812
X304.311 Y25.47
X304.4 Y25.59
X304.467 Y25.71
X304.85 Y26.429
X304.935 Y26.669
X305.153 Y27.387
X305.18 Y27.507
X305.193 Y27.627
X305.264 Y28.346
X305.275 Y28.466
X305.271 Y28.586
X305.2 Y29.304
X305.171 Y29.544
X305.101 Y29.784
X304.956 Y30.263
X304.881 Y30.503
X304.759 Y30.742
X304.49 Y31.247
X304.366 Y31.461
X304.171 Y31.701
X303.77 Y32.188
X303.53 Y32.4
X303.05 Y32.794
X302.912 Y32.899
X302.81 Y32.956
X302.091 Y33.34
X302.007 Y33.378
X301.851 Y33.429
X301.131 Y33.647
X301.011 Y33.678
X300.891 Y33.692
X300.644 Y33.716
X300.594 Y33.718 Z-2.498
X300.593
X300.509 Y33.704 Z-2.488
X300.426 Y33.691 Z-2.468
X300.345 Y33.678 Z-2.439
X300.264 Y33.637 Z-2.394
X300.19 Y33.599 Z-2.337
X300.122 Y33.564 Z-2.27
X300.073 Y33.517 Z-2.193
X300.033 Y33.477 Z-2.108
X300. Y33.445 Z-2.016
X299.977 Y33.422 Z-1.918
X299.962 Y33.408 Z-1.818
X299.958 Y33.403 Z-1.715
G0 Z5.
X166.982 Y30.085
Z0.
G3 X161.495 Y31.857 Z-0.455 I-3.542 J-1.585 F3500.
X160.308 Y26.226 Z-0.909 I1.942 J-3.35
X166.02 Y25.634 Z-1.364 I3.123 J2.276
X166.013 Y31.365 Z-1.818 I-2.584 J2.862
X160.325 Y30.761 Z-2.273 I-2.572 J-2.863
X161.517 Y25.179 Z-2.727 I3.109 J-2.254
X166.933 Y26.944 Z-3.182 I1.913 J3.321
X164.618 Y32.135 Z-3.636 I-3.495 J1.553
X159.707 Y29.297 Z-4.091 I-1.178 J-3.63
X163.035 Y24.718 Z-4.545 I3.726 J-0.791
X167.232 Y28.498 Z-5. I0.397 J3.78
X159.631 I-3.801 J0.
X167.232 I3.801 J0.
G1 X167.235 Y28.629
X167.262 Y28.757
X167.315 Y28.878
X167.914 Y29.739
X168.075 Y29.948
X168.224 Y30.205
X168.352 Y30.512
X168.448 Y30.867
X168.502 Y31.267
X168.504 Y31.708
X168.444 Y32.183
X168.312 Y32.684
X168.101 Y33.199
X167.989 Y33.396
X167.862 Y33.563
X167.696 Y33.692
X167.502 Y33.772
X167.294 Y33.8
X162.961
X162.241 Y33.798
X162.002 Y33.78
X161.042 Y33.685
X160.922 Y33.663
X160.771 Y33.618
X160.082 Y33.409
X159.992 Y33.378
X159.843 Y33.304
X159.123 Y32.92
X159.088 Y32.899
X158.883 Y32.739
X158.403 Y32.346
X158.223 Y32.18
X157.684 Y31.523
X157.635 Y31.461
X157.497 Y31.221
X157.204 Y30.674
X157.12 Y30.503
X157.044 Y30.263
X156.899 Y29.784
X156.829 Y29.544
X156.8 Y29.304
X156.729 Y28.586
X156.725 Y28.466
X156.736 Y28.346
X156.807 Y27.627
X156.82 Y27.507
X156.847 Y27.387
X157.065 Y26.669
X157.15 Y26.429
X157.533 Y25.71
X157.598 Y25.594
X157.689 Y25.47
X158.163 Y24.892
X158.288 Y24.752
X158.403 Y24.654
X158.883 Y24.261
X159.123 Y24.08
X159.843 Y23.696
X159.963 Y23.634
X160.082 Y23.591
X160.802 Y23.373
X160.922 Y23.337
X161.042 Y23.315
X162.002 Y23.22
X162.241 Y23.202
X163.201 Y23.2
X166.079
X166.729 Y23.232
X167.236 Y23.325
X167.766 Y23.495
X168.304 Y23.75
X168.839 Y24.094
X169.64 Y24.773
X170.387 Y25.511
X171.06 Y26.316
X171.641 Y27.19
X172.116 Y28.127
X172.471 Y29.115
X172.698 Y30.139
X172.794 Y31.185
X172.759 Y32.208
X172.605 Y33.137
X172.576 Y33.233
X172.492 Y33.418
X172.364 Y33.577
X172.201 Y33.698
X172.012 Y33.774
X171.81 Y33.8
X167.294
G3 X166.529 Y33.107 Z-4.821 I0.028 J-0.8
G1 X166.511 Y32.974 Z-4.8
X165.315 Y24.106
X165.308 Y24.027
G3 X166.079 Y23.2 Z-5. I0.8 J-0.027
G1 X170.637
X171.3 Y23.233
X171.876 Y23.338
X172.497 Y23.538
X173.172 Y23.857
X173.853 Y24.295
X174.549 Y24.885
X175.24 Y25.644
X175.839 Y26.506
X176.323 Y27.438
X176.702 Y28.416
X176.978 Y29.429
X177.147 Y30.465
X177.215 Y31.513
X177.163 Y32.474
X177.038 Y33.147
X176.968 Y33.356
X176.843 Y33.539
X176.673 Y33.68
X176.47 Y33.769
X176.251 Y33.8
X171.81
G3 X171.045 Y33.104 Z-4.821 I0.028 J-0.8
G1 X171.028 Y32.974 Z-4.8
X169.872 Y24.103
X169.866 Y24.027
G3 X170.637 Y23.2 Z-5. I0.8 J-0.027
G1 X175.435
X175.882 Y23.222
X176.421 Y23.321
X177.008 Y23.51
X177.627 Y23.802
X178.286 Y24.226
X178.96 Y24.797
X179.616 Y25.518
X180.215 Y26.38
X180.706 Y27.308
X181.094 Y28.283
X181.378 Y29.294
X181.564 Y30.327
X181.648 Y31.373
X181.614 Y32.354
X181.47 Y33.216
X181.465 Y33.233
X181.381 Y33.419
X181.253 Y33.577
X181.09 Y33.698
X180.901 Y33.774
X180.699 Y33.8
X176.251
G3 X175.483 Y33.073 Z-4.816 I0.028 J-0.8
G1 X175.474 Y32.974 Z-4.8
X174.666 Y24.072
X174.663 Y24.027
G3 X175.435 Y23.2 Z-5. I0.8 J-0.027
G1 X179.753
X180.331 Y23.229
X180.875 Y23.328
X181.444 Y23.511
X182.072 Y23.808
X182.716 Y24.222
X183.397 Y24.799
X184.049 Y25.517
X184.648 Y26.379
X185.138 Y27.307
X185.528 Y28.282
X185.813 Y29.292
X185.999 Y30.325
X186.088 Y31.371
X186.055 Y32.345
X185.91 Y33.222
X185.907 Y33.232
X185.823 Y33.418
X185.696 Y33.577
X185.532 Y33.698
X185.343 Y33.774
X185.141 Y33.8
X180.699
G3 X179.932 Y33.084 Z-4.818 I0.028 J-0.8
G1 X179.92 Y32.974 Z-4.8
X178.985 Y24.083
X178.981 Y24.027
G3 X179.753 Y23.2 Z-5. I0.8 J-0.027
G1 X184.31
X184.761 Y23.223
X185.305 Y23.322
X185.875 Y23.505
X186.504 Y23.803
X187.149 Y24.218
X187.832 Y24.796
X188.484 Y25.513
X189.083 Y26.375
X189.573 Y27.303
X189.964 Y28.277
X190.251 Y29.287
X190.437 Y30.32
X190.527 Y31.366
X190.495 Y32.339
X190.351 Y33.217
X190.347 Y33.231
X190.263 Y33.417
X190.136 Y33.576
X189.972 Y33.698
X189.783 Y33.774
X189.581 Y33.8
X185.141
G3 X184.372 Y33.074 Z-4.816 I0.028 J-0.8
G1 X184.363 Y32.974 Z-4.8
X183.542 Y24.073
X183.539 Y24.027
G3 X184.31 Y23.2 Z-5. I0.8 J-0.027
G1 X188.628
X189.201 Y23.229
X189.745 Y23.328
X190.314 Y23.511
X190.945 Y23.809
X191.589 Y24.223
X192.272 Y24.802
X192.924 Y25.519
X193.522 Y26.381
X194.013 Y27.309
X194.404 Y28.283
X194.69 Y29.293
X194.877 Y30.326
X194.966 Y31.372
X194.934 Y32.344
X194.79 Y33.22
X194.786 Y33.232
X194.703 Y33.418
X194.575 Y33.576
X194.411 Y33.698
X194.222 Y33.774
X194.02 Y33.8
X189.581
G3 X188.813 Y33.085 Z-4.818 I0.028 J-0.8
G1 X188.802 Y32.974 Z-4.8
X187.86 Y24.084
X187.856 Y24.027
G3 X188.628 Y23.2 Z-5. I0.8 J-0.027
G1 X193.186
X193.634 Y23.222
X194.178 Y23.322
X194.749 Y23.505
X195.379 Y23.803
X196.025 Y24.219
X196.709 Y24.798
X197.361 Y25.515
X197.96 Y26.378
X198.451 Y27.306
X198.842 Y28.28
X199.129 Y29.29
X199.315 Y30.323
X199.405 Y31.368
X199.374 Y32.341
X199.23 Y33.218
X199.225 Y33.231
X199.142 Y33.417
X199.014 Y33.576
X198.851 Y33.698
X198.662 Y33.774
X198.46 Y33.8
X194.02
G3 X193.252 Y33.074 Z-4.816 I0.028 J-0.8
G1 X193.242 Y32.974 Z-4.8
X192.417 Y24.073
X192.414 Y24.027
G3 X193.186 Y23.2 Z-5. I0.8 J-0.027
G1 X197.504
X198.077 Y23.229
X198.621 Y23.328
X199.191 Y23.511
X199.821 Y23.809
X200.466 Y24.224
X201.15 Y24.803
X201.801 Y25.52
X202.4 Y26.382
X202.891 Y27.31
X203.282 Y28.285
X203.568 Y29.294
X203.755 Y30.327
X203.844 Y31.373
X203.812 Y32.345
X203.668 Y33.221
X203.664 Y33.232
X203.581 Y33.418
X203.453 Y33.576
X203.29 Y33.698
X203.101 Y33.774
X202.899 Y33.8
X198.46
G3 X197.692 Y33.085 Z-4.818 I0.028 J-0.8
G1 X197.68 Y32.974 Z-4.8
X196.736 Y24.084
X196.732 Y24.027
G3 X197.504 Y23.2 Z-5. I0.8 J-0.027
G1 X202.061
X202.512 Y23.223
X203.056 Y23.322
X203.627 Y23.505
X204.257 Y23.803
X204.903 Y24.219
X205.587 Y24.798
X206.239 Y25.516
X206.838 Y26.378
X207.329 Y27.306
X207.72 Y28.28
X208.007 Y29.29
X208.194 Y30.323
X208.283 Y31.369
X208.252 Y32.341
X208.108 Y33.218
X208.104 Y33.231
X208.02 Y33.417
X207.893 Y33.576
X207.729 Y33.698
X207.54 Y33.774
X207.338 Y33.8
X202.899
G3 X202.13 Y33.075 Z-4.816 I0.028 J-0.8
G1 X202.121 Y32.974 Z-4.8
X201.293 Y24.074
X201.29 Y24.027
G3 X202.061 Y23.2 Z-5. I0.8 J-0.027
G1 X206.379
X206.955 Y23.229
X207.499 Y23.328
X208.069 Y23.511
X208.699 Y23.809
X209.344 Y24.224
X210.028 Y24.803
X210.68 Y25.52
X211.279 Y26.382
X211.769 Y27.31
X212.16 Y28.285
X212.447 Y29.295
X212.633 Y30.328
X212.722 Y31.374
X212.69 Y32.345
X212.546 Y33.221
X212.543 Y33.232
X212.459 Y33.418
X212.332 Y33.576
X212.168 Y33.698
X211.979 Y33.774
X211.777 Y33.8
X207.338
G3 X206.57 Y33.085 Z-4.818 I0.028 J-0.8
G1 X206.558 Y32.974 Z-4.8
X205.612 Y24.084
X205.608 Y24.027
G3 X206.379 Y23.2 Z-5. I0.8 J-0.027
G1 X210.937
X211.39 Y23.223
X211.934 Y23.322
X212.505 Y23.506
X213.135 Y23.803
X213.781 Y24.219
X214.465 Y24.798
X215.118 Y25.516
X215.717 Y26.378
X216.207 Y27.306
X216.598 Y28.281
X216.885 Y29.29
X217.072 Y30.323
X217.162 Y31.369
X217.13 Y32.341
X216.986 Y33.218
X216.982 Y33.231
X216.898 Y33.417
X216.771 Y33.576
X216.607 Y33.698
X216.418 Y33.774
X216.216 Y33.8
X211.777
G3 X211.008 Y33.075 Z-4.816 I0.028 J-0.8
G1 X210.999 Y32.974 Z-4.8
X210.168 Y24.074
X210.165 Y24.027
G3 X210.937 Y23.2 Z-5. I0.8 J-0.027
G1 X215.255
X215.833 Y23.229
X216.377 Y23.328
X216.947 Y23.511
X217.578 Y23.809
X218.222 Y24.224
X218.906 Y24.803
X219.558 Y25.52
X220.157 Y26.383
X220.647 Y27.311
X221.038 Y28.285
X221.325 Y29.295
X221.511 Y30.328
X221.601 Y31.374
X221.569 Y32.345
X221.424 Y33.221
X221.421 Y33.232
X221.337 Y33.418
X221.21 Y33.576
X221.046 Y33.698
X220.857 Y33.774
X220.655 Y33.8
X216.216
G3 X215.448 Y33.085 Z-4.818 I0.028 J-0.8
G1 X215.437 Y32.974 Z-4.8
X214.487 Y24.084
X214.483 Y24.027
G3 X215.255 Y23.2 Z-5. I0.8 J-0.027
G1 X219.812
X220.268 Y23.223
X220.812 Y23.322
X221.383 Y23.506
X222.013 Y23.804
X222.659 Y24.219
X223.343 Y24.799
X223.996 Y25.516
X224.595 Y26.378
X225.085 Y27.306
X225.476 Y28.281
X225.763 Y29.29
X225.95 Y30.323
X226.04 Y31.369
X226.008 Y32.342
X225.864 Y33.218
X225.86 Y33.231
X225.777 Y33.417
X225.649 Y33.576
X225.485 Y33.698
X225.296 Y33.774
X225.094 Y33.8
X220.655
G3 X219.887 Y33.075 Z-4.816 I0.028 J-0.8
G1 X219.877 Y32.974 Z-4.8
X219.044 Y24.074
X219.041 Y24.027
G3 X219.812 Y23.2 Z-5. I0.8 J-0.027
G1 X224.13
X224.712 Y23.229
X225.256 Y23.328
X225.825 Y23.512
X226.456 Y23.81
X227.1 Y24.224
X227.784 Y24.803
X228.436 Y25.521
X229.035 Y26.383
X229.525 Y27.311
X229.916 Y28.285
X230.203 Y29.295
X230.389 Y30.328
X230.479 Y31.374
X230.447 Y32.345
X230.302 Y33.221
X230.299 Y33.232
X230.216 Y33.418
X230.088 Y33.576
X229.924 Y33.698
X229.735 Y33.774
X229.533 Y33.8
X225.094
G3 X224.327 Y33.086 Z-4.818 I0.028 J-0.8
G1 X224.315 Y32.974 Z-4.8
X223.363 Y24.085
X223.359 Y24.027
G3 X224.13 Y23.2 Z-5. I0.8 J-0.027
G1 X228.688
X229.146 Y23.223
X229.69 Y23.322
X230.261 Y23.506
X230.892 Y23.804
X231.537 Y24.22
X232.221 Y24.799
X232.874 Y25.516
X233.473 Y26.378
X233.963 Y27.307
X234.354 Y28.281
X234.641 Y29.291
X234.828 Y30.323
X234.918 Y31.369
X234.886 Y32.342
X234.742 Y33.218
X234.738 Y33.231
X234.655 Y33.417
X234.527 Y33.576
X234.364 Y33.698
X234.174 Y33.774
X233.972 Y33.8
X229.533
G3 X228.765 Y33.075 Z-4.816 I0.028 J-0.8
G1 X228.755 Y32.974 Z-4.8
X227.919 Y24.074
X227.916 Y24.027
G3 X228.688 Y23.2 Z-5. I0.8 J-0.027
G1 X233.006
X233.59 Y23.229
X234.134 Y23.329
X234.703 Y23.512
X235.334 Y23.81
X235.978 Y24.225
X236.662 Y24.803
X237.314 Y25.521
X237.913 Y26.383
X238.404 Y27.311
X238.794 Y28.285
X239.081 Y29.295
X239.267 Y30.328
X239.357 Y31.374
X239.325 Y32.345
X239.18 Y33.221
X239.177 Y33.232
X239.094 Y33.418
X238.966 Y33.577
X238.802 Y33.698
X238.614 Y33.774
X238.411 Y33.8
X233.972
G3 X233.205 Y33.086 Z-4.818 I0.028 J-0.8
G1 X233.193 Y32.974 Z-4.8
X232.238 Y24.085
X232.234 Y24.027
G3 X233.006 Y23.2 Z-5. I0.8 J-0.027
G1 X237.563
X238.024 Y23.223
X238.568 Y23.322
X239.139 Y23.506
X239.77 Y23.804
X240.416 Y24.22
X241.1 Y24.799
X241.752 Y25.517
X242.351 Y26.379
X242.842 Y27.307
X243.232 Y28.281
X243.519 Y29.291
X243.706 Y30.324
X243.796 Y31.37
X243.764 Y32.342
X243.62 Y33.218
X243.616 Y33.231
X243.533 Y33.417
X243.405 Y33.576
X243.242 Y33.698
X243.053 Y33.774
X242.85 Y33.8
X238.411
G3 X237.643 Y33.076 Z-4.816 I0.028 J-0.8
G1 X237.633 Y32.974 Z-4.8
X236.795 Y24.075
X236.792 Y24.027
G3 X237.563 Y23.2 Z-5. I0.8 J-0.027
G1 X241.881
X242.468 Y23.229
X243.012 Y23.329
X243.581 Y23.512
X244.212 Y23.81
X244.856 Y24.225
X245.54 Y24.804
X246.192 Y25.521
X246.791 Y26.383
X247.282 Y27.311
X247.672 Y28.285
X247.959 Y29.295
X248.146 Y30.328
X248.235 Y31.374
X248.203 Y32.345
X248.058 Y33.221
X248.055 Y33.232
X247.972 Y33.418
X247.844 Y33.577
X247.681 Y33.698
X247.492 Y33.774
X247.29 Y33.8
X242.85
G3 X242.083 Y33.086 Z-4.818 I0.028 J-0.8
G1 X242.071 Y32.974 Z-4.8
X241.114 Y24.085
X241.11 Y24.027
G3 X241.881 Y23.2 Z-5. I0.8 J-0.027
G1 X246.439
X246.902 Y23.223
X247.446 Y23.322
X248.017 Y23.506
X248.648 Y23.804
X249.294 Y24.22
X249.978 Y24.799
X250.63 Y25.517
X251.229 Y26.379
X251.72 Y27.307
X252.111 Y28.281
X252.397 Y29.291
X252.584 Y30.324
X252.674 Y31.37
X252.642 Y32.342
X252.498 Y33.218
X252.494 Y33.231
X252.411 Y33.417
X252.283 Y33.576
X252.12 Y33.698
X251.931 Y33.774
X251.729 Y33.8
X247.29
G3 X246.521 Y33.076 Z-4.816 I0.028 J-0.8
G1 X246.511 Y32.974 Z-4.8
X245.67 Y24.075
X245.667 Y24.027
G3 X246.439 Y23.2 Z-5. I0.8 J-0.027
G1 X250.757
X251.346 Y23.229
X251.89 Y23.329
X252.46 Y23.512
X253.09 Y23.81
X253.735 Y24.225
X254.418 Y24.804
X255.07 Y25.521
X255.669 Y26.383
X256.16 Y27.311
X256.55 Y28.285
X256.837 Y29.295
X257.024 Y30.328
X257.113 Y31.374
X257.081 Y32.346
X256.936 Y33.221
X256.933 Y33.232
X256.85 Y33.418
X256.722 Y33.577
X256.559 Y33.698
X256.37 Y33.774
X256.168 Y33.8
X251.729
G3 X250.961 Y33.086 Z-4.818 I0.028 J-0.8
G1 X250.949 Y32.974 Z-4.8
X249.989 Y24.085
X249.985 Y24.027
G3 X250.757 Y23.2 Z-5. I0.8 J-0.027
G1 X255.314
X255.781 Y23.223
X256.324 Y23.323
X256.896 Y23.506
X257.526 Y23.804
X258.172 Y24.22
X258.856 Y24.799
X259.508 Y25.517
X260.107 Y26.379
X260.598 Y27.307
X260.989 Y28.281
X261.276 Y29.291
X261.462 Y30.324
X261.552 Y31.37
X261.521 Y32.342
X261.376 Y33.218
X261.372 Y33.231
X261.289 Y33.417
X261.161 Y33.576
X260.998 Y33.698
X260.809 Y33.774
X260.607 Y33.8
X256.168
G3 X255.399 Y33.076 Z-4.816 I0.028 J-0.8
G1 X255.389 Y32.974 Z-4.8
X254.546 Y24.075
X254.543 Y24.027
G3 X255.314 Y23.2 Z-5. I0.8 J-0.027
G1 X259.632
X260.224 Y23.23
X260.768 Y23.329
X261.338 Y23.512
X261.968 Y23.81
X262.613 Y24.225
X263.296 Y24.804
X263.948 Y25.521
X264.547 Y26.383
X265.038 Y27.311
X265.428 Y28.286
X265.715 Y29.295
X265.902 Y30.328
X265.991 Y31.374
X265.959 Y32.346
X265.815 Y33.221
X265.811 Y33.232
X265.728 Y33.418
X265.6 Y33.577
X265.437 Y33.698
X265.248 Y33.774
X265.046 Y33.8
X260.607
G3 X259.839 Y33.087 Z-4.818 I0.028 J-0.8
G1 X259.827 Y32.974 Z-4.8
X258.865 Y24.086
X258.861 Y24.027
G3 X259.632 Y23.2 Z-5. I0.8 J-0.027
G1 X264.19
X264.659 Y23.223
X265.203 Y23.323
X265.774 Y23.506
X266.404 Y23.804
X267.05 Y24.22
X267.734 Y24.799
X268.386 Y25.517
X268.985 Y26.379
X269.476 Y27.307
X269.867 Y28.281
X270.154 Y29.291
X270.34 Y30.324
X270.43 Y31.37
X270.399 Y32.342
X270.254 Y33.218
X270.25 Y33.231
X270.167 Y33.417
X270.039 Y33.576
X269.876 Y33.698
X269.687 Y33.774
X269.485 Y33.8
X265.046
G3 X264.277 Y33.076 Z-4.816 I0.028 J-0.8
G1 X264.267 Y32.974 Z-4.8
X263.421 Y24.075
X263.418 Y24.027
G3 X264.19 Y23.2 Z-5. I0.8 J-0.027
G1 X268.508
X269.102 Y23.23
X269.646 Y23.329
X270.216 Y23.512
X270.846 Y23.81
X271.491 Y24.225
X272.174 Y24.804
X272.826 Y25.521
X273.425 Y26.383
X273.916 Y27.311
X274.307 Y28.286
X274.593 Y29.295
X274.78 Y30.329
X274.869 Y31.374
X274.837 Y32.346
X274.693 Y33.222
X274.689 Y33.232
X274.606 Y33.418
X274.478 Y33.577
X274.315 Y33.698
X274.126 Y33.774
X273.924 Y33.8
X269.485
G3 X268.717 Y33.087 Z-4.818 I0.028 J-0.8
G1 X268.705 Y32.974 Z-4.8
X267.74 Y24.086
X267.736 Y24.027
G3 X268.508 Y23.2 Z-5. I0.8 J-0.027
G1 X273.065
X273.537 Y23.224
X274.081 Y23.323
X274.652 Y23.506
X275.282 Y23.804
X275.928 Y24.22
X276.612 Y24.799
X277.264 Y25.517
X277.863 Y26.379
X278.354 Y27.307
X278.745 Y28.281
X279.032 Y29.291
X279.219 Y30.324
X279.308 Y31.37
X279.277 Y32.342
X279.132 Y33.218
X279.129 Y33.231
X279.045 Y33.417
X278.918 Y33.576
X278.754 Y33.698
X278.565 Y33.774
X278.363 Y33.8
X273.924
G3 X273.155 Y33.076 Z-4.816 I0.028 J-0.8
G1 X273.145 Y32.974 Z-4.8
X272.297 Y24.075
X272.294 Y24.027
G3 X273.065 Y23.2 Z-5. I0.8 J-0.027
G1 X277.383
X277.98 Y23.23
X278.524 Y23.329
X279.094 Y23.512
X279.724 Y23.81
X280.369 Y24.225
X281.052 Y24.804
X281.704 Y25.521
X282.303 Y26.383
X282.794 Y27.311
X283.185 Y28.286
X283.471 Y29.296
X283.658 Y30.329
X283.747 Y31.375
X283.715 Y32.346
X283.571 Y33.222
X283.567 Y33.232
X283.484 Y33.418
X283.356 Y33.577
X283.193 Y33.698
X283.004 Y33.774
X282.802 Y33.8
X278.363
G3 X277.595 Y33.087 Z-4.818 I0.028 J-0.8
G1 X277.583 Y32.974 Z-4.8
X276.616 Y24.086
X276.612 Y24.027
G3 X277.383 Y23.2 Z-5. I0.8 J-0.027
G1 X281.941
X282.415 Y23.224
X282.959 Y23.323
X283.53 Y23.507
X284.16 Y23.804
X284.806 Y24.22
X285.49 Y24.799
X286.142 Y25.517
X286.741 Y26.379
X287.232 Y27.307
X287.623 Y28.281
X287.91 Y29.291
X288.097 Y30.324
X288.186 Y31.37
X288.155 Y32.342
X288.01 Y33.218
X288.007 Y33.231
X287.923 Y33.417
X287.796 Y33.576
X287.632 Y33.698
X287.443 Y33.774
X287.241 Y33.8
X282.802
G3 X282.033 Y33.077 Z-4.816 I0.028 J-0.8
G1 X282.023 Y32.974 Z-4.8
X281.173 Y24.076
X281.169 Y24.027
G3 X281.941 Y23.2 Z-5. I0.8 J-0.027
G1 X286.259
X286.858 Y23.23
X287.402 Y23.329
X287.972 Y23.512
X288.602 Y23.81
X289.247 Y24.225
X289.931 Y24.804
X290.582 Y25.521
X291.181 Y26.383
X291.672 Y27.312
X292.063 Y28.286
X292.349 Y29.296
X292.536 Y30.329
X292.625 Y31.375
X292.593 Y32.346
X292.449 Y33.222
X292.445 Y33.232
X292.362 Y33.418
X292.234 Y33.577
X292.071 Y33.698
X291.882 Y33.774
X291.68 Y33.8
X287.241
G3 X286.473 Y33.087 Z-4.818 I0.028 J-0.8
G1 X286.461 Y32.974 Z-4.8
X285.491 Y24.086
X285.487 Y24.027
G3 X286.259 Y23.2 Z-5. I0.8 J-0.027
G1 X290.817
X291.293 Y23.224
X291.837 Y23.323
X292.408 Y23.507
X293.038 Y23.805
X293.684 Y24.22
X294.368 Y24.8
X295.02 Y25.517
X295.619 Y26.379
X296.11 Y27.307
X296.501 Y28.282
X296.788 Y29.291
X296.975 Y30.324
X297.064 Y31.37
X297.033 Y32.342
X296.888 Y33.219
X296.885 Y33.231
X296.801 Y33.417
X296.674 Y33.576
X296.51 Y33.698
X296.321 Y33.774
X296.119 Y33.8
X291.68
G3 X290.911 Y33.077 Z-4.817 I0.028 J-0.8
G1 X290.901 Y32.974 Z-4.8
X290.048 Y24.076
X290.045 Y24.027
G3 X290.817 Y23.2 Z-5. I0.8 J-0.027
G1 X295.134
X295.736 Y23.23
X296.28 Y23.329
X296.85 Y23.513
X297.48 Y23.811
X298.125 Y24.225
X298.809 Y24.804
X299.46 Y25.522
X300.059 Y26.384
X300.55 Y27.312
X300.941 Y28.286
X301.227 Y29.296
X301.414 Y30.329
X301.503 Y31.375
X301.471 Y32.346
X301.355 Y33.05
X301.294 Y33.25
X301.184 Y33.428
X301.031 Y33.57
X300.847 Y33.669
X300.644 Y33.716
X300.412 Y33.739
X299.692 Y33.791
X299.452 Y33.8
X296.119
G3 X295.351 Y33.087 Z-4.818 I0.028 J-0.8
G1 X295.339 Y32.974 Z-4.8
X294.367 Y24.086
X294.363 Y24.027
G3 X295.134 Y23.2 Z-5. I0.8 J-0.027
G1 X299.452
X299.692 Y23.207
X300.382 Y23.276
X300.947 Y23.409
X301.527 Y23.628
X302.179 Y23.977
X302.822 Y24.438
X303.499 Y25.072
X304.165 Y25.883
X304.72 Y26.774
X305.166 Y27.724
X305.186 Y27.783
X305.205 Y27.843
X305.218 Y27.905
X305.227 Y27.967
G3 X304.601 Y28.28 Z-4.858 I-0.379 J0.024
G1 X304.322 Y28.042 Z-4.8
X299.7 Y24.092
X299.447 Y23.876 Z-4.853
G3 X299.692 Y23.207 Z-5. I0.247 J-0.289
G1 X299.932 Y23.219
X300.172 Y23.237
X300.949 Y23.314
X301.04 Y23.328
X301.131 Y23.353
X301.851 Y23.571
X301.971 Y23.608
X302.091 Y23.66
X302.81 Y24.044
X302.93 Y24.114
X303.05 Y24.206
X303.53 Y24.6
X303.711 Y24.752
X303.77 Y24.812
X304.311 Y25.47
X304.4 Y25.59
X304.467 Y25.71
X304.85 Y26.429
X304.935 Y26.669
X305.153 Y27.387
X305.18 Y27.507
X305.193 Y27.627
X305.264 Y28.346
X305.275 Y28.466
X305.271 Y28.586
X305.2 Y29.304
X305.171 Y29.544
X305.101 Y29.784
X304.956 Y30.263
X304.881 Y30.503
X304.759 Y30.742
X304.49 Y31.247
X304.366 Y31.461
X304.171 Y31.701
X303.77 Y32.188
X303.53 Y32.4
X303.05 Y32.794
X302.912 Y32.899
X302.81 Y32.956
X302.091 Y33.34
X302.007 Y33.378
X301.851 Y33.429
X301.131 Y33.647
X301.011 Y33.678
X300.891 Y33.692
X300.644 Y33.716
X300.594 Y33.718 Z-4.998
X300.593
X300.509 Y33.704 Z-4.988
X300.426 Y33.691 Z-4.968
X300.345 Y33.678 Z-4.939
X300.264 Y33.637 Z-4.894
X300.19 Y33.599 Z-4.837
X300.122 Y33.564 Z-4.77
X300.073 Y33.517 Z-4.693
X300.033 Y33.477 Z-4.608
X300. Y33.445 Z-4.516
X299.977 Y33.422 Z-4.418
X299.962 Y33.408 Z-4.318
X299.958 Y33.403 Z-4.215
G0 Z5.
X166.982 Y30.085
Z-2.5
G3 X161.495 Y31.857 Z-2.955 I-3.542 J-1.585 F3500.
X160.308 Y26.226 Z-3.409 I1.942 J-3.35
X166.02 Y25.634 Z-3.864 I3.123 J2.276
X166.013 Y31.365 Z-4.318 I-2.584 J2.862
X160.325 Y30.761 Z-4.773 I-2.572 J-2.863
X161.517 Y25.179 Z-5.227 I3.109 J-2.254
X166.933 Y26.944 Z-5.682 I1.913 J3.321
X164.618 Y32.135 Z-6.136 I-3.495 J1.553
X159.707 Y29.297 Z-6.591 I-1.178 J-3.63
X163.035 Y24.718 Z-7.045 I3.726 J-0.791
X167.232 Y28.498 Z-7.5 I0.397 J3.78
X159.631 I-3.801 J0.
X167.232 I3.801 J0.
G1 X167.235 Y28.629
X167.262 Y28.757
X167.315 Y28.878
X167.914 Y29.739
X168.075 Y29.948
X168.224 Y30.205
X168.352 Y30.512
X168.448 Y30.867
X168.502 Y31.267
X168.504 Y31.708
X168.444 Y32.183
X168.312 Y32.684
X168.101 Y33.199
X167.989 Y33.396
X167.862 Y33.563
X167.696 Y33.692
X167.502 Y33.772
X167.294 Y33.8
X162.961
X162.241 Y33.798
X162.002 Y33.78
X161.042 Y33.685
X160.922 Y33.663
X160.771 Y33.618
X160.082 Y33.409
X159.992 Y33.378
X159.843 Y33.304
X159.123 Y32.92
X159.088 Y32.899
X158.883 Y32.739
X158.403 Y32.346
X158.223 Y32.18
X157.684 Y31.523
X157.635 Y31.461
X157.497 Y31.221
X157.204 Y30.674
X157.12 Y30.503
X157.044 Y30.263
X156.899 Y29.784
X156.829 Y29.544
X156.8 Y29.304
X156.729 Y28.586
X156.725 Y28.466
X156.736 Y28.346
X156.807 Y27.627
X156.82 Y27.507
X156.847 Y27.387
X157.065 Y26.669
X157.15 Y26.429
X157.533 Y25.71
X157.598 Y25.594
X157.689 Y25.47
X158.163 Y24.892
X158.288 Y24.752
X158.403 Y24.654
X158.883 Y24.261
X159.123 Y24.08
X159.843 Y23.696
X159.963 Y23.634
X160.082 Y23.591
X160.802 Y23.373
X160.922 Y23.337
X161.042 Y23.315
X162.002 Y23.22
X162.241 Y23.202
X163.201 Y23.2
X166.079
X166.729 Y23.232
X167.236 Y23.325
X167.766 Y23.495
X168.304 Y23.75
X168.839 Y24.094
X169.64 Y24.773
X170.387 Y25.511
X171.06 Y26.316
X171.641 Y27.19
X172.116 Y28.127
X172.471 Y29.115
X172.698 Y30.139
X172.794 Y31.185
X172.759 Y32.208
X172.605 Y33.137
X172.576 Y33.233
X172.492 Y33.418
X172.364 Y33.577
X172.201 Y33.698
X172.012 Y33.774
X171.81 Y33.8
X167.294
G3 X166.529 Y33.107 Z-7.321 I0.028 J-0.8
G1 X166.511 Y32.974 Z-7.3
X165.315 Y24.106
X165.308 Y24.027
G3 X166.079 Y23.2 Z-7.5 I0.8 J-0.027
G1 X170.637
X171.3 Y23.233
X171.876 Y23.338
X172.497 Y23.538
X173.172 Y23.857
X173.853 Y24.295
X174.549 Y24.885
X175.24 Y25.644
X175.839 Y26.506
X176.323 Y27.438
X176.702 Y28.416
X176.978 Y29.429
X177.147 Y30.465
X177.215 Y31.513
X177.163 Y32.474
X177.038 Y33.147
X176.968 Y33.356
X176.843 Y33.539
X176.673 Y33.68
X176.47 Y33.769
X176.251 Y33.8
X171.81
G3 X171.045 Y33.104 Z-7.321 I0.028 J-0.8
G1 X171.028 Y32.974 Z-7.3
X169.872 Y24.103
X169.866 Y24.027
G3 X170.637 Y23.2 Z-7.5 I0.8 J-0.027
G1 X175.435
X175.882 Y23.222
X176.421 Y23.321
X177.008 Y23.51
X177.627 Y23.802
X178.286 Y24.226
X178.96 Y24.797
X179.616 Y25.518
X180.215 Y26.38
X180.706 Y27.308
X181.094 Y28.283
X181.378 Y29.294
X181.564 Y30.327
X181.648 Y31.373
X181.614 Y32.354
X181.47 Y33.216
X181.465 Y33.233
X181.381 Y33.419
X181.253 Y33.577
X181.09 Y33.698
X180.901 Y33.774
X180.699 Y33.8
X176.251
G3 X175.483 Y33.073 Z-7.316 I0.028 J-0.8
G1 X175.474 Y32.974 Z-7.3
X174.666 Y24.072
X174.663 Y24.027
G3 X175.435 Y23.2 Z-7.5 I0.8 J-0.027
G1 X179.753
X180.331 Y23.229
X180.875 Y23.328
X181.444 Y23.511
X182.072 Y23.808
X182.716 Y24.222
X183.397 Y24.799
X184.049 Y25.517
X184.648 Y26.379
X185.138 Y27.307
X185.528 Y28.282
X185.813 Y29.292
X185.999 Y30.325
X186.088 Y31.371
X186.055 Y32.345
X185.91 Y33.222
X185.907 Y33.232
X185.823 Y33.418
X185.696 Y33.577
X185.532 Y33.698
X185.343 Y33.774
X185.141 Y33.8
X180.699
G3 X179.932 Y33.084 Z-7.318 I0.028 J-0.8
G1 X179.92 Y32.974 Z-7.3
X178.985 Y24.083
X178.981 Y24.027
G3 X179.753 Y23.2 Z-7.5 I0.8 J-0.027
G1 X184.31
X184.761 Y23.223
X185.305 Y23.322
X185.875 Y23.505
X186.504 Y23.803
X187.149 Y24.218
X187.832 Y24.796
X188.484 Y25.513
X189.083 Y26.375
X189.573 Y27.303
X189.964 Y28.277
X190.251 Y29.287
X190.437 Y30.32
X190.527 Y31.366
X190.495 Y32.339
X190.351 Y33.217
X190.347 Y33.231
X190.263 Y33.417
X190.136 Y33.576
X189.972 Y33.698
X189.783 Y33.774
X189.581 Y33.8
X185.141
G3 X184.372 Y33.074 Z-7.316 I0.028 J-0.8
G1 X184.363 Y32.974 Z-7.3
X183.542 Y24.073
X183.539 Y24.027
G3 X184.31 Y23.2 Z-7.5 I0.8 J-0.027
G1 X188.628
X189.201 Y23.229
X189.745 Y23.328
X190.314 Y23.511
X190.945 Y23.809
X191.589 Y24.223
X192.272 Y24.802
X192.924 Y25.519
X193.522 Y26.381
X194.013 Y27.309
X194.404 Y28.283
X194.69 Y29.293
X194.877 Y30.326
X194.966 Y31.372
X194.934 Y32.344
X194.79 Y33.22
X194.786 Y33.232
X194.703 Y33.418
X194.575 Y33.576
X194.411 Y33.698
X194.222 Y33.774
X194.02 Y33.8
X189.581
G3 X188.813 Y33.085 Z-7.318 I0.028 J-0.8
G1 X188.802 Y32.974 Z-7.3
X187.86 Y24.084
X187.856 Y24.027
G3 X188.628 Y23.2 Z-7.5 I0.8 J-0.027
G1 X193.186
X193.634 Y23.222
X194.178 Y23.322
X194.749 Y23.505
X195.379 Y23.803
X196.025 Y24.219
X196.709 Y24.798
X197.361 Y25.515
X197.96 Y26.378
X198.451 Y27.306
X198.842 Y28.28
X199.129 Y29.29
X199.315 Y30.323
X199.405 Y31.368
X199.374 Y32.341
X199.23 Y33.218
X199.225 Y33.231
X199.142 Y33.417
X199.014 Y33.576
X198.851 Y33.698
X198.662 Y33.774
X198.46 Y33.8
X194.02
G3 X193.252 Y33.074 Z-7.316 I0.028 J-0.8
G1 X193.242 Y32.974 Z-7.3
X192.417 Y24.073
X192.414 Y24.027
G3 X193.186 Y23.2 Z-7.5 I0.8 J-0.027
G1 X197.504
X198.077 Y23.229
X198.621 Y23.328
X199.191 Y23.511
X199.821 Y23.809
X200.466 Y24.224
X201.15 Y24.803
X201.801 Y25.52
X202.4 Y26.382
X202.891 Y27.31
X203.282 Y28.285
X203.568 Y29.294
X203.755 Y30.327
X203.844 Y31.373
X203.812 Y32.345
X203.668 Y33.221
X203.664 Y33.232
X203.581 Y33.418
X203.453 Y33.576
X203.29 Y33.698
X203.101 Y33.774
X202.899 Y33.8
X198.46
G3 X197.692 Y33.085 Z-7.318 I0.028 J-0.8
G1 X197.68 Y32.974 Z-7.3
X196.736 Y24.084
X196.732 Y24.027
G3 X197.504 Y23.2 Z-7.5 I0.8 J-0.027
G1 X202.061
X202.512 Y23.223
X203.056 Y23.322
X203.627 Y23.505
X204.257 Y23.803
X204.903 Y24.219
X205.587 Y24.798
X206.239 Y25.516
X206.838 Y26.378
X207.329 Y27.306
X207.72 Y28.28
X208.007 Y29.29
X208.194 Y30.323
X208.283 Y31.369
X208.252 Y32.341
X208.108 Y33.218
X208.104 Y33.231
X208.02 Y33.417
X207.893 Y33.576
X207.729 Y33.698
X207.54 Y33.774
X207.338 Y33.8
X202.899
G3 X202.13 Y33.075 Z-7.316 I0.028 J-0.8
G1 X202.121 Y32.974 Z-7.3
X201.293 Y24.074
X201.29 Y24.027
G3 X202.061 Y23.2 Z-7.5 I0.8 J-0.027
G1 X206.379
X206.955 Y23.229
X207.499 Y23.328
X208.069 Y23.511
X208.699 Y23.809
X209.344 Y24.224
X210.028 Y24.803
X210.68 Y25.52
X211.279 Y26.382
X211.769 Y27.31
X212.16 Y28.285
X212.447 Y29.295
X212.633 Y30.328
X212.722 Y31.374
X212.69 Y32.345
X212.546 Y33.221
X212.543 Y33.232
X212.459 Y33.418
X212.332 Y33.576
X212.168 Y33.698
X211.979 Y33.774
X211.777 Y33.8
X207.338
G3 X206.57 Y33.085 Z-7.318 I0.028 J-0.8
G1 X206.558 Y32.974 Z-7.3
X205.612 Y24.084
X205.608 Y24.027
G3 X206.379 Y23.2 Z-7.5 I0.8 J-0.027
G1 X210.937
X211.39 Y23.223
X211.934 Y23.322
X212.505 Y23.506
X213.135 Y23.803
X213.781 Y24.219
X214.465 Y24.798
X215.118 Y25.516
X215.717 Y26.378
X216.207 Y27.306
X216.598 Y28.281
X216.885 Y29.29
X217.072 Y30.323
X217.162 Y31.369
X217.13 Y32.341
X216.986 Y33.218
X216.982 Y33.231
X216.898 Y33.417
X216.771 Y33.576
X216.607 Y33.698
X216.418 Y33.774
X216.216 Y33.8
X211.777
G3 X211.008 Y33.075 Z-7.316 I0.028 J-0.8
G1 X210.999 Y32.974 Z-7.3
X210.168 Y24.074
X210.165 Y24.027
G3 X210.937 Y23.2 Z-7.5 I0.8 J-0.027
G1 X215.255
X215.833 Y23.229
X216.377 Y23.328
X216.947 Y23.511
X217.578 Y23.809
X218.222 Y24.224
X218.906 Y24.803
X219.558 Y25.52
X220.157 Y26.383
X220.647 Y27.311
X221.038 Y28.285
X221.325 Y29.295
X221.511 Y30.328
X221.601 Y31.374
X221.569 Y32.345
X221.424 Y33.221
X221.421 Y33.232
X221.337 Y33.418
X221.21 Y33.576
X221.046 Y33.698
X220.857 Y33.774
X220.655 Y33.8
X216.216
G3 X215.448 Y33.085 Z-7.318 I0.028 J-0.8
G1 X215.437 Y32.974 Z-7.3
X214.487 Y24.084
X214.483 Y24.027
G3 X215.255 Y23.2 Z-7.5 I0.8 J-0.027
G1 X219.812
X220.268 Y23.223
X220.812 Y23.322
X221.383 Y23.506
X222.013 Y23.804
X222.659 Y24.219
X223.343 Y24.799
X223.996 Y25.516
X224.595 Y26.378
X225.085 Y27.306
X225.476 Y28.281
X225.763 Y29.29
X225.95 Y30.323
X226.04 Y31.369
X226.008 Y32.342
X225.864 Y33.218
X225.86 Y33.231
X225.777 Y33.417
X225.649 Y33.576
X225.485 Y33.698
X225.296 Y33.774
X225.094 Y33.8
X220.655
G3 X219.887 Y33.075 Z-7.316 I0.028 J-0.8
G1 X219.877 Y32.974 Z-7.3
X219.044 Y24.074
X219.041 Y24.027
G3 X219.812 Y23.2 Z-7.5 I0.8 J-0.027
G1 X224.13
X224.712 Y23.229
X225.256 Y23.328
X225.825 Y23.512
X226.456 Y23.81
X227.1 Y24.224
X227.784 Y24.803
X228.436 Y25.521
X229.035 Y26.383
X229.525 Y27.311
X229.916 Y28.285
X230.203 Y29.295
X230.389 Y30.328
X230.479 Y31.374
X230.447 Y32.345
X230.302 Y33.221
X230.299 Y33.232
X230.216 Y33.418
X230.088 Y33.576
X229.924 Y33.698
X229.735 Y33.774
X229.533 Y33.8
X225.094
G3 X224.327 Y33.086 Z-7.318 I0.028 J-0.8
G1 X224.315 Y32.974 Z-7.3
X223.363 Y24.085
X223.359 Y24.027
G3 X224.13 Y23.2 Z-7.5 I0.8 J-0.027
G1 X228.688
X229.146 Y23.223
X229.69 Y23.322
X230.261 Y23.506
X230.892 Y23.804
X231.537 Y24.22
X232.221 Y24.799
X232.874 Y25.516
X233.473 Y26.378
X233.963 Y27.307
X234.354 Y28.281
X234.641 Y29.291
X234.828 Y30.323
X234.918 Y31.369
X234.886 Y32.342
X234.742 Y33.218
X234.738 Y33.231
X234.655 Y33.417
X234.527 Y33.576
X234.364 Y33.698
X234.174 Y33.774
X233.972 Y33.8
X229.533
G3 X228.765 Y33.075 Z-7.316 I0.028 J-0.8
G1 X228.755 Y32.974 Z-7.3
X227.919 Y24.074
X227.916 Y24.027
G3 X228.688 Y23.2 Z-7.5 I0.8 J-0.027
G1 X233.006
X233.59 Y23.229
X234.134 Y23.329
X234.703 Y23.512
X235.334 Y23.81
X235.978 Y24.225
X236.662 Y24.803
X237.314 Y25.521
X237.913 Y26.383
X238.404 Y27.311
X238.794 Y28.285
X239.081 Y29.295
X239.267 Y30.328
X239.357 Y31.374
X239.325 Y32.345
X239.18 Y33.221
X239.177 Y33.232
X239.094 Y33.418
X238.966 Y33.577
X238.802 Y33.698
X238.614 Y33.774
X238.411 Y33.8
X233.972
G3 X233.205 Y33.086 Z-7.318 I0.028 J-0.8
G1 X233.193 Y32.974 Z-7.3
X232.238 Y24.085
X232.234 Y24.027
G3 X233.006 Y23.2 Z-7.5 I0.8 J-0.027
G1 X237.563
X238.024 Y23.223
X238.568 Y23.322
X239.139 Y23.506
X239.77 Y23.804
X240.416 Y24.22
X241.1 Y24.799
X241.752 Y25.517
X242.351 Y26.379
X242.842 Y27.307
X243.232 Y28.281
X243.519 Y29.291
X243.706 Y30.324
X243.796 Y31.37
X243.764 Y32.342
X243.62 Y33.218
X243.616 Y33.231
X243.533 Y33.417
X243.405 Y33.576
X243.242 Y33.698
X243.053 Y33.774
X242.85 Y33.8
X238.411
G3 X237.643 Y33.076 Z-7.316 I0.028 J-0.8
G1 X237.633 Y32.974 Z-7.3
X236.795 Y24.075
X236.792 Y24.027
G3 X237.563 Y23.2 Z-7.5 I0.8 J-0.027
G1 X241.881
X242.468 Y23.229
X243.012 Y23.329
X243.581 Y23.512
X244.212 Y23.81
X244.856 Y24.225
X245.54 Y24.804
X246.192 Y25.521
X246.791 Y26.383
X247.282 Y27.311
X247.672 Y28.285
X247.959 Y29.295
X248.146 Y30.328
X248.235 Y31.374
X248.203 Y32.345
X248.058 Y33.221
X248.055 Y33.232
X247.972 Y33.418
X247.844 Y33.577
X247.681 Y33.698
X247.492 Y33.774
X247.29 Y33.8
X242.85
G3 X242.083 Y33.086 Z-7.318 I0.028 J-0.8
G1 X242.071 Y32.974 Z-7.3
X241.114 Y24.085
X241.11 Y24.027
G3 X241.881 Y23.2 Z-7.5 I0.8 J-0.027
G1 X246.439
X246.902 Y23.223
X247.446 Y23.322
X248.017 Y23.506
X248.648 Y23.804
X249.294 Y24.22
X249.978 Y24.799
X250.63 Y25.517
X251.229 Y26.379
X251.72 Y27.307
X252.111 Y28.281
X252.397 Y29.291
X252.584 Y30.324
X252.674 Y31.37
X252.642 Y32.342
X252.498 Y33.218
X252.494 Y33.231
X252.411 Y33.417
X252.283 Y33.576
X252.12 Y33.698
X251.931 Y33.774
X251.729 Y33.8
X247.29
G3 X246.521 Y33.076 Z-7.316 I0.028 J-0.8
G1 X246.511 Y32.974 Z-7.3
X245.67 Y24.075
X245.667 Y24.027
G3 X246.439 Y23.2 Z-7.5 I0.8 J-0.027
G1 X250.757
X251.346 Y23.229
X251.89 Y23.329
X252.46 Y23.512
X253.09 Y23.81
X253.735 Y24.225
X254.418 Y24.804
X255.07 Y25.521
X255.669 Y26.383
X256.16 Y27.311
X256.55 Y28.285
X256.837 Y29.295
X257.024 Y30.328
X257.113 Y31.374
X257.081 Y32.346
X256.936 Y33.221
X256.933 Y33.232
X256.85 Y33.418
X256.722 Y33.577
X256.559 Y33.698
X256.37 Y33.774
X256.168 Y33.8
X251.729
G3 X250.961 Y33.086 Z-7.318 I0.028 J-0.8
G1 X250.949 Y32.974 Z-7.3
X249.989 Y24.085
X249.985 Y24.027
G3 X250.757 Y23.2 Z-7.5 I0.8 J-0.027
G1 X255.314
X255.781 Y23.223
X256.324 Y23.323
X256.896 Y23.506
X257.526 Y23.804
X258.172 Y24.22
X258.856 Y24.799
X259.508 Y25.517
X260.107 Y26.379
X260.598 Y27.307
X260.989 Y28.281
X261.276 Y29.291
X261.462 Y30.324
X261.552 Y31.37
X261.521 Y32.342
X261.376 Y33.218
X261.372 Y33.231
X261.289 Y33.417
X261.161 Y33.576
X260.998 Y33.698
X260.809 Y33.774
X260.607 Y33.8
X256.168
G3 X255.399 Y33.076 Z-7.316 I0.028 J-0.8
G1 X255.389 Y32.974 Z-7.3
X254.546 Y24.075
X254.543 Y24.027
G3 X255.314 Y23.2 Z-7.5 I0.8 J-0.027
G1 X259.632
X260.224 Y23.23
X260.768 Y23.329
X261.338 Y23.512
X261.968 Y23.81
X262.613 Y24.225
X263.296 Y24.804
X263.948 Y25.521
X264.547 Y26.383
X265.038 Y27.311
X265.428 Y28.286
X265.715 Y29.295
X265.902 Y30.328
X265.991 Y31.374
X265.959 Y32.346
X265.815 Y33.221
X265.811 Y33.232
X265.728 Y33.418
X265.6 Y33.577
X265.437 Y33.698
X265.248 Y33.774
X265.046 Y33.8
X260.607
G3 X259.839 Y33.087 Z-7.318 I0.028 J-0.8
G1 X259.827 Y32.974 Z-7.3
X258.865 Y24.086
X258.861 Y24.027
G3 X259.632 Y23.2 Z-7.5 I0.8 J-0.027
G1 X264.19
X264.659 Y23.223
X265.203 Y23.323
X265.774 Y23.506
X266.404 Y23.804
X267.05 Y24.22
X267.734 Y24.799
X268.386 Y25.517
X268.985 Y26.379
X269.476 Y27.307
X269.867 Y28.281
X270.154 Y29.291
X270.34 Y30.324
X270.43 Y31.37
X270.399 Y32.342
X270.254 Y33.218
X270.25 Y33.231
X270.167 Y33.417
X270.039 Y33.576
X269.876 Y33.698
X269.687 Y33.774
X269.485 Y33.8
X265.046
G3 X264.277 Y33.076 Z-7.316 I0.028 J-0.8
G1 X264.267 Y32.974 Z-7.3
X263.421 Y24.075
X263.418 Y24.027
G3 X264.19 Y23.2 Z-7.5 I0.8 J-0.027
G1 X268.508
X269.102 Y23.23
X269.646 Y23.329
X270.216 Y23.512
X270.846 Y23.81
X271.491 Y24.225
X272.174 Y24.804
X272.826 Y25.521
X273.425 Y26.383
X273.916 Y27.311
X274.307 Y28.286
X274.593 Y29.295
X274.78 Y30.329
X274.869 Y31.374
X274.837 Y32.346
X274.693 Y33.222
X274.689 Y33.232
X274.606 Y33.418
X274.478 Y33.577
X274.315 Y33.698
X274.126 Y33.774
X273.924 Y33.8
X269.485
G3 X268.717 Y33.087 Z-7.318 I0.028 J-0.8
G1 X268.705 Y32.974 Z-7.3
X267.74 Y24.086
X267.736 Y24.027
G3 X268.508 Y23.2 Z-7.5 I0.8 J-0.027
G1 X273.065
X273.537 Y23.224
X274.081 Y23.323
X274.652 Y23.506
X275.282 Y23.804
X275.928 Y24.22
X276.612 Y24.799
X277.264 Y25.517
X277.863 Y26.379
X278.354 Y27.307
X278.745 Y28.281
X279.032 Y29.291
X279.219 Y30.324
X279.308 Y31.37
X279.277 Y32.342
X279.132 Y33.218
X279.129 Y33.231
X279.045 Y33.417
X278.918 Y33.576
X278.754 Y33.698
X278.565 Y33.774
X278.363 Y33.8
X273.924
G3 X273.155 Y33.076 Z-7.316 I0.028 J-0.8
G1 X273.145 Y32.974 Z-7.3
X272.297 Y24.075
X272.294 Y24.027
G3 X273.065 Y23.2 Z-7.5 I0.8 J-0.027
G1 X277.383
X277.98 Y23.23
X278.524 Y23.329
X279.094 Y23.512
X279.724 Y23.81
X280.369 Y24.225
X281.052 Y24.804
X281.704 Y25.521
X282.303 Y26.383
X282.794 Y27.311
X283.185 Y28.286
X283.471 Y29.296
X283.658 Y30.329
X283.747 Y31.375
X283.715 Y32.346
X283.571 Y33.222
X283.567 Y33.232
X283.484 Y33.418
X283.356 Y33.577
X283.193 Y33.698
X283.004 Y33.774
X282.802 Y33.8
X278.363
G3 X277.595 Y33.087 Z-7.318 I0.028 J-0.8
G1 X277.583 Y32.974 Z-7.3
X276.616 Y24.086
X276.612 Y24.027
G3 X277.383 Y23.2 Z-7.5 I0.8 J-0.027
G1 X281.941
X282.415 Y23.224
X282.959 Y23.323
X283.53 Y23.507
X284.16 Y23.804
X284.806 Y24.22
X285.49 Y24.799
X286.142 Y25.517
X286.741 Y26.379
X287.232 Y27.307
X287.623 Y28.281
X287.91 Y29.291
X288.097 Y30.324
X288.186 Y31.37
X288.155 Y32.342
X288.01 Y33.218
X288.007 Y33.231
X287.923 Y33.417
X287.796 Y33.576
X287.632 Y33.698
X287.443 Y33.774
X287.241 Y33.8
X282.802
G3 X282.033 Y33.077 Z-7.316 I0.028 J-0.8
G1 X282.023 Y32.974 Z-7.3
X281.173 Y24.076
X281.169 Y24.027
G3 X281.941 Y23.2 Z-7.5 I0.8 J-0.027
G1 X286.259
X286.858 Y23.23
X287.402 Y23.329
X287.972 Y23.512
X288.602 Y23.81
X289.247 Y24.225
X289.931 Y24.804
X290.582 Y25.521
X291.181 Y26.383
X291.672 Y27.312
X292.063 Y28.286
X292.349 Y29.296
X292.536 Y30.329
X292.625 Y31.375
X292.593 Y32.346
X292.449 Y33.222
X292.445 Y33.232
X292.362 Y33.418
X292.234 Y33.577
X292.071 Y33.698
X291.882 Y33.774
X291.68 Y33.8
X287.241
G3 X286.473 Y33.087 Z-7.318 I0.028 J-0.8
G1 X286.461 Y32.974 Z-7.3
X285.491 Y24.086
X285.487 Y24.027
G3 X286.259 Y23.2 Z-7.5 I0.8 J-0.027
G1 X290.817
X291.293 Y23.224
X291.837 Y23.323
X292.408 Y23.507
X293.038 Y23.805
X293.684 Y24.22
X294.368 Y24.8
X295.02 Y25.517
X295.619 Y26.379
X296.11 Y27.307
X296.501 Y28.282
X296.788 Y29.291
X296.975 Y30.324
X297.064 Y31.37
X297.033 Y32.342
X296.888 Y33.219
X296.885 Y33.231
X296.801 Y33.417
X296.674 Y33.576
X296.51 Y33.698
X296.321 Y33.774
X296.119 Y33.8
X291.68
G3 X290.911 Y33.077 Z-7.317 I0.028 J-0.8
G1 X290.901 Y32.974 Z-7.3
X290.048 Y24.076
X290.045 Y24.027
G3 X290.817 Y23.2 Z-7.5 I0.8 J-0.027
G1 X295.134
X295.736 Y23.23
X296.28 Y23.329
X296.85 Y23.513
X297.48 Y23.811
X298.125 Y24.225
X298.809 Y24.804
X299.46 Y25.522
X300.059 Y26.384
X300.55 Y27.312
X300.941 Y28.286
X301.227 Y29.296
X301.414 Y30.329
X301.503 Y31.375
X301.471 Y32.346
X301.355 Y33.05
X301.294 Y33.25
X301.184 Y33.428
X301.031 Y33.57
X300.847 Y33.669
X300.644 Y33.716
X300.412 Y33.739
X299.692 Y33.791
X299.452 Y33.8
X296.119
G3 X295.351 Y33.087 Z-7.318 I0.028 J-0.8
G1 X295.339 Y32.974 Z-7.3
X294.367 Y24.086
X294.363 Y24.027
G3 X295.134 Y23.2 Z-7.5 I0.8 J-0.027
G1 X299.452
X299.692 Y23.207
X300.382 Y23.276
X300.947 Y23.409
X301.527 Y23.628
X302.179 Y23.977
X302.822 Y24.438
X303.499 Y25.072
X304.165 Y25.883
X304.72 Y26.774
X305.166 Y27.724
X305.186 Y27.783
X305.205 Y27.843
X305.218 Y27.905
X305.227 Y27.967
G3 X304.601 Y28.28 Z-7.358 I-0.379 J0.024
G1 X304.322 Y28.042 Z-7.3
X299.7 Y24.092
X299.447 Y23.876 Z-7.353
G3 X299.692 Y23.207 Z-7.5 I0.247 J-0.289
G1 X299.932 Y23.219
X300.172 Y23.237
X300.949 Y23.314
X301.04 Y23.328
X301.131 Y23.353
X301.851 Y23.571
X301.971 Y23.608
X302.091 Y23.66
X302.81 Y24.044
X302.93 Y24.114
X303.05 Y24.206
X303.53 Y24.6
X303.711 Y24.752
X303.77 Y24.812
X304.311 Y25.47
X304.4 Y25.59
X304.467 Y25.71
X304.85 Y26.429
X304.935 Y26.669
X305.153 Y27.387
X305.18 Y27.507
X305.193 Y27.627
X305.264 Y28.346
X305.275 Y28.466
X305.271 Y28.586
X305.2 Y29.304
X305.171 Y29.544
X305.101 Y29.784
X304.956 Y30.263
X304.881 Y30.503
X304.759 Y30.742
X304.49 Y31.247
X304.366 Y31.461
X304.171 Y31.701
X303.77 Y32.188
X303.53 Y32.4
X303.05 Y32.794
X302.912 Y32.899
X302.81 Y32.956
X302.091 Y33.34
X302.007 Y33.378
X301.851 Y33.429
X301.131 Y33.647
X301.011 Y33.678
X300.891 Y33.692
X300.644 Y33.716
X300.594 Y33.718 Z-7.498
X300.593
X300.509 Y33.704 Z-7.488
X300.426 Y33.691 Z-7.468
X300.345 Y33.678 Z-7.439
X300.264 Y33.637 Z-7.394
X300.19 Y33.599 Z-7.337
X300.122 Y33.564 Z-7.27
X300.073 Y33.517 Z-7.193
X300.033 Y33.477 Z-7.108
X300. Y33.445 Z-7.016
X299.977 Y33.422 Z-6.918
X299.962 Y33.408 Z-6.818
X299.958 Y33.403 Z-6.715
G0 Z5.
X166.982 Y30.085
Z-5.
G3 X161.495 Y31.857 Z-5.455 I-3.542 J-1.585 F3500.
X160.308 Y26.226 Z-5.909 I1.942 J-3.35
X166.02 Y25.634 Z-6.364 I3.123 J2.276
X166.013 Y31.365 Z-6.818 I-2.584 J2.862
X160.325 Y30.761 Z-7.273 I-2.572 J-2.863
X161.517 Y25.179 Z-7.727 I3.109 J-2.254
X166.933 Y26.944 Z-8.182 I1.913 J3.321
X164.618 Y32.135 Z-8.636 I-3.495 J1.553
X159.707 Y29.297 Z-9.091 I-1.178 J-3.63
X163.035 Y24.718 Z-9.545 I3.726 J-0.791
X167.232 Y28.498 Z-10. I0.397 J3.78
X159.631 I-3.801 J0.
X167.232 I3.801 J0.
G1 X167.235 Y28.629
X167.262 Y28.757
X167.315 Y28.878
X167.914 Y29.739
X168.075 Y29.948
X168.224 Y30.205
X168.352 Y30.512
X168.448 Y30.867
X168.502 Y31.267
X168.504 Y31.708
X168.444 Y32.183
X168.312 Y32.684
X168.101 Y33.199
X167.989 Y33.396
X167.862 Y33.563
X167.696 Y33.692
X167.502 Y33.772
X167.294 Y33.8
X162.961
X162.241 Y33.798
X162.002 Y33.78
X161.042 Y33.685
X160.922 Y33.663
X160.771 Y33.618
X160.082 Y33.409
X159.992 Y33.378
X159.843 Y33.304
X159.123 Y32.92
X159.088 Y32.899
X158.883 Y32.739
X158.403 Y32.346
X158.223 Y32.18
X157.684 Y31.523
X157.635 Y31.461
X157.497 Y31.221
X157.204 Y30.674
X157.12 Y30.503
X157.044 Y30.263
X156.899 Y29.784
X156.829 Y29.544
X156.8 Y29.304
X156.729 Y28.586
X156.725 Y28.466
X156.736 Y28.346
X156.807 Y27.627
X156.82 Y27.507
X156.847 Y27.387
X157.065 Y26.669
X157.15 Y26.429
X157.533 Y25.71
X157.598 Y25.594
X157.689 Y25.47
X158.163 Y24.892
X158.288 Y24.752
X158.403 Y24.654
X158.883 Y24.261
X159.123 Y24.08
X159.843 Y23.696
X159.963 Y23.634
X160.082 Y23.591
X160.802 Y23.373
X160.922 Y23.337
X161.042 Y23.315
X162.002 Y23.22
X162.241 Y23.202
X163.201 Y23.2
X166.079
X166.729 Y23.232
X167.236 Y23.325
X167.766 Y23.495
X168.304 Y23.75
X168.839 Y24.094
X169.64 Y24.773
X170.387 Y25.511
X171.06 Y26.316
X171.641 Y27.19
X172.116 Y28.127
X172.471 Y29.115
X172.698 Y30.139
X172.794 Y31.185
X172.759 Y32.208
X172.605 Y33.137
X172.576 Y33.233
X172.492 Y33.418
X172.364 Y33.577
X172.201 Y33.698
X172.012 Y33.774
X171.81 Y33.8
X167.294
G3 X166.529 Y33.107 Z-9.821 I0.028 J-0.8
G1 X166.511 Y32.974 Z-9.8
X165.315 Y24.106
X165.308 Y24.027
G3 X166.079 Y23.2 Z-10. I0.8 J-0.027
G1 X170.637
X171.3 Y23.233
X171.876 Y23.338
X172.497 Y23.538
X173.172 Y23.857
X173.853 Y24.295
X174.549 Y24.885
X175.24 Y25.644
X175.839 Y26.506
X176.323 Y27.438
X176.702 Y28.416
X176.978 Y29.429
X177.147 Y30.465
X177.215 Y31.513
X177.163 Y32.474
X177.038 Y33.147
X176.968 Y33.356
X176.843 Y33.539
X176.673 Y33.68
X176.47 Y33.769
X176.251 Y33.8
X171.81
G3 X171.045 Y33.104 Z-9.821 I0.028 J-0.8
G1 X171.028 Y32.974 Z-9.8
X169.872 Y24.103
X169.866 Y24.027
G3 X170.637 Y23.2 Z-10. I0.8 J-0.027
G1 X175.435
X175.882 Y23.222
X176.421 Y23.321
X177.008 Y23.51
X177.627 Y23.802
X178.286 Y24.226
X178.96 Y24.797
X179.616 Y25.518
X180.215 Y26.38
X180.706 Y27.308
X181.094 Y28.283
X181.378 Y29.294
X181.564 Y30.327
X181.648 Y31.373
X181.614 Y32.354
X181.47 Y33.216
X181.465 Y33.233
X181.381 Y33.419
X181.253 Y33.577
X181.09 Y33.698
X180.901 Y33.774
X180.699 Y33.8
X176.251
G3 X175.483 Y33.073 Z-9.816 I0.028 J-0.8
G1 X175.474 Y32.974 Z-9.8
X174.666 Y24.072
X174.663 Y24.027
G3 X175.435 Y23.2 Z-10. I0.8 J-0.027
G1 X179.753
X180.331 Y23.229
X180.875 Y23.328
X181.444 Y23.511
X182.072 Y23.808
X182.716 Y24.222
X183.397 Y24.799
X184.049 Y25.517
X184.648 Y26.379
X185.138 Y27.307
X185.528 Y28.282
X185.813 Y29.292
X185.999 Y30.325
X186.088 Y31.371
X186.055 Y32.345
X185.91 Y33.222
X185.907 Y33.232
X185.823 Y33.418
X185.696 Y33.577
X185.532 Y33.698
X185.343 Y33.774
X185.141 Y33.8
X180.699
G3 X179.932 Y33.084 Z-9.818 I0.028 J-0.8
G1 X179.92 Y32.974 Z-9.8
X178.985 Y24.083
X178.981 Y24.027
G3 X179.753 Y23.2 Z-10. I0.8 J-0.027
G1 X184.31
X184.761 Y23.223
X185.305 Y23.322
X185.875 Y23.505
X186.504 Y23.803
X187.149 Y24.218
X187.832 Y24.796
X188.484 Y25.513
X189.083 Y26.375
X189.573 Y27.303
X189.964 Y28.277
X190.251 Y29.287
X190.437 Y30.32
X190.527 Y31.366
X190.495 Y32.339
X190.351 Y33.217
X190.347 Y33.231
X190.263 Y33.417
X190.136 Y33.576
X189.972 Y33.698
X189.783 Y33.774
X189.581 Y33.8
X185.141
G3 X184.372 Y33.074 Z-9.816 I0.028 J-0.8
G1 X184.363 Y32.974 Z-9.8
X183.542 Y24.073
X183.539 Y24.027
G3 X184.31 Y23.2 Z-10. I0.8 J-0.027
G1 X188.628
X189.201 Y23.229
X189.745 Y23.328
X190.314 Y23.511
X190.945 Y23.809
X191.589 Y24.223
X192.272 Y24.802
X192.924 Y25.519
X193.522 Y26.381
X194.013 Y27.309
X194.404 Y28.283
X194.69 Y29.293
X194.877 Y30.326
X194.966 Y31.372
X194.934 Y32.344
X194.79 Y33.22
X194.786 Y33.232
X194.703 Y33.418
X194.575 Y33.576
X194.411 Y33.698
X194.222 Y33.774
X194.02 Y33.8
X189.581
G3 X188.813 Y33.085 Z-9.818 I0.028 J-0.8
G1 X188.802 Y32.974 Z-9.8
X187.86 Y24.084
X187.856 Y24.027
G3 X188.628 Y23.2 Z-10. I0.8 J-0.027
G1 X193.186
X193.634 Y23.222
X194.178 Y23.322
X194.749 Y23.505
X195.379 Y23.803
X196.025 Y24.219
X196.709 Y24.798
X197.361 Y25.515
X197.96 Y26.378
X198.451 Y27.306
X198.842 Y28.28
X199.129 Y29.29
X199.315 Y30.323
X199.405 Y31.368
X199.374 Y32.341
X199.23 Y33.218
X199.225 Y33.231
X199.142 Y33.417
X199.014 Y33.576
X198.851 Y33.698
X198.662 Y33.774
X198.46 Y33.8
X194.02
G3 X193.252 Y33.074 Z-9.816 I0.028 J-0.8
G1 X193.242 Y32.974 Z-9.8
X192.417 Y24.073
X192.414 Y24.027
G3 X193.186 Y23.2 Z-10. I0.8 J-0.027
G1 X197.504
X198.077 Y23.229
X198.621 Y23.328
X199.191 Y23.511
X199.821 Y23.809
X200.466 Y24.224
X201.15 Y24.803
X201.801 Y25.52
X202.4 Y26.382
X202.891 Y27.31
X203.282 Y28.285
X203.568 Y29.294
X203.755 Y30.327
X203.844 Y31.373
X203.812 Y32.345
X203.668 Y33.221
X203.664 Y33.232
X203.581 Y33.418
X203.453 Y33.576
X203.29 Y33.698
X203.101 Y33.774
X202.899 Y33.8
X198.46
G3 X197.692 Y33.085 Z-9.818 I0.028 J-0.8
G1 X197.68 Y32.974 Z-9.8
X196.736 Y24.084
X196.732 Y24.027
G3 X197.504 Y23.2 Z-10. I0.8 J-0.027
G1 X202.061
X202.512 Y23.223
X203.056 Y23.322
X203.627 Y23.505
X204.257 Y23.803
X204.903 Y24.219
X205.587 Y24.798
X206.239 Y25.516
X206.838 Y26.378
X207.329 Y27.306
X207.72 Y28.28
X208.007 Y29.29
X208.194 Y30.323
X208.283 Y31.369
X208.252 Y32.341
X208.108 Y33.218
X208.104 Y33.231
X208.02 Y33.417
X207.893 Y33.576
X207.729 Y33.698
X207.54 Y33.774
X207.338 Y33.8
X202.899
G3 X202.13 Y33.075 Z-9.816 I0.028 J-0.8
G1 X202.121 Y32.974 Z-9.8
X201.293 Y24.074
X201.29 Y24.027
G3 X202.061 Y23.2 Z-10. I0.8 J-0.027
G1 X206.379
X206.955 Y23.229
X207.499 Y23.328
X208.069 Y23.511
X208.699 Y23.809
X209.344 Y24.224
X210.028 Y24.803
X210.68 Y25.52
X211.279 Y26.382
X211.769 Y27.31
X212.16 Y28.285
X212.447 Y29.295
X212.633 Y30.328
X212.722 Y31.374
X212.69 Y32.345
X212.546 Y33.221
X212.543 Y33.232
X212.459 Y33.418
X212.332 Y33.576
X212.168 Y33.698
X211.979 Y33.774
X211.777 Y33.8
X207.338
G3 X206.57 Y33.085 Z-9.818 I0.028 J-0.8
G1 X206.558 Y32.974 Z-9.8
X205.612 Y24.084
X205.608 Y24.027
G3 X206.379 Y23.2 Z-10. I0.8 J-0.027
G1 X210.937
X211.39 Y23.223
X211.934 Y23.322
X212.505 Y23.506
X213.135 Y23.803
X213.781 Y24.219
X214.465 Y24.798
X215.118 Y25.516
X215.717 Y26.378
X216.207 Y27.306
X216.598 Y28.281
X216.885 Y29.29
X217.072 Y30.323
X217.162 Y31.369
X217.13 Y32.341
X216.986 Y33.218
X216.982 Y33.231
X216.898 Y33.417
X216.771 Y33.576
X216.607 Y33.698
X216.418 Y33.774
X216.216 Y33.8
X211.777
G3 X211.008 Y33.075 Z-9.816 I0.028 J-0.8
G1 X210.999 Y32.974 Z-9.8
X210.168 Y24.074
X210.165 Y24.027
G3 X210.937 Y23.2 Z-10. I0.8 J-0.027
G1 X215.255
X215.833 Y23.229
X216.377 Y23.328
X216.947 Y23.511
X217.578 Y23.809
X218.222 Y24.224
X218.906 Y24.803
X219.558 Y25.52
X220.157 Y26.383
X220.647 Y27.311
X221.038 Y28.285
X221.325 Y29.295
X221.511 Y30.328
X221.601 Y31.374
X221.569 Y32.345
X221.424 Y33.221
X221.421 Y33.232
X221.337 Y33.418
X221.21 Y33.576
X221.046 Y33.698
X220.857 Y33.774
X220.655 Y33.8
X216.216
G3 X215.448 Y33.085 Z-9.818 I0.028 J-0.8
G1 X215.437 Y32.974 Z-9.8
X214.487 Y24.084
X214.483 Y24.027
G3 X215.255 Y23.2 Z-10. I0.8 J-0.027
G1 X219.812
X220.268 Y23.223
X220.812 Y23.322
X221.383 Y23.506
X222.013 Y23.804
X222.659 Y24.219
X223.343 Y24.799
X223.996 Y25.516
X224.595 Y26.378
X225.085 Y27.306
X225.476 Y28.281
X225.763 Y29.29
X225.95 Y30.323
X226.04 Y31.369
X226.008 Y32.342
X225.864 Y33.218
X225.86 Y33.231
X225.777 Y33.417
X225.649 Y33.576
X225.485 Y33.698
X225.296 Y33.774
X225.094 Y33.8
X220.655
G3 X219.887 Y33.075 Z-9.816 I0.028 J-0.8
G1 X219.877 Y32.974 Z-9.8
X219.044 Y24.074
X219.041 Y24.027
G3 X219.812 Y23.2 Z-10. I0.8 J-0.027
G1 X224.13
X224.712 Y23.229
X225.256 Y23.328
X225.825 Y23.512
X226.456 Y23.81
X227.1 Y24.224
X227.784 Y24.803
X228.436 Y25.521
X229.035 Y26.383
X229.525 Y27.311
X229.916 Y28.285
X230.203 Y29.295
X230.389 Y30.328
X230.479 Y31.374
X230.447 Y32.345
X230.302 Y33.221
X230.299 Y33.232
X230.216 Y33.418
X230.088 Y33.576
X229.924 Y33.698
X229.735 Y33.774
X229.533 Y33.8
X225.094
G3 X224.327 Y33.086 Z-9.818 I0.028 J-0.8
G1 X224.315 Y32.974 Z-9.8
X223.363 Y24.085
X223.359 Y24.027
G3 X224.13 Y23.2 Z-10. I0.8 J-0.027
G1 X228.688
X229.146 Y23.223
X229.69 Y23.322
X230.261 Y23.506
X230.892 Y23.804
X231.537 Y24.22
X232.221 Y24.799
X232.874 Y25.516
X233.473 Y26.378
X233.963 Y27.307
X234.354 Y28.281
X234.641 Y29.291
X234.828 Y30.323
X234.918 Y31.369
X234.886 Y32.342
X234.742 Y33.218
X234.738 Y33.231
X234.655 Y33.417
X234.527 Y33.576
X234.364 Y33.698
X234.174 Y33.774
X233.972 Y33.8
X229.533
G3 X228.765 Y33.075 Z-9.816 I0.028 J-0.8
G1 X228.755 Y32.974 Z-9.8
X227.919 Y24.074
X227.916 Y24.027
G3 X228.688 Y23.2 Z-10. I0.8 J-0.027
G1 X233.006
X233.59 Y23.229
X234.134 Y23.329
X234.703 Y23.512
X235.334 Y23.81
X235.978 Y24.225
X236.662 Y24.803
X237.314 Y25.521
X237.913 Y26.383
X238.404 Y27.311
X238.794 Y28.285
X239.081 Y29.295
X239.267 Y30.328
X239.357 Y31.374
X239.325 Y32.345
X239.18 Y33.221
X239.177 Y33.232
X239.094 Y33.418
X238.966 Y33.577
X238.802 Y33.698
X238.614 Y33.774
X238.411 Y33.8
X233.972
G3 X233.205 Y33.086 Z-9.818 I0.028 J-0.8
G1 X233.193 Y32.974 Z-9.8
X232.238 Y24.085
X232.234 Y24.027
G3 X233.006 Y23.2 Z-10. I0.8 J-0.027
G1 X237.563
X238.024 Y23.223
X238.568 Y23.322
X239.139 Y23.506
X239.77 Y23.804
X240.416 Y24.22
X241.1 Y24.799
X241.752 Y25.517
X242.351 Y26.379
X242.842 Y27.307
X243.232 Y28.281
X243.519 Y29.291
X243.706 Y30.324
X243.796 Y31.37
X243.764 Y32.342
X243.62 Y33.218
X243.616 Y33.231
X243.533 Y33.417
X243.405 Y33.576
X243.242 Y33.698
X243.053 Y33.774
X242.85 Y33.8
X238.411
G3 X237.643 Y33.076 Z-9.816 I0.028 J-0.8
G1 X237.633 Y32.974 Z-9.8
X236.795 Y24.075
X236.792 Y24.027
G3 X237.563 Y23.2 Z-10. I0.8 J-0.027
G1 X241.881
X242.468 Y23.229
X243.012 Y23.329
X243.581 Y23.512
X244.212 Y23.81
X244.856 Y24.225
X245.54 Y24.804
X246.192 Y25.521
X246.791 Y26.383
X247.282 Y27.311
X247.672 Y28.285
X247.959 Y29.295
X248.146 Y30.328
X248.235 Y31.374
X248.203 Y32.345
X248.058 Y33.221
X248.055 Y33.232
X247.972 Y33.418
X247.844 Y33.577
X247.681 Y33.698
X247.492 Y33.774
X247.29 Y33.8
X242.85
G3 X242.083 Y33.086 Z-9.818 I0.028 J-0.8
G1 X242.071 Y32.974 Z-9.8
X241.114 Y24.085
X241.11 Y24.027
G3 X241.881 Y23.2 Z-10. I0.8 J-0.027
G1 X246.439
X246.902 Y23.223
X247.446 Y23.322
X248.017 Y23.506
X248.648 Y23.804
X249.294 Y24.22
X249.978 Y24.799
X250.63 Y25.517
X251.229 Y26.379
X251.72 Y27.307
X252.111 Y28.281
X252.397 Y29.291
X252.584 Y30.324
X252.674 Y31.37
X252.642 Y32.342
X252.498 Y33.218
X252.494 Y33.231
X252.411 Y33.417
X252.283 Y33.576
X252.12 Y33.698
X251.931 Y33.774
X251.729 Y33.8
X247.29
G3 X246.521 Y33.076 Z-9.816 I0.028 J-0.8
G1 X246.511 Y32.974 Z-9.8
X245.67 Y24.075
X245.667 Y24.027
G3 X246.439 Y23.2 Z-10. I0.8 J-0.027
G1 X250.757
X251.346 Y23.229
X251.89 Y23.329
X252.46 Y23.512
X253.09 Y23.81
X253.735 Y24.225
X254.418 Y24.804
X255.07 Y25.521
X255.669 Y26.383
X256.16 Y27.311
X256.55 Y28.285
X256.837 Y29.295
X257.024 Y30.328
X257.113 Y31.374
X257.081 Y32.346
X256.936 Y33.221
X256.933 Y33.232
X256.85 Y33.418
X256.722 Y33.577
X256.559 Y33.698
X256.37 Y33.774
X256.168 Y33.8
X251.729
G3 X250.961 Y33.086 Z-9.818 I0.028 J-0.8
G1 X250.949 Y32.974 Z-9.8
X249.989 Y24.085
X249.985 Y24.027
G3 X250.757 Y23.2 Z-10. I0.8 J-0.027
G1 X255.314
X255.781 Y23.223
X256.324 Y23.323
X256.896 Y23.506
X257.526 Y23.804
X258.172 Y24.22
X258.856 Y24.799
X259.508 Y25.517
X260.107 Y26.379
X260.598 Y27.307
X260.989 Y28.281
X261.276 Y29.291
X261.462 Y30.324
X261.552 Y31.37
X261.521 Y32.342
X261.376 Y33.218
X261.372 Y33.231
X261.289 Y33.417
X261.161 Y33.576
X260.998 Y33.698
X260.809 Y33.774
X260.607 Y33.8
X256.168
G3 X255.399 Y33.076 Z-9.816 I0.028 J-0.8
G1 X255.389 Y32.974 Z-9.8
X254.546 Y24.075
X254.543 Y24.027
G3 X255.314 Y23.2 Z-10. I0.8 J-0.027
G1 X259.632
X260.224 Y23.23
X260.768 Y23.329
X261.338 Y23.512
X261.968 Y23.81
X262.613 Y24.225
X263.296 Y24.804
X263.948 Y25.521
X264.547 Y26.383
X265.038 Y27.311
X265.428 Y28.286
X265.715 Y29.295
X265.902 Y30.328
X265.991 Y31.374
X265.959 Y32.346
X265.815 Y33.221
X265.811 Y33.232
X265.728 Y33.418
X265.6 Y33.577
X265.437 Y33.698
X265.248 Y33.774
X265.046 Y33.8
X260.607
G3 X259.839 Y33.087 Z-9.818 I0.028 J-0.8
G1 X259.827 Y32.974 Z-9.8
X258.865 Y24.086
X258.861 Y24.027
G3 X259.632 Y23.2 Z-10. I0.8 J-0.027
G1 X264.19
X264.659 Y23.223
X265.203 Y23.323
X265.774 Y23.506
X266.404 Y23.804
X267.05 Y24.22
X267.734 Y24.799
X268.386 Y25.517
X268.985 Y26.379
X269.476 Y27.307
X269.867 Y28.281
X270.154 Y29.291
X270.34 Y30.324
X270.43 Y31.37
X270.399 Y32.342
X270.254 Y33.218
X270.25 Y33.231
X270.167 Y33.417
X270.039 Y33.576
X269.876 Y33.698
X269.687 Y33.774
X269.485 Y33.8
X265.046
G3 X264.277 Y33.076 Z-9.816 I0.028 J-0.8
G1 X264.267 Y32.974 Z-9.8
X263.421 Y24.075
X263.418 Y24.027
G3 X264.19 Y23.2 Z-10. I0.8 J-0.027
G1 X268.508
X269.102 Y23.23
X269.646 Y23.329
X270.216 Y23.512
X270.846 Y23.81
X271.491 Y24.225
X272.174 Y24.804
X272.826 Y25.521
X273.425 Y26.383
X273.916 Y27.311
X274.307 Y28.286
X274.593 Y29.295
X274.78 Y30.329
X274.869 Y31.374
X274.837 Y32.346
X274.693 Y33.222
X274.689 Y33.232
X274.606 Y33.418
X274.478 Y33.577
X274.315 Y33.698
X274.126 Y33.774
X273.924 Y33.8
X269.485
G3 X268.717 Y33.087 Z-9.818 I0.028 J-0.8
G1 X268.705 Y32.974 Z-9.8
X267.74 Y24.086
X267.736 Y24.027
G3 X268.508 Y23.2 Z-10. I0.8 J-0.027
G1 X273.065
X273.537 Y23.224
X274.081 Y23.323
X274.652 Y23.506
X275.282 Y23.804
X275.928 Y24.22
X276.612 Y24.799
X277.264 Y25.517
X277.863 Y26.379
X278.354 Y27.307
X278.745 Y28.281
X279.032 Y29.291
X279.219 Y30.324
X279.308 Y31.37
X279.277 Y32.342
X279.132 Y33.218
X279.129 Y33.231
X279.045 Y33.417
X278.918 Y33.576
X278.754 Y33.698
X278.565 Y33.774
X278.363 Y33.8
X273.924
G3 X273.155 Y33.076 Z-9.816 I0.028 J-0.8
G1 X273.145 Y32.974 Z-9.8
X272.297 Y24.075
X272.294 Y24.027
G3 X273.065 Y23.2 Z-10. I0.8 J-0.027
G1 X277.383
X277.98 Y23.23
X278.524 Y23.329
X279.094 Y23.512
X279.724 Y23.81
X280.369 Y24.225
X281.052 Y24.804
X281.704 Y25.521
X282.303 Y26.383
X282.794 Y27.311
X283.185 Y28.286
X283.471 Y29.296
X283.658 Y30.329
X283.747 Y31.375
X283.715 Y32.346
X283.571 Y33.222
X283.567 Y33.232
X283.484 Y33.418
X283.356 Y33.577
X283.193 Y33.698
X283.004 Y33.774
X282.802 Y33.8
X278.363
G3 X277.595 Y33.087 Z-9.818 I0.028 J-0.8
G1 X277.583 Y32.974 Z-9.8
X276.616 Y24.086
X276.612 Y24.027
G3 X277.383 Y23.2 Z-10. I0.8 J-0.027
G1 X281.941
X282.415 Y23.224
X282.959 Y23.323
X283.53 Y23.507
X284.16 Y23.804
X284.806 Y24.22
X285.49 Y24.799
X286.142 Y25.517
X286.741 Y26.379
X287.232 Y27.307
X287.623 Y28.281
X287.91 Y29.291
X288.097 Y30.324
X288.186 Y31.37
X288.155 Y32.342
X288.01 Y33.218
X288.007 Y33.231
X287.923 Y33.417
X287.796 Y33.576
X287.632 Y33.698
X287.443 Y33.774
X287.241 Y33.8
X282.802
G3 X282.033 Y33.077 Z-9.816 I0.028 J-0.8
G1 X282.023 Y32.974 Z-9.8
X281.173 Y24.076
X281.169 Y24.027
G3 X281.941 Y23.2 Z-10. I0.8 J-0.027
G1 X286.259
X286.858 Y23.23
X287.402 Y23.329
X287.972 Y23.512
X288.602 Y23.81
X289.247 Y24.225
X289.931 Y24.804
X290.582 Y25.521
X291.181 Y26.383
X291.672 Y27.312
X292.063 Y28.286
X292.349 Y29.296
X292.536 Y30.329
X292.625 Y31.375
X292.593 Y32.346
X292.449 Y33.222
X292.445 Y33.232
X292.362 Y33.418
X292.234 Y33.577
X292.071 Y33.698
X291.882 Y33.774
X291.68 Y33.8
X287.241
G3 X286.473 Y33.087 Z-9.818 I0.028 J-0.8
G1 X286.461 Y32.974 Z-9.8
X285.491 Y24.086
X285.487 Y24.027
G3 X286.259 Y23.2 Z-10. I0.8 J-0.027
G1 X290.817
X291.293 Y23.224
X291.837 Y23.323
X292.408 Y23.507
X293.038 Y23.805
X293.684 Y24.22
X294.368 Y24.8
X295.02 Y25.517
X295.619 Y26.379
X296.11 Y27.307
X296.501 Y28.282
X296.788 Y29.291
X296.975 Y30.324
X297.064 Y31.37
X297.033 Y32.342
X296.888 Y33.219
X296.885 Y33.231
X296.801 Y33.417
X296.674 Y33.576
X296.51 Y33.698
X296.321 Y33.774
X296.119 Y33.8
X291.68
G3 X290.911 Y33.077 Z-9.817 I0.028 J-0.8
G1 X290.901 Y32.974 Z-9.8
X290.048 Y24.076
X290.045 Y24.027
G3 X290.817 Y23.2 Z-10. I0.8 J-0.027
G1 X295.134
X295.736 Y23.23
X296.28 Y23.329
X296.85 Y23.513
X297.48 Y23.811
X298.125 Y24.225
X298.809 Y24.804
X299.46 Y25.522
X300.059 Y26.384
X300.55 Y27.312
X300.941 Y28.286
X301.227 Y29.296
X301.414 Y30.329
X301.503 Y31.375
X301.471 Y32.346
X301.355 Y33.05
X301.294 Y33.25
X301.184 Y33.428
X301.031 Y33.57
X300.847 Y33.669
X300.644 Y33.716
X300.412 Y33.739
X299.692 Y33.791
X299.452 Y33.8
X296.119
G3 X295.351 Y33.087 Z-9.818 I0.028 J-0.8
G1 X295.339 Y32.974 Z-9.8
X294.367 Y24.086
X294.363 Y24.027
G3 X295.134 Y23.2 Z-10. I0.8 J-0.027
G1 X299.452
X299.692 Y23.207
X300.382 Y23.276
X300.947 Y23.409
X301.527 Y23.628
X302.179 Y23.977
X302.822 Y24.438
X303.499 Y25.072
X304.165 Y25.883
X304.72 Y26.774
X305.166 Y27.724
X305.186 Y27.783
X305.205 Y27.843
X305.218 Y27.905
X305.227 Y27.967
G3 X304.601 Y28.28 Z-9.858 I-0.379 J0.024
G1 X304.322 Y28.042 Z-9.8
X299.7 Y24.092
X299.447 Y23.876 Z-9.853
G3 X299.692 Y23.207 Z-10. I0.247 J-0.289
G1 X299.932 Y23.219
X300.172 Y23.237
X300.949 Y23.314
X301.04 Y23.328
X301.131 Y23.353
X301.851 Y23.571
X301.971 Y23.608
X302.091 Y23.66
X302.81 Y24.044
X302.93 Y24.114
X303.05 Y24.206
X303.53 Y24.6
X303.711 Y24.752
X303.77 Y24.812
X304.311 Y25.47
X304.4 Y25.59
X304.467 Y25.71
X304.85 Y26.429
X304.935 Y26.669
X305.153 Y27.387
X305.18 Y27.507
X305.193 Y27.627
X305.264 Y28.346
X305.275 Y28.466
X305.271 Y28.586
X305.2 Y29.304
X305.171 Y29.544
X305.101 Y29.784
X304.956 Y30.263
X304.881 Y30.503
X304.759 Y30.742
X304.49 Y31.247
X304.366 Y31.461
X304.171 Y31.701
X303.77 Y32.188
X303.53 Y32.4
X303.05 Y32.794
X302.912 Y32.899
X302.81 Y32.956
X302.091 Y33.34
X302.007 Y33.378
X301.851 Y33.429
X301.131 Y33.647
X301.011 Y33.678
X300.891 Y33.692
X300.644 Y33.716
X300.594 Y33.718 Z-9.998
X300.593
X300.509 Y33.704 Z-9.988
X300.426 Y33.691 Z-9.968
X300.345 Y33.678 Z-9.939
X300.264 Y33.637 Z-9.894
X300.19 Y33.599 Z-9.837
X300.122 Y33.564 Z-9.77
X300.073 Y33.517 Z-9.693
X300.033 Y33.477 Z-9.608
X300. Y33.445 Z-9.516
X299.977 Y33.422 Z-9.418
X299.962 Y33.408 Z-9.318
X299.958 Y33.403 Z-9.215
G0 Z5.
X166.982 Y30.085
Z-7.5
G3 X161.495 Y31.857 Z-7.955 I-3.542 J-1.585 F3500.
X160.308 Y26.226 Z-8.409 I1.942 J-3.35
X166.02 Y25.634 Z-8.864 I3.123 J2.276
X166.013 Y31.365 Z-9.318 I-2.584 J2.862
X160.325 Y30.761 Z-9.773 I-2.572 J-2.863
X161.517 Y25.179 Z-10.227 I3.109 J-2.254
X166.933 Y26.944 Z-10.682 I1.913 J3.321
X164.618 Y32.135 Z-11.136 I-3.495 J1.553
X159.707 Y29.297 Z-11.591 I-1.178 J-3.63
X163.035 Y24.718 Z-12.045 I3.726 J-0.791
X167.232 Y28.498 Z-12.5 I0.397 J3.78
X159.631 I-3.801 J0.
X167.232 I3.801 J0.
G1 X167.235 Y28.629
X167.262 Y28.757
X167.315 Y28.878
X167.914 Y29.739
X168.075 Y29.948
X168.224 Y30.205
X168.352 Y30.512
X168.448 Y30.867
X168.502 Y31.267
X168.504 Y31.708
X168.444 Y32.183
X168.312 Y32.684
X168.101 Y33.199
X167.989 Y33.396
X167.862 Y33.563
X167.696 Y33.692
X167.502 Y33.772
X167.294 Y33.8
X162.961
X162.241 Y33.798
X162.002 Y33.78
X161.042 Y33.685
X160.922 Y33.663
X160.771 Y33.618
X160.082 Y33.409
X159.992 Y33.378
X159.843 Y33.304
X159.123 Y32.92
X159.088 Y32.899
X158.883 Y32.739
X158.403 Y32.346
X158.223 Y32.18
X157.684 Y31.523
X157.635 Y31.461
X157.497 Y31.221
X157.204 Y30.674
X157.12 Y30.503
X157.044 Y30.263
X156.899 Y29.784
X156.829 Y29.544
X156.8 Y29.304
X156.729 Y28.586
X156.725 Y28.466
X156.736 Y28.346
X156.807 Y27.627
X156.82 Y27.507
X156.847 Y27.387
X157.065 Y26.669
X157.15 Y26.429
X157.533 Y25.71
X157.598 Y25.594
X157.689 Y25.47
X158.163 Y24.892
X158.288 Y24.752
X158.403 Y24.654
X158.883 Y24.261
X159.123 Y24.08
X159.843 Y23.696
X159.963 Y23.634
X160.082 Y23.591
X160.802 Y23.373
X160.922 Y23.337
X161.042 Y23.315
X162.002 Y23.22
X162.241 Y23.202
X163.201 Y23.2
X166.079
X166.729 Y23.232
X167.236 Y23.325
X167.766 Y23.495
X168.304 Y23.75
X168.839 Y24.094
X169.64 Y24.773
X170.387 Y25.511
X171.06 Y26.316
X171.641 Y27.19
X172.116 Y28.127
X172.471 Y29.115
X172.698 Y30.139
X172.794 Y31.185
X172.759 Y32.208
X172.605 Y33.137
X172.576 Y33.233
X172.492 Y33.418
X172.364 Y33.577
X172.201 Y33.698
X172.012 Y33.774
X171.81 Y33.8
X167.294
G3 X166.529 Y33.107 Z-12.321 I0.028 J-0.8
G1 X166.511 Y32.974 Z-12.3
X165.315 Y24.106
X165.308 Y24.027
G3 X166.079 Y23.2 Z-12.5 I0.8 J-0.027
G1 X170.637
X171.3 Y23.233
X171.876 Y23.338
X172.497 Y23.538
X173.172 Y23.857
X173.853 Y24.295
X174.549 Y24.885
X175.24 Y25.644
X175.839 Y26.506
X176.323 Y27.438
X176.702 Y28.416
X176.978 Y29.429
X177.147 Y30.465
X177.215 Y31.513
X177.163 Y32.474
X177.038 Y33.147
X176.968 Y33.356
X176.843 Y33.539
X176.673 Y33.68
X176.47 Y33.769
X176.251 Y33.8
X171.81
G3 X171.045 Y33.104 Z-12.321 I0.028 J-0.8
G1 X171.028 Y32.974 Z-12.3
X169.872 Y24.103
X169.866 Y24.027
G3 X170.637 Y23.2 Z-12.5 I0.8 J-0.027
G1 X175.435
X175.882 Y23.222
X176.421 Y23.321
X177.008 Y23.51
X177.627 Y23.802
X178.286 Y24.226
X178.96 Y24.797
X179.616 Y25.518
X180.215 Y26.38
X180.706 Y27.308
X181.094 Y28.283
X181.378 Y29.294
X181.564 Y30.327
X181.648 Y31.373
X181.614 Y32.354
X181.47 Y33.216
X181.465 Y33.233
X181.381 Y33.419
X181.253 Y33.577
X181.09 Y33.698
X180.901 Y33.774
X180.699 Y33.8
X176.251
G3 X175.483 Y33.073 Z-12.316 I0.028 J-0.8
G1 X175.474 Y32.974 Z-12.3
X174.666 Y24.072
X174.663 Y24.027
G3 X175.435 Y23.2 Z-12.5 I0.8 J-0.027
G1 X179.753
X180.331 Y23.229
X180.875 Y23.328
X181.444 Y23.511
X182.072 Y23.808
X182.716 Y24.222
X183.397 Y24.799
X184.049 Y25.517
X184.648 Y26.379
X185.138 Y27.307
X185.528 Y28.282
X185.813 Y29.292
X185.999 Y30.325
X186.088 Y31.371
X186.055 Y32.345
X185.91 Y33.222
X185.907 Y33.232
X185.823 Y33.418
X185.696 Y33.577
X185.532 Y33.698
X185.343 Y33.774
X185.141 Y33.8
X180.699
G3 X179.932 Y33.084 Z-12.318 I0.028 J-0.8
G1 X179.92 Y32.974 Z-12.3
X178.985 Y24.083
X178.981 Y24.027
G3 X179.753 Y23.2 Z-12.5 I0.8 J-0.027
G1 X184.31
X184.761 Y23.223
X185.305 Y23.322
X185.875 Y23.505
X186.504 Y23.803
X187.149 Y24.218
X187.832 Y24.796
X188.484 Y25.513
X189.083 Y26.375
X189.573 Y27.303
X189.964 Y28.277
X190.251 Y29.287
X190.437 Y30.32
X190.527 Y31.366
X190.495 Y32.339
X190.351 Y33.217
X190.347 Y33.231
X190.263 Y33.417
X190.136 Y33.576
X189.972 Y33.698
X189.783 Y33.774
X189.581 Y33.8
X185.141
G3 X184.372 Y33.074 Z-12.316 I0.028 J-0.8
G1 X184.363 Y32.974 Z-12.3
X183.542 Y24.073
X183.539 Y24.027
G3 X184.31 Y23.2 Z-12.5 I0.8 J-0.027
G1 X188.628
X189.201 Y23.229
X189.745 Y23.328
X190.314 Y23.511
X190.945 Y23.809
X191.589 Y24.223
X192.272 Y24.802
X192.924 Y25.519
X193.522 Y26.381
X194.013 Y27.309
X194.404 Y28.283
X194.69 Y29.293
X194.877 Y30.326
X194.966 Y31.372
X194.934 Y32.344
X194.79 Y33.22
X194.786 Y33.232
X194.703 Y33.418
X194.575 Y33.576
X194.411 Y33.698
X194.222 Y33.774
X194.02 Y33.8
X189.581
G3 X188.813 Y33.085 Z-12.318 I0.028 J-0.8
G1 X188.802 Y32.974 Z-12.3
X187.86 Y24.084
X187.856 Y24.027
G3 X188.628 Y23.2 Z-12.5 I0.8 J-0.027
G1 X193.186
X193.634 Y23.222
X194.178 Y23.322
X194.749 Y23.505
X195.379 Y23.803
X196.025 Y24.219
X196.709 Y24.798
X197.361 Y25.515
X197.96 Y26.378
X198.451 Y27.306
X198.842 Y28.28
X199.129 Y29.29
X199.315 Y30.323
X199.405 Y31.368
X199.374 Y32.341
X199.23 Y33.218
X199.225 Y33.231
X199.142 Y33.417
X199.014 Y33.576
X198.851 Y33.698
X198.662 Y33.774
X198.46 Y33.8
X194.02
G3 X193.252 Y33.074 Z-12.316 I0.028 J-0.8
G1 X193.242 Y32.974 Z-12.3
X192.417 Y24.073
X192.414 Y24.027
G3 X193.186 Y23.2 Z-12.5 I0.8 J-0.027
G1 X197.504
X198.077 Y23.229
X198.621 Y23.328
X199.191 Y23.511
X199.821 Y23.809
X200.466 Y24.224
X201.15 Y24.803
X201.801 Y25.52
X202.4 Y26.382
X202.891 Y27.31
X203.282 Y28.285
X203.568 Y29.294
X203.755 Y30.327
X203.844 Y31.373
X203.812 Y32.345
X203.668 Y33.221
X203.664 Y33.232
X203.581 Y33.418
X203.453 Y33.576
X203.29 Y33.698
X203.101 Y33.774
X202.899 Y33.8
X198.46
G3 X197.692 Y33.085 Z-12.318 I0.028 J-0.8
G1 X197.68 Y32.974 Z-12.3
X196.736 Y24.084
X196.732 Y24.027
G3 X197.504 Y23.2 Z-12.5 I0.8 J-0.027
G1 X202.061
X202.512 Y23.223
X203.056 Y23.322
X203.627 Y23.505
X204.257 Y23.803
X204.903 Y24.219
X205.587 Y24.798
X206.239 Y25.516
X206.838 Y26.378
X207.329 Y27.306
X207.72 Y28.28
X208.007 Y29.29
X208.194 Y30.323
X208.283 Y31.369
X208.252 Y32.341
X208.108 Y33.218
X208.104 Y33.231
X208.02 Y33.417
X207.893 Y33.576
X207.729 Y33.698
X207.54 Y33.774
X207.338 Y33.8
X202.899
G3 X202.13 Y33.075 Z-12.316 I0.028 J-0.8
G1 X202.121 Y32.974 Z-12.3
X201.293 Y24.074
X201.29 Y24.027
G3 X202.061 Y23.2 Z-12.5 I0.8 J-0.027
G1 X206.379
X206.955 Y23.229
X207.499 Y23.328
X208.069 Y23.511
X208.699 Y23.809
X209.344 Y24.224
X210.028 Y24.803
X210.68 Y25.52
X211.279 Y26.382
X211.769 Y27.31
X212.16 Y28.285
X212.447 Y29.295
X212.633 Y30.328
X212.722 Y31.374
X212.69 Y32.345
X212.546 Y33.221
X212.543 Y33.232
X212.459 Y33.418
X212.332 Y33.576
X212.168 Y33.698
X211.979 Y33.774
X211.777 Y33.8
X207.338
G3 X206.57 Y33.085 Z-12.318 I0.028 J-0.8
G1 X206.558 Y32.974 Z-12.3
X205.612 Y24.084
X205.608 Y24.027
G3 X206.379 Y23.2 Z-12.5 I0.8 J-0.027
G1 X210.937
X211.39 Y23.223
X211.934 Y23.322
X212.505 Y23.506
X213.135 Y23.803
X213.781 Y24.219
X214.465 Y24.798
X215.118 Y25.516
X215.717 Y26.378
X216.207 Y27.306
X216.598 Y28.281
X216.885 Y29.29
X217.072 Y30.323
X217.162 Y31.369
X217.13 Y32.341
X216.986 Y33.218
X216.982 Y33.231
X216.898 Y33.417
X216.771 Y33.576
X216.607 Y33.698
X216.418 Y33.774
X216.216 Y33.8
X211.777
G3 X211.008 Y33.075 Z-12.316 I0.028 J-0.8
G1 X210.999 Y32.974 Z-12.3
X210.168 Y24.074
X210.165 Y24.027
G3 X210.937 Y23.2 Z-12.5 I0.8 J-0.027
G1 X215.255
X215.833 Y23.229
X216.377 Y23.328
X216.947 Y23.511
X217.578 Y23.809
X218.222 Y24.224
X218.906 Y24.803
X219.558 Y25.52
X220.157 Y26.383
X220.647 Y27.311
X221.038 Y28.285
X221.325 Y29.295
X221.511 Y30.328
X221.601 Y31.374
X221.569 Y32.345
X221.424 Y33.221
X221.421 Y33.232
X221.337 Y33.418
