%
(DRAGON_SPACER)
(T3 D=4. CR=0. - ZMIN=-3. - FLAT END MILL)
(T8 D=8. CR=0. TAPER=45DEG - ZMIN=-2.3 - CHAMFER MILL)
(T44 D=2.9 CR=0. TAPER=130DEG - ZMIN=-3.876 - DRILL)
G90 G94 G17 G91.1
G21
G53 G0 Z0.
(DRILL2)
N10 T44 M600
S16465 M300
G17 G90 G94
G54
M7
G0 X18.657 Y20.657
G43 Z15. H44
G0 Z5.
Z2.
G1 Z-2. F494.
G0 Z-1.9
G1 Z-3.876 F494.
G0 Z5.
X13. Y15.
Z2.
G1 Z-2. F494.
G0 Z-1.9
G1 Z-3.876 F494.
G0 Z5.
X18.657 Y9.343
Z2.
G1 Z-2. F494.
G0 Z-1.9
G1 Z-3.876 F494.
G0 Z5.
X7.343
Z2.
G1 Z-2. F494.
G0 Z-1.9
G1 Z-3.876 F494.
G0 Z5.
Y20.657
Z2.
G1 Z-2. F494.
G0 Z-1.9
G1 Z-3.876 F494.
G0 Z5.
Z15.
(DRILL2)
G0 X45.657 Y20.657
Z15.
Z5.
Z2.
G1 Z-2. F494.
G0 Z-1.9
G1 Z-3.876 F494.
G0 Z5.
X40. Y15.
Z2.
G1 Z-2. F494.
G0 Z-1.9
G1 Z-3.876 F494.
G0 Z5.
X45.657 Y9.343
Z2.
G1 Z-2. F494.
G0 Z-1.9
G1 Z-3.876 F494.
G0 Z5.
X34.343
Z2.
G1 Z-2. F494.
G0 Z-1.9
G1 Z-3.876 F494.
G0 Z5.
Y20.657
Z2.
G1 Z-2. F494.
G0 Z-1.9
G1 Z-3.876 F494.
G0 Z5.
Z15.
M9
M500
G53 G0 Z0.
(BORE1)
M1
N15 T3 M600
S24000 M300
G17 G90 G94
G54
G64 P0.01 Q0.01
G0 X13. Y15.
G43 Z15. H3
G0 Z1.6
G1 Z0. F1000.
X12.975 Y15.025
X12.957 Y15.018
X12.95 Y15.
X12.958 Y14.973 Z-0.026
X12.979 Y14.955 Z-0.052
X13.006 Y14.95 Z-0.078
X13.032 Y14.962 Z-0.103
X13.048 Y14.985 Z-0.129
Y15.013 Z-0.155
X13.034 Y15.037 Z-0.181
X13.009 Y15.049 Z-0.207
X12.981 Y15.046 Z-0.233
X12.959 Y15.029 Z-0.259
X12.95 Y15.002 Z-0.284
X12.957 Y14.975 Z-0.31
X12.977 Y14.956 Z-0.336
X13.004 Y14.95 Z-0.362
X13.03 Y14.96 Z-0.388
X13.047 Y14.983 Z-0.414
X13.049 Y15.01 Z-0.44
X13.036 Y15.035 Z-0.466
X13.011 Y15.049 Z-0.491
X12.983 Y15.047 Z-0.517
X12.961 Y15.031 Z-0.543
X12.95 Y15.005 Z-0.569
X12.955 Y14.977 Z-0.595
X12.975 Y14.957 Z-0.621
X13.002 Y14.95 Z-0.647
X13.028 Y14.959 Z-0.672
X13.046 Y14.98 Z-0.698
X13.049 Y15.008 Z-0.724
X13.037 Y15.033 Z-0.75
X13.014 Y15.048 Z-0.776
X12.986 Z-0.802
X12.962 Y15.033 Z-0.828
X12.951 Y15.007 Z-0.853
X12.954 Y14.98 Z-0.879
X12.972 Y14.958 Z-0.905
X12.999 Y14.95 Z-0.931
X13.026 Y14.957 Z-0.957
X13.045 Y14.978 Z-0.983
X13.05 Y15.006 Z-1.009
X13.039 Y15.031 Z-1.034
X13.016 Y15.047 Z-1.06
X12.988 Y15.049 Z-1.086
X12.964 Y15.034 Z-1.112
X12.951 Y15.01 Z-1.138
X12.953 Y14.982 Z-1.164
X12.97 Y14.96 Z-1.19
X12.997 Y14.95 Z-1.216
X13.024 Y14.956 Z-1.241
X13.044 Y14.976 Z-1.267
X13.05 Y15.003 Z-1.293
X13.04 Y15.03 Z-1.319
X13.018 Y15.047 Z-1.345
X12.99 Y15.049 Z-1.371
X12.966 Y15.036 Z-1.397
X12.951 Y15.012 Z-1.422
X12.953 Y14.984 Z-1.448
X12.969 Y14.961 Z-1.474
X12.994 Y14.95 Z-1.5
X13.022 Y14.955 Z-1.526
X13.043 Y14.974 Z-1.552
X13.05 Y15.001 Z-1.578
X13.042 Y15.028 Z-1.603
X13.02 Y15.046 Z-1.629
X12.993 Y15.049 Z-1.655
X12.967 Y15.038 Z-1.681
X12.952 Y15.014 Z-1.707
Y14.986 Z-1.733
X12.967 Y14.963 Z-1.759
X12.992 Y14.951 Z-1.784
X13.02 Y14.954 Z-1.81
X13.041 Y14.972 Z-1.836
X13.05 Y14.998 Z-1.862
X13.043 Y15.025 Z-1.888
X13.023 Y15.045 Z-1.914
X12.995 Y15.05 Z-1.94
X12.969 Y15.039 Z-1.966
X12.953 Y15.017 Z-1.991
X12.951 Y14.989 Z-2.017
X12.965 Y14.964 Z-2.043
X12.99 Y14.951 Z-2.069
X13.017 Y14.953 Z-2.095
X13.04 Y14.97 Z-2.121
X13.05 Y14.996 Z-2.147
X13.044 Y15.023 Z-2.172
X13.025 Y15.043 Z-2.198
X12.998 Y15.05 Z-2.224
X12.971 Y15.041 Z-2.25
X12.954 Y15.019 Z-2.276
X12.951 Y14.991 Z-2.302
X12.963 Y14.966 Z-2.328
X12.987 Y14.952 Z-2.353
X13.015 Z-2.379
X13.038 Y14.968 Z-2.405
X13.05 Y14.994 Z-2.431
X13.045 Y15.021 Z-2.457
X13.027 Y15.042 Z-2.483
X13. Y15.05 Z-2.509
X12.973 Y15.042 Z-2.534
X12.955 Y15.021 Z-2.56
X12.95 Y14.994 Z-2.586
X12.962 Y14.968 Z-2.612
X12.985 Y14.952 Z-2.638
X13.013 Z-2.664
X13.037 Y14.966 Z-2.69
X13.049 Y14.991 Z-2.716
X13.046 Y15.019 Z-2.741
X13.029 Y15.041 Z-2.767
X13.002 Y15.05 Z-2.793
X12.975 Y15.043 Z-2.819
X12.956 Y15.023 Z-2.845
X12.95 Y14.996 Z-2.871
X12.96 Y14.97 Z-2.897
X12.983 Y14.953 Z-2.922
X13.01 Y14.951 Z-2.948
X13.035 Y14.964 Z-2.974
X13.049 Y14.989 Z-3.
G3 X12.951 Y15.011 I-0.049 J0.011
X13.049 Y14.989 I0.049 J-0.011
G1 X13.046 Y15.008
X13.03 Y15.019
X13. Y15.
G0 Z5.
Z1.6
G1 Z0. F1000.
X12.975 Y15.025
X12.957 Y15.018
X12.95 Y15.
X12.958 Y14.973 Z-0.026
X12.979 Y14.955 Z-0.052
X13.006 Y14.95 Z-0.078
X13.032 Y14.962 Z-0.103
X13.048 Y14.985 Z-0.129
Y15.013 Z-0.155
X13.034 Y15.037 Z-0.181
X13.009 Y15.049 Z-0.207
X12.981 Y15.046 Z-0.233
X12.959 Y15.029 Z-0.259
X12.95 Y15.002 Z-0.284
X12.957 Y14.975 Z-0.31
X12.977 Y14.956 Z-0.336
X13.004 Y14.95 Z-0.362
X13.03 Y14.96 Z-0.388
X13.047 Y14.983 Z-0.414
X13.049 Y15.01 Z-0.44
X13.036 Y15.035 Z-0.466
X13.011 Y15.049 Z-0.491
X12.983 Y15.047 Z-0.517
X12.961 Y15.031 Z-0.543
X12.95 Y15.005 Z-0.569
X12.955 Y14.977 Z-0.595
X12.975 Y14.957 Z-0.621
X13.002 Y14.95 Z-0.647
X13.028 Y14.959 Z-0.672
X13.046 Y14.98 Z-0.698
X13.049 Y15.008 Z-0.724
X13.037 Y15.033 Z-0.75
X13.014 Y15.048 Z-0.776
X12.986 Z-0.802
X12.962 Y15.033 Z-0.828
X12.951 Y15.007 Z-0.853
X12.954 Y14.98 Z-0.879
X12.972 Y14.958 Z-0.905
X12.999 Y14.95 Z-0.931
X13.026 Y14.957 Z-0.957
X13.045 Y14.978 Z-0.983
X13.05 Y15.006 Z-1.009
X13.039 Y15.031 Z-1.034
X13.016 Y15.047 Z-1.06
X12.988 Y15.049 Z-1.086
X12.964 Y15.034 Z-1.112
X12.951 Y15.01 Z-1.138
X12.953 Y14.982 Z-1.164
X12.97 Y14.96 Z-1.19
X12.997 Y14.95 Z-1.216
X13.024 Y14.956 Z-1.241
X13.044 Y14.976 Z-1.267
X13.05 Y15.003 Z-1.293
X13.04 Y15.03 Z-1.319
X13.018 Y15.047 Z-1.345
X12.99 Y15.049 Z-1.371
X12.966 Y15.036 Z-1.397
X12.951 Y15.012 Z-1.422
X12.953 Y14.984 Z-1.448
X12.969 Y14.961 Z-1.474
X12.994 Y14.95 Z-1.5
X13.022 Y14.955 Z-1.526
X13.043 Y14.974 Z-1.552
X13.05 Y15.001 Z-1.578
X13.042 Y15.028 Z-1.603
X13.02 Y15.046 Z-1.629
X12.993 Y15.049 Z-1.655
X12.967 Y15.038 Z-1.681
X12.952 Y15.014 Z-1.707
Y14.986 Z-1.733
X12.967 Y14.963 Z-1.759
X12.992 Y14.951 Z-1.784
X13.02 Y14.954 Z-1.81
X13.041 Y14.972 Z-1.836
X13.05 Y14.998 Z-1.862
X13.043 Y15.025 Z-1.888
X13.023 Y15.045 Z-1.914
X12.995 Y15.05 Z-1.94
X12.969 Y15.039 Z-1.966
X12.953 Y15.017 Z-1.991
X12.951 Y14.989 Z-2.017
X12.965 Y14.964 Z-2.043
X12.99 Y14.951 Z-2.069
X13.017 Y14.953 Z-2.095
X13.04 Y14.97 Z-2.121
X13.05 Y14.996 Z-2.147
X13.044 Y15.023 Z-2.172
X13.025 Y15.043 Z-2.198
X12.998 Y15.05 Z-2.224
X12.971 Y15.041 Z-2.25
X12.954 Y15.019 Z-2.276
X12.951 Y14.991 Z-2.302
X12.963 Y14.966 Z-2.328
X12.987 Y14.952 Z-2.353
X13.015 Z-2.379
X13.038 Y14.968 Z-2.405
X13.05 Y14.994 Z-2.431
X13.045 Y15.021 Z-2.457
X13.027 Y15.042 Z-2.483
X13. Y15.05 Z-2.509
X12.973 Y15.042 Z-2.534
X12.955 Y15.021 Z-2.56
X12.95 Y14.994 Z-2.586
X12.962 Y14.968 Z-2.612
X12.985 Y14.952 Z-2.638
X13.013 Z-2.664
X13.037 Y14.966 Z-2.69
X13.049 Y14.991 Z-2.716
X13.046 Y15.019 Z-2.741
X13.029 Y15.041 Z-2.767
X13.002 Y15.05 Z-2.793
X12.975 Y15.043 Z-2.819
X12.956 Y15.023 Z-2.845
X12.95 Y14.996 Z-2.871
X12.96 Y14.97 Z-2.897
X12.983 Y14.953 Z-2.922
X13.01 Y14.951 Z-2.948
X13.035 Y14.964 Z-2.974
X13.049 Y14.989 Z-3.
G3 X12.951 Y15.011 I-0.049 J0.011
X13.049 Y14.989 I0.049 J-0.011
G1 X13.046 Y15.008
X13.03 Y15.019
X13. Y15.
G0 Z15.
(BORE1)
G0 X40. Y15.
Z15.
Z1.6
G1 Z0. F1000.
X39.975 Y15.025
X39.957 Y15.018
X39.95 Y15.
X39.958 Y14.973 Z-0.026
X39.979 Y14.955 Z-0.052
X40.006 Y14.95 Z-0.078
X40.032 Y14.962 Z-0.103
X40.048 Y14.985 Z-0.129
Y15.013 Z-0.155
X40.034 Y15.037 Z-0.181
X40.009 Y15.049 Z-0.207
X39.981 Y15.046 Z-0.233
X39.959 Y15.029 Z-0.259
X39.95 Y15.002 Z-0.284
X39.957 Y14.975 Z-0.31
X39.977 Y14.956 Z-0.336
X40.004 Y14.95 Z-0.362
X40.03 Y14.96 Z-0.388
X40.047 Y14.983 Z-0.414
X40.049 Y15.01 Z-0.44
X40.036 Y15.035 Z-0.466
X40.011 Y15.049 Z-0.491
X39.983 Y15.047 Z-0.517
X39.961 Y15.031 Z-0.543
X39.95 Y15.005 Z-0.569
X39.955 Y14.977 Z-0.595
X39.975 Y14.957 Z-0.621
X40.002 Y14.95 Z-0.647
X40.028 Y14.959 Z-0.672
X40.046 Y14.98 Z-0.698
X40.049 Y15.008 Z-0.724
X40.037 Y15.033 Z-0.75
X40.014 Y15.048 Z-0.776
X39.986 Z-0.802
X39.962 Y15.033 Z-0.828
X39.951 Y15.007 Z-0.853
X39.954 Y14.98 Z-0.879
X39.972 Y14.958 Z-0.905
X39.999 Y14.95 Z-0.931
X40.026 Y14.957 Z-0.957
X40.045 Y14.978 Z-0.983
X40.05 Y15.006 Z-1.009
X40.039 Y15.031 Z-1.034
X40.016 Y15.047 Z-1.06
X39.988 Y15.049 Z-1.086
X39.964 Y15.034 Z-1.112
X39.951 Y15.01 Z-1.138
X39.953 Y14.982 Z-1.164
X39.97 Y14.96 Z-1.19
X39.997 Y14.95 Z-1.216
X40.024 Y14.956 Z-1.241
X40.044 Y14.976 Z-1.267
X40.05 Y15.003 Z-1.293
X40.04 Y15.03 Z-1.319
X40.018 Y15.047 Z-1.345
X39.99 Y15.049 Z-1.371
X39.966 Y15.036 Z-1.397
X39.951 Y15.012 Z-1.422
X39.953 Y14.984 Z-1.448
X39.969 Y14.961 Z-1.474
X39.994 Y14.95 Z-1.5
X40.022 Y14.955 Z-1.526
X40.043 Y14.974 Z-1.552
X40.05 Y15.001 Z-1.578
X40.042 Y15.028 Z-1.603
X40.02 Y15.046 Z-1.629
X39.993 Y15.049 Z-1.655
X39.967 Y15.038 Z-1.681
X39.952 Y15.014 Z-1.707
Y14.986 Z-1.733
X39.967 Y14.963 Z-1.759
X39.992 Y14.951 Z-1.784
X40.02 Y14.954 Z-1.81
X40.041 Y14.972 Z-1.836
X40.05 Y14.998 Z-1.862
X40.043 Y15.025 Z-1.888
X40.023 Y15.045 Z-1.914
X39.995 Y15.05 Z-1.94
X39.969 Y15.039 Z-1.966
X39.953 Y15.017 Z-1.991
X39.951 Y14.989 Z-2.017
X39.965 Y14.964 Z-2.043
X39.99 Y14.951 Z-2.069
X40.017 Y14.953 Z-2.095
X40.04 Y14.97 Z-2.121
X40.05 Y14.996 Z-2.147
X40.044 Y15.023 Z-2.172
X40.025 Y15.043 Z-2.198
X39.998 Y15.05 Z-2.224
X39.971 Y15.041 Z-2.25
X39.954 Y15.019 Z-2.276
X39.951 Y14.991 Z-2.302
X39.963 Y14.966 Z-2.328
X39.987 Y14.952 Z-2.353
X40.015 Z-2.379
X40.038 Y14.968 Z-2.405
X40.05 Y14.994 Z-2.431
X40.045 Y15.021 Z-2.457
X40.027 Y15.042 Z-2.483
X40. Y15.05 Z-2.509
X39.973 Y15.042 Z-2.534
X39.955 Y15.021 Z-2.56
X39.95 Y14.994 Z-2.586
X39.962 Y14.968 Z-2.612
X39.985 Y14.952 Z-2.638
X40.013 Z-2.664
X40.037 Y14.966 Z-2.69
X40.049 Y14.991 Z-2.716
X40.046 Y15.019 Z-2.741
X40.029 Y15.041 Z-2.767
X40.002 Y15.05 Z-2.793
X39.975 Y15.043 Z-2.819
X39.956 Y15.023 Z-2.845
X39.95 Y14.996 Z-2.871
X39.96 Y14.97 Z-2.897
X39.983 Y14.953 Z-2.922
X40.01 Y14.951 Z-2.948
X40.035 Y14.964 Z-2.974
X40.049 Y14.989 Z-3.
G3 X39.951 Y15.011 I-0.049 J0.011
X40.049 Y14.989 I0.049 J-0.011
G1 X40.046 Y15.008
X40.03 Y15.019
X40. Y15.
G0 Z5.
Z1.6
G1 Z0. F1000.
X39.975 Y15.025
X39.957 Y15.018
X39.95 Y15.
X39.958 Y14.973 Z-0.026
X39.979 Y14.955 Z-0.052
X40.006 Y14.95 Z-0.078
X40.032 Y14.962 Z-0.103
X40.048 Y14.985 Z-0.129
Y15.013 Z-0.155
X40.034 Y15.037 Z-0.181
X40.009 Y15.049 Z-0.207
X39.981 Y15.046 Z-0.233
X39.959 Y15.029 Z-0.259
X39.95 Y15.002 Z-0.284
X39.957 Y14.975 Z-0.31
X39.977 Y14.956 Z-0.336
X40.004 Y14.95 Z-0.362
X40.03 Y14.96 Z-0.388
X40.047 Y14.983 Z-0.414
X40.049 Y15.01 Z-0.44
X40.036 Y15.035 Z-0.466
X40.011 Y15.049 Z-0.491
X39.983 Y15.047 Z-0.517
X39.961 Y15.031 Z-0.543
X39.95 Y15.005 Z-0.569
X39.955 Y14.977 Z-0.595
X39.975 Y14.957 Z-0.621
X40.002 Y14.95 Z-0.647
X40.028 Y14.959 Z-0.672
X40.046 Y14.98 Z-0.698
X40.049 Y15.008 Z-0.724
X40.037 Y15.033 Z-0.75
X40.014 Y15.048 Z-0.776
X39.986 Z-0.802
X39.962 Y15.033 Z-0.828
X39.951 Y15.007 Z-0.853
X39.954 Y14.98 Z-0.879
X39.972 Y14.958 Z-0.905
X39.999 Y14.95 Z-0.931
X40.026 Y14.957 Z-0.957
X40.045 Y14.978 Z-0.983
X40.05 Y15.006 Z-1.009
X40.039 Y15.031 Z-1.034
X40.016 Y15.047 Z-1.06
X39.988 Y15.049 Z-1.086
X39.964 Y15.034 Z-1.112
X39.951 Y15.01 Z-1.138
X39.953 Y14.982 Z-1.164
X39.97 Y14.96 Z-1.19
X39.997 Y14.95 Z-1.216
X40.024 Y14.956 Z-1.241
X40.044 Y14.976 Z-1.267
X40.05 Y15.003 Z-1.293
X40.04 Y15.03 Z-1.319
X40.018 Y15.047 Z-1.345
X39.99 Y15.049 Z-1.371
X39.966 Y15.036 Z-1.397
X39.951 Y15.012 Z-1.422
X39.953 Y14.984 Z-1.448
X39.969 Y14.961 Z-1.474
X39.994 Y14.95 Z-1.5
X40.022 Y14.955 Z-1.526
X40.043 Y14.974 Z-1.552
X40.05 Y15.001 Z-1.578
X40.042 Y15.028 Z-1.603
X40.02 Y15.046 Z-1.629
X39.993 Y15.049 Z-1.655
X39.967 Y15.038 Z-1.681
X39.952 Y15.014 Z-1.707
Y14.986 Z-1.733
X39.967 Y14.963 Z-1.759
X39.992 Y14.951 Z-1.784
X40.02 Y14.954 Z-1.81
X40.041 Y14.972 Z-1.836
X40.05 Y14.998 Z-1.862
X40.043 Y15.025 Z-1.888
X40.023 Y15.045 Z-1.914
X39.995 Y15.05 Z-1.94
X39.969 Y15.039 Z-1.966
X39.953 Y15.017 Z-1.991
X39.951 Y14.989 Z-2.017
X39.965 Y14.964 Z-2.043
X39.99 Y14.951 Z-2.069
X40.017 Y14.953 Z-2.095
X40.04 Y14.97 Z-2.121
X40.05 Y14.996 Z-2.147
X40.044 Y15.023 Z-2.172
X40.025 Y15.043 Z-2.198
X39.998 Y15.05 Z-2.224
X39.971 Y15.041 Z-2.25
X39.954 Y15.019 Z-2.276
X39.951 Y14.991 Z-2.302
X39.963 Y14.966 Z-2.328
X39.987 Y14.952 Z-2.353
X40.015 Z-2.379
X40.038 Y14.968 Z-2.405
X40.05 Y14.994 Z-2.431
X40.045 Y15.021 Z-2.457
X40.027 Y15.042 Z-2.483
X40. Y15.05 Z-2.509
X39.973 Y15.042 Z-2.534
X39.955 Y15.021 Z-2.56
X39.95 Y14.994 Z-2.586
X39.962 Y14.968 Z-2.612
X39.985 Y14.952 Z-2.638
X40.013 Z-2.664
X40.037 Y14.966 Z-2.69
X40.049 Y14.991 Z-2.716
X40.046 Y15.019 Z-2.741
X40.029 Y15.041 Z-2.767
X40.002 Y15.05 Z-2.793
X39.975 Y15.043 Z-2.819
X39.956 Y15.023 Z-2.845
X39.95 Y14.996 Z-2.871
X39.96 Y14.97 Z-2.897
X39.983 Y14.953 Z-2.922
X40.01 Y14.951 Z-2.948
X40.035 Y14.964 Z-2.974
X40.049 Y14.989 Z-3.
G3 X39.951 Y15.011 I-0.049 J0.011
X40.049 Y14.989 I0.049 J-0.011
G1 X40.046 Y15.008
X40.03 Y15.019
X40. Y15.
G0 Z15.
M500
G53 G0 Z0.
(DRILL3)
M1
N20 T8 M600
S17000 M300
G17 G90 G94
G54
G0 X7.343 Y20.657
G43 Z15. H8
G0 Z5.
Z2.
G1 Z-1.7 F500.
G0 Z5.
Y9.343
Z2.
G1 Z-1.7 F500.
G0 Z5.
X18.657
Z2.
G1 Z-1.7 F500.
G0 Z5.
X13. Y15.
Z2.
G1 Z-2. F500.
G0 Z-1.84
G1 Z-2.3 F500.
G0 Z5.
X18.657 Y20.657
Z2.
G1 Z-1.7 F500.
G0 Z5.
Z15.
(DRILL3)
G0 X34.343 Y20.657
Z15.
Z5.
Z2.
G1 Z-1.7 F500.
G0 Z5.
Y9.343
Z2.
G1 Z-1.7 F500.
G0 Z5.
X45.657
Z2.
G1 Z-1.7 F500.
G0 Z5.
X40. Y15.
Z2.
G1 Z-2. F500.
G0 Z-1.84
G1 Z-2.3 F500.
G0 Z5.
X45.657 Y20.657
Z2.
G1 Z-1.7 F500.
G0 Z5.
Z15.
M500
G53 G0 Z0.
(2D CONTOUR1)
M1
N25 T3 M600
S24000 M300
G17 G90 G94
G54
G64 P0.01 Q0.01
G0 X-0.477 Y10.201
G43 Z15. H3
G0 Z5.
G1 Z0.8 F800.
Z0.65
X-0.469 Y10.203 Z0.572 F1300.
X-0.448 Y10.21 Z0.497
X-0.412 Y10.221 Z0.428
X-0.365 Y10.237 Z0.367
X-0.307 Y10.256 Z0.317
X-0.242 Y10.277 Z0.28
X-0.17 Y10.3 Z0.258
X-0.096 Y10.324 Z0.25
X0.284 Y10.448
G3 X0.541 Y10.952 I-0.124 J0.38
G2 X25.459 Y19.048 Z0. I12.459 J4.048
X0.541 Y10.952 Z-0.25 I-12.459 J-4.048
X25.459 Y19.048 Z-0.5 I12.459 J4.048
X0.541 Y10.952 Z-0.75 I-12.459 J-4.048
X25.459 Y19.048 Z-1. I12.459 J4.048
X0.541 Y10.952 Z-1.25 I-12.459 J-4.048
X25.459 Y19.048 Z-1.5 I12.459 J4.048
X0.541 Y10.952 Z-1.75 I-12.459 J-4.048
X25.459 Y19.048 Z-2. I12.459 J4.048
X0.541 Y10.952 Z-2.25 I-12.459 J-4.048
X25.459 Y19.048 Z-2.5 I12.459 J4.048
X0.541 Y10.952 Z-2.75 I-12.459 J-4.048
X13. Y28.1 Z-2.9 I12.459 J4.048
Y1.9 I0. J-13.1
Y28.1 I0. J13.1
G1 X13.031 Y28.094
X13.058 Y28.076
X13.075 Y28.05
X13.093 Y28.023
X13.119 Y28.006
X13.15 Y27.999
G2 X12.85 Y2.001 I-0.15 J-12.999
X0.105 Y16.646 I0.15 J12.999
X16.119 Y27.62 I12.895 J-1.646
G3 X16.604 Y27.913 I0.096 J0.388
G1 X16.7 Y28.301
X16.718 Y28.377 Z-2.892
X16.736 Y28.449 Z-2.87
X16.753 Y28.517 Z-2.833
X16.767 Y28.575 Z-2.783
X16.779 Y28.624 Z-2.722
X16.788 Y28.66 Z-2.653
X16.794 Y28.682 Z-2.578
X16.796 Y28.689 Z-2.5
G0 Z15.
(2D CONTOUR1)
G0 X26.523 Y10.201
Z15.
Z5.
G1 Z0.8 F800.
Z0.65
X26.531 Y10.203 Z0.572 F1300.
X26.552 Y10.21 Z0.497
X26.588 Y10.221 Z0.428
X26.635 Y10.237 Z0.367
X26.693 Y10.256 Z0.317
X26.758 Y10.277 Z0.28
X26.83 Y10.3 Z0.258
X26.904 Y10.324 Z0.25
X27.284 Y10.448
G3 X27.541 Y10.952 I-0.124 J0.38
G2 X52.459 Y19.048 Z0. I12.459 J4.048
X27.541 Y10.952 Z-0.25 I-12.459 J-4.048
X52.459 Y19.048 Z-0.5 I12.459 J4.048
X27.541 Y10.952 Z-0.75 I-12.459 J-4.048
X52.459 Y19.048 Z-1. I12.459 J4.048
X27.541 Y10.952 Z-1.25 I-12.459 J-4.048
X52.459 Y19.048 Z-1.5 I12.459 J4.048
X27.541 Y10.952 Z-1.75 I-12.459 J-4.048
X52.459 Y19.048 Z-2. I12.459 J4.048
X27.541 Y10.952 Z-2.25 I-12.459 J-4.048
X52.459 Y19.048 Z-2.5 I12.459 J4.048
X27.541 Y10.952 Z-2.75 I-12.459 J-4.048
X40. Y28.1 Z-2.9 I12.459 J4.048
Y1.9 I0. J-13.1
Y28.1 I0. J13.1
G1 X40.031 Y28.094
X40.058 Y28.076
X40.075 Y28.05
X40.093 Y28.023
X40.119 Y28.006
X40.15 Y27.999
G2 X39.85 Y2.001 I-0.15 J-12.999
X27.105 Y16.646 I0.15 J12.999
X43.119 Y27.62 I12.895 J-1.646
G3 X43.604 Y27.913 I0.096 J0.388
G1 X43.7 Y28.301
X43.718 Y28.377 Z-2.892
X43.736 Y28.449 Z-2.87
X43.753 Y28.517 Z-2.833
X43.767 Y28.575 Z-2.783
X43.779 Y28.624 Z-2.722
X43.788 Y28.66 Z-2.653
X43.794 Y28.682 Z-2.578
X43.796 Y28.689 Z-2.5
G0 Z15.
M500
G53 G0 Z0.
M30
%
