%
(DRAGON_TOOLHEADS_3X)
(T3 D=4. CR=0. - ZMIN=-3.2 - FLAT END MILL)
(T12 D=5. CR=0. TAPER=45DEG - ZMIN=-2.511 - CHAMFER MILL)
(T14 D=2.35 CR=0. - ZMIN=-2.963 - THREAD MILL)
(T18 D=4. CR=2. - ZMIN=-2.636 - BALL END MILL)
(T44 D=2.9 CR=0. TAPER=130DEG - ZMIN=-3.876 - DRILL)
(T45 D=3.2 CR=0. TAPER=165DEG - ZMIN=-3.711 - DRILL)
(T46 D=2.5 CR=0. TAPER=130DEG - ZMIN=-3.683 - DRILL)
G90 G94 G17 G91.1
G21
G53 G0 Z0.
(DRILL1)
T44 M600
S16465 M300
G17 G90 G94
G54
M7
G0 X19.343 Y19.307
G43 Z15. H44
G0 Z5.
Z2.
G1 Z-0.725 F494.
G0 Z-0.625
G1 Z-1.45 F494.
G0 Z-1.35
G1 Z-2.175 F494.
G0 Z-2.075
G1 Z-2.9 F494.
G0 Z-2.8
G1 Z-3.625 F494.
G0 Z-3.525
G1 Z-3.876 F494.
G0 Z5.
Y7.993
Z2.
G1 Z-0.725 F494.
G0 Z-0.625
G1 Z-1.45 F494.
G0 Z-1.35
G1 Z-2.175 F494.
G0 Z-2.075
G1 Z-2.9 F494.
G0 Z-2.8
G1 Z-3.625 F494.
G0 Z-3.525
G1 Z-3.876 F494.
G0 Z5.
X30.657
Z2.
G1 Z-0.725 F494.
G0 Z-0.625
G1 Z-1.45 F494.
G0 Z-1.35
G1 Z-2.175 F494.
G0 Z-2.075
G1 Z-2.9 F494.
G0 Z-2.8
G1 Z-3.625 F494.
G0 Z-3.525
G1 Z-3.876 F494.
G0 Z5.
Y19.307
Z2.
G1 Z-0.725 F494.
G0 Z-0.625
G1 Z-1.45 F494.
G0 Z-1.35
G1 Z-2.175 F494.
G0 Z-2.075
G1 Z-2.9 F494.
G0 Z-2.8
G1 Z-3.625 F494.
G0 Z-3.525
G1 Z-3.876 F494.
G0 Z5.
Z15.
(DRILL1)
G0 X69.593 Y19.307
Z15.
Z5.
Z2.
G1 Z-0.725 F494.
G0 Z-0.625
G1 Z-1.45 F494.
G0 Z-1.35
G1 Z-2.175 F494.
G0 Z-2.075
G1 Z-2.9 F494.
G0 Z-2.8
G1 Z-3.625 F494.
G0 Z-3.525
G1 Z-3.876 F494.
G0 Z5.
Y7.993
Z2.
G1 Z-0.725 F494.
G0 Z-0.625
G1 Z-1.45 F494.
G0 Z-1.35
G1 Z-2.175 F494.
G0 Z-2.075
G1 Z-2.9 F494.
G0 Z-2.8
G1 Z-3.625 F494.
G0 Z-3.525
G1 Z-3.876 F494.
G0 Z5.
X80.907
Z2.
G1 Z-0.725 F494.
G0 Z-0.625
G1 Z-1.45 F494.
G0 Z-1.35
G1 Z-2.175 F494.
G0 Z-2.075
G1 Z-2.9 F494.
G0 Z-2.8
G1 Z-3.625 F494.
G0 Z-3.525
G1 Z-3.876 F494.
G0 Z5.
Y19.307
Z2.
G1 Z-0.725 F494.
G0 Z-0.625
G1 Z-1.45 F494.
G0 Z-1.35
G1 Z-2.175 F494.
G0 Z-2.075
G1 Z-2.9 F494.
G0 Z-2.8
G1 Z-3.625 F494.
G0 Z-3.525
G1 Z-3.876 F494.
G0 Z5.
Z15.
(DRILL1)
G0 X119.843 Y19.307
Z15.
Z5.
Z2.
G1 Z-0.725 F494.
G0 Z-0.625
G1 Z-1.45 F494.
G0 Z-1.35
G1 Z-2.175 F494.
G0 Z-2.075
G1 Z-2.9 F494.
G0 Z-2.8
G1 Z-3.625 F494.
G0 Z-3.525
G1 Z-3.876 F494.
G0 Z5.
Y7.993
Z2.
G1 Z-0.725 F494.
G0 Z-0.625
G1 Z-1.45 F494.
G0 Z-1.35
G1 Z-2.175 F494.
G0 Z-2.075
G1 Z-2.9 F494.
G0 Z-2.8
G1 Z-3.625 F494.
G0 Z-3.525
G1 Z-3.876 F494.
G0 Z5.
X131.157
Z2.
G1 Z-0.725 F494.
G0 Z-0.625
G1 Z-1.45 F494.
G0 Z-1.35
G1 Z-2.175 F494.
G0 Z-2.075
G1 Z-2.9 F494.
G0 Z-2.8
G1 Z-3.625 F494.
G0 Z-3.525
G1 Z-3.876 F494.
G0 Z5.
Y19.307
Z2.
G1 Z-0.725 F494.
G0 Z-0.625
G1 Z-1.45 F494.
G0 Z-1.35
G1 Z-2.175 F494.
G0 Z-2.075
G1 Z-2.9 F494.
G0 Z-2.8
G1 Z-3.625 F494.
G0 Z-3.525
G1 Z-3.876 F494.
G0 Z5.
Z15.
M9
M500
G53 G0 Z0.
(DRILL2)
M1
T45 M600
S14921 M300
G17 G90 G94
G54
G0 X40. Y22.05
G43 Z15. H45
G0 Z5.
Z2.
G1 Z-0.8 F149.21
G0 Z-0.7
G1 Z-1.6 F149.21
G0 Z-1.5
G1 Z-2.4 F149.21
G0 Z-2.3
G1 Z-3.2 F149.21
G0 Z-3.1
G1 Z-3.711 F149.21
G0 Z5.
X32.5 Y30.45
Z2.
G1 Z-0.8 F149.21
G0 Z-0.7
G1 Z-1.6 F149.21
G0 Z-1.5
G1 Z-2.4 F149.21
G0 Z-2.3
G1 Z-3.2 F149.21
G0 Z-3.1
G1 Z-3.711 F149.21
G0 Z5.
X25. Y13.65
Z2.
G1 Z-0.8 F149.21
G0 Z-0.7
G1 Z-1.6 F149.21
G0 Z-1.5
G1 Z-2.4 F149.21
G0 Z-2.3
G1 Z-3.2 F149.21
G0 Z-3.1
G1 Z-3.711 F149.21
G0 Z5.
X10. Y22.05
Z2.
G1 Z-0.8 F149.21
G0 Z-0.7
G1 Z-1.6 F149.21
G0 Z-1.5
G1 Z-2.4 F149.21
G0 Z-2.3
G1 Z-3.2 F149.21
G0 Z-3.1
G1 Z-3.711 F149.21
G0 Z5.
X17.5 Y30.45
Z2.
G1 Z-0.8 F149.21
G0 Z-0.7
G1 Z-1.6 F149.21
G0 Z-1.5
G1 Z-2.4 F149.21
G0 Z-2.3
G1 Z-3.2 F149.21
G0 Z-3.1
G1 Z-3.711 F149.21
G0 Z5.
Y50.45
Z2.
G1 Z-0.8 F149.21
G0 Z-0.7
G1 Z-1.6 F149.21
G0 Z-1.5
G1 Z-2.4 F149.21
G0 Z-2.3
G1 Z-3.2 F149.21
G0 Z-3.1
G1 Z-3.711 F149.21
G0 Z5.
X32.5
Z2.
G1 Z-0.8 F149.21
G0 Z-0.7
G1 Z-1.6 F149.21
G0 Z-1.5
G1 Z-2.4 F149.21
G0 Z-2.3
G1 Z-3.2 F149.21
G0 Z-3.1
G1 Z-3.711 F149.21
G0 Z5.
X35. Y62.85
Z2.
G1 Z-0.8 F149.21
G0 Z-0.7
G1 Z-1.6 F149.21
G0 Z-1.5
G1 Z-2.4 F149.21
G0 Z-2.3
G1 Z-3.2 F149.21
G0 Z-3.1
G1 Z-3.711 F149.21
G0 Z5.
X41. Y70.75
Z2.
G1 Z-0.8 F149.21
G0 Z-0.7
G1 Z-1.6 F149.21
G0 Z-1.5
G1 Z-2.4 F149.21
G0 Z-2.3
G1 Z-3.2 F149.21
G0 Z-3.1
G1 Z-3.711 F149.21
G0 Z5.
X15. Y62.85
Z2.
G1 Z-0.8 F149.21
G0 Z-0.7
G1 Z-1.6 F149.21
G0 Z-1.5
G1 Z-2.4 F149.21
G0 Z-2.3
G1 Z-3.2 F149.21
G0 Z-3.1
G1 Z-3.711 F149.21
G0 Z5.
X9. Y70.75
Z2.
G1 Z-0.8 F149.21
G0 Z-0.7
G1 Z-1.6 F149.21
G0 Z-1.5
G1 Z-2.4 F149.21
G0 Z-2.3
G1 Z-3.2 F149.21
G0 Z-3.1
G1 Z-3.711 F149.21
G0 Z5.
Y102.75
Z2.
G1 Z-0.8 F149.21
G0 Z-0.7
G1 Z-1.6 F149.21
G0 Z-1.5
G1 Z-2.4 F149.21
G0 Z-2.3
G1 Z-3.2 F149.21
G0 Z-3.1
G1 Z-3.711 F149.21
G0 Z5.
X41.
Z2.
G1 Z-0.8 F149.21
G0 Z-0.7
G1 Z-1.6 F149.21
G0 Z-1.5
G1 Z-2.4 F149.21
G0 Z-2.3
G1 Z-3.2 F149.21
G0 Z-3.1
G1 Z-3.711 F149.21
G0 Z5.
Z15.
(DRILL2)
G0 X90.25 Y22.05
Z15.
Z5.
Z2.
G1 Z-0.8 F149.21
G0 Z-0.7
G1 Z-1.6 F149.21
G0 Z-1.5
G1 Z-2.4 F149.21
G0 Z-2.3
G1 Z-3.2 F149.21
G0 Z-3.1
G1 Z-3.711 F149.21
G0 Z5.
X82.75 Y30.45
Z2.
G1 Z-0.8 F149.21
G0 Z-0.7
G1 Z-1.6 F149.21
G0 Z-1.5
G1 Z-2.4 F149.21
G0 Z-2.3
G1 Z-3.2 F149.21
G0 Z-3.1
G1 Z-3.711 F149.21
G0 Z5.
X75.25 Y13.65
Z2.
G1 Z-0.8 F149.21
G0 Z-0.7
G1 Z-1.6 F149.21
G0 Z-1.5
G1 Z-2.4 F149.21
G0 Z-2.3
G1 Z-3.2 F149.21
G0 Z-3.1
G1 Z-3.711 F149.21
G0 Z5.
X60.25 Y22.05
Z2.
G1 Z-0.8 F149.21
G0 Z-0.7
G1 Z-1.6 F149.21
G0 Z-1.5
G1 Z-2.4 F149.21
G0 Z-2.3
G1 Z-3.2 F149.21
G0 Z-3.1
G1 Z-3.711 F149.21
G0 Z5.
X67.75 Y30.45
Z2.
G1 Z-0.8 F149.21
G0 Z-0.7
G1 Z-1.6 F149.21
G0 Z-1.5
G1 Z-2.4 F149.21
G0 Z-2.3
G1 Z-3.2 F149.21
G0 Z-3.1
G1 Z-3.711 F149.21
G0 Z5.
Y50.45
Z2.
G1 Z-0.8 F149.21
G0 Z-0.7
G1 Z-1.6 F149.21
G0 Z-1.5
G1 Z-2.4 F149.21
G0 Z-2.3
G1 Z-3.2 F149.21
G0 Z-3.1
G1 Z-3.711 F149.21
G0 Z5.
X82.75
Z2.
G1 Z-0.8 F149.21
G0 Z-0.7
G1 Z-1.6 F149.21
G0 Z-1.5
G1 Z-2.4 F149.21
G0 Z-2.3
G1 Z-3.2 F149.21
G0 Z-3.1
G1 Z-3.711 F149.21
G0 Z5.
X85.25 Y62.85
Z2.
G1 Z-0.8 F149.21
G0 Z-0.7
G1 Z-1.6 F149.21
G0 Z-1.5
G1 Z-2.4 F149.21
G0 Z-2.3
G1 Z-3.2 F149.21
G0 Z-3.1
G1 Z-3.711 F149.21
G0 Z5.
X91.25 Y70.75
Z2.
G1 Z-0.8 F149.21
G0 Z-0.7
G1 Z-1.6 F149.21
G0 Z-1.5
G1 Z-2.4 F149.21
G0 Z-2.3
G1 Z-3.2 F149.21
G0 Z-3.1
G1 Z-3.711 F149.21
G0 Z5.
X65.25 Y62.85
Z2.
G1 Z-0.8 F149.21
G0 Z-0.7
G1 Z-1.6 F149.21
G0 Z-1.5
G1 Z-2.4 F149.21
G0 Z-2.3
G1 Z-3.2 F149.21
G0 Z-3.1
G1 Z-3.711 F149.21
G0 Z5.
X59.25 Y70.75
Z2.
G1 Z-0.8 F149.21
G0 Z-0.7
G1 Z-1.6 F149.21
G0 Z-1.5
G1 Z-2.4 F149.21
G0 Z-2.3
G1 Z-3.2 F149.21
G0 Z-3.1
G1 Z-3.711 F149.21
G0 Z5.
Y102.75
Z2.
G1 Z-0.8 F149.21
G0 Z-0.7
G1 Z-1.6 F149.21
G0 Z-1.5
G1 Z-2.4 F149.21
G0 Z-2.3
G1 Z-3.2 F149.21
G0 Z-3.1
G1 Z-3.711 F149.21
G0 Z5.
X91.25
Z2.
G1 Z-0.8 F149.21
G0 Z-0.7
G1 Z-1.6 F149.21
G0 Z-1.5
G1 Z-2.4 F149.21
G0 Z-2.3
G1 Z-3.2 F149.21
G0 Z-3.1
G1 Z-3.711 F149.21
G0 Z5.
Z15.
(DRILL2)
G0 X140.5 Y22.05
Z15.
Z5.
Z2.
G1 Z-0.8 F149.21
G0 Z-0.7
G1 Z-1.6 F149.21
G0 Z-1.5
G1 Z-2.4 F149.21
G0 Z-2.3
G1 Z-3.2 F149.21
G0 Z-3.1
G1 Z-3.711 F149.21
G0 Z5.
X133. Y30.45
Z2.
G1 Z-0.8 F149.21
G0 Z-0.7
G1 Z-1.6 F149.21
G0 Z-1.5
G1 Z-2.4 F149.21
G0 Z-2.3
G1 Z-3.2 F149.21
G0 Z-3.1
G1 Z-3.711 F149.21
G0 Z5.
X125.5 Y13.65
Z2.
G1 Z-0.8 F149.21
G0 Z-0.7
G1 Z-1.6 F149.21
G0 Z-1.5
G1 Z-2.4 F149.21
G0 Z-2.3
G1 Z-3.2 F149.21
G0 Z-3.1
G1 Z-3.711 F149.21
G0 Z5.
X110.5 Y22.05
Z2.
G1 Z-0.8 F149.21
G0 Z-0.7
G1 Z-1.6 F149.21
G0 Z-1.5
G1 Z-2.4 F149.21
G0 Z-2.3
G1 Z-3.2 F149.21
G0 Z-3.1
G1 Z-3.711 F149.21
G0 Z5.
X118. Y30.45
Z2.
G1 Z-0.8 F149.21
G0 Z-0.7
G1 Z-1.6 F149.21
G0 Z-1.5
G1 Z-2.4 F149.21
G0 Z-2.3
G1 Z-3.2 F149.21
G0 Z-3.1
G1 Z-3.711 F149.21
G0 Z5.
Y50.45
Z2.
G1 Z-0.8 F149.21
G0 Z-0.7
G1 Z-1.6 F149.21
G0 Z-1.5
G1 Z-2.4 F149.21
G0 Z-2.3
G1 Z-3.2 F149.21
G0 Z-3.1
G1 Z-3.711 F149.21
G0 Z5.
X133.
Z2.
G1 Z-0.8 F149.21
G0 Z-0.7
G1 Z-1.6 F149.21
G0 Z-1.5
G1 Z-2.4 F149.21
G0 Z-2.3
G1 Z-3.2 F149.21
G0 Z-3.1
G1 Z-3.711 F149.21
G0 Z5.
X135.5 Y62.85
Z2.
G1 Z-0.8 F149.21
G0 Z-0.7
G1 Z-1.6 F149.21
G0 Z-1.5
G1 Z-2.4 F149.21
G0 Z-2.3
G1 Z-3.2 F149.21
G0 Z-3.1
G1 Z-3.711 F149.21
G0 Z5.
X141.5 Y70.75
Z2.
G1 Z-0.8 F149.21
G0 Z-0.7
G1 Z-1.6 F149.21
G0 Z-1.5
G1 Z-2.4 F149.21
G0 Z-2.3
G1 Z-3.2 F149.21
G0 Z-3.1
G1 Z-3.711 F149.21
G0 Z5.
X115.5 Y62.85
Z2.
G1 Z-0.8 F149.21
G0 Z-0.7
G1 Z-1.6 F149.21
G0 Z-1.5
G1 Z-2.4 F149.21
G0 Z-2.3
G1 Z-3.2 F149.21
G0 Z-3.1
G1 Z-3.711 F149.21
G0 Z5.
X109.5 Y70.75
Z2.
G1 Z-0.8 F149.21
G0 Z-0.7
G1 Z-1.6 F149.21
G0 Z-1.5
G1 Z-2.4 F149.21
G0 Z-2.3
G1 Z-3.2 F149.21
G0 Z-3.1
G1 Z-3.711 F149.21
G0 Z5.
Y102.75
Z2.
G1 Z-0.8 F149.21
G0 Z-0.7
G1 Z-1.6 F149.21
G0 Z-1.5
G1 Z-2.4 F149.21
G0 Z-2.3
G1 Z-3.2 F149.21
G0 Z-3.1
G1 Z-3.711 F149.21
G0 Z5.
X141.5
Z2.
G1 Z-0.8 F149.21
G0 Z-0.7
G1 Z-1.6 F149.21
G0 Z-1.5
G1 Z-2.4 F149.21
G0 Z-2.3
G1 Z-3.2 F149.21
G0 Z-3.1
G1 Z-3.711 F149.21
G0 Z5.
Z15.
M500
G53 G0 Z0.
(DRILL3)
M1
T46 M600
S19099 M300
G17 G90 G94
G54
M7
G0 X42.5 Y13.65
G43 Z15. H46
G0 Z5.
Z2.
G1 Z-0.625 F572.96
G0 Z-0.525
G1 Z-1.25 F572.96
G0 Z-1.15
G1 Z-1.875 F572.96
G0 Z-1.775
G1 Z-2.5 F572.96
G0 Z-2.4
G1 Z-3.125 F572.96
G0 Z-3.025
G1 Z-3.683 F572.96
G0 Z5.
X5.5
Z2.
G1 Z-0.625 F572.96
G0 Z-0.525
G1 Z-1.25 F572.96
G0 Z-1.15
G1 Z-1.875 F572.96
G0 Z-1.775
G1 Z-2.5 F572.96
G0 Z-2.4
G1 Z-3.125 F572.96
G0 Z-3.025
G1 Z-3.683 F572.96
G0 Z5.
Z15.
(DRILL3)
G0 X92.75 Y13.65
Z15.
Z5.
Z2.
G1 Z-0.625 F572.96
G0 Z-0.525
G1 Z-1.25 F572.96
G0 Z-1.15
G1 Z-1.875 F572.96
G0 Z-1.775
G1 Z-2.5 F572.96
G0 Z-2.4
G1 Z-3.125 F572.96
G0 Z-3.025
G1 Z-3.683 F572.96
G0 Z5.
X55.75
Z2.
G1 Z-0.625 F572.96
G0 Z-0.525
G1 Z-1.25 F572.96
G0 Z-1.15
G1 Z-1.875 F572.96
G0 Z-1.775
G1 Z-2.5 F572.96
G0 Z-2.4
G1 Z-3.125 F572.96
G0 Z-3.025
G1 Z-3.683 F572.96
G0 Z5.
Z15.
(DRILL3)
G0 X143. Y13.65
Z15.
Z5.
Z2.
G1 Z-0.625 F572.96
G0 Z-0.525
G1 Z-1.25 F572.96
G0 Z-1.15
G1 Z-1.875 F572.96
G0 Z-1.775
G1 Z-2.5 F572.96
G0 Z-2.4
G1 Z-3.125 F572.96
G0 Z-3.025
G1 Z-3.683 F572.96
G0 Z5.
X106.
Z2.
G1 Z-0.625 F572.96
G0 Z-0.525
G1 Z-1.25 F572.96
G0 Z-1.15
G1 Z-1.875 F572.96
G0 Z-1.775
G1 Z-2.5 F572.96
G0 Z-2.4
G1 Z-3.125 F572.96
G0 Z-3.025
G1 Z-3.683 F572.96
G0 Z5.
Z15.
M9
M500
G53 G0 Z0.
(BORE1)
M1
T3 M600
S24000 M300
G17 G90 G94
G54
G64 P0.01 Q0.01
G0 X25. Y13.65
G43 Z15. H3
G0 Z2.1
G1 Z0.5 F1000.
X25.025 Y13.625
X25.043 Y13.632
X25.05 Y13.65
X25.042 Y13.677 Z0.474
X25.021 Y13.695 Z0.448
X24.994 Y13.7 Z0.422
X24.968 Y13.688 Z0.397
X24.952 Y13.665 Z0.371
Y13.637 Z0.345
X24.966 Y13.613 Z0.319
X24.991 Y13.601 Z0.293
X25.019 Y13.604 Z0.267
X25.041 Y13.621 Z0.241
X25.05 Y13.648 Z0.215
X25.043 Y13.675 Z0.19
X25.023 Y13.694 Z0.164
X24.996 Y13.7 Z0.138
X24.97 Y13.69 Z0.112
X24.953 Y13.667 Z0.086
X24.951 Y13.639 Z0.06
X24.965 Y13.615 Z0.034
X24.989 Y13.601 Z0.008
X25.017 Y13.603 Z-0.017
X25.04 Y13.619 Z-0.043
X25.05 Y13.645 Z-0.069
X25.044 Y13.673 Z-0.095
X25.025 Y13.693 Z-0.121
X24.998 Y13.7 Z-0.147
X24.972 Y13.691 Z-0.173
X24.954 Y13.669 Z-0.199
X24.951 Y13.642 Z-0.224
X24.963 Y13.616 Z-0.25
X24.987 Y13.602 Z-0.276
X25.015 Z-0.302
X25.038 Y13.618 Z-0.328
X25.05 Y13.643 Z-0.354
X25.045 Y13.671 Z-0.38
X25.027 Y13.692 Z-0.406
X25. Y13.7 Z-0.431
X24.973 Y13.692 Z-0.457
X24.955 Y13.671 Z-0.483
X24.95 Y13.644 Z-0.509
X24.961 Y13.618 Z-0.535
X24.985 Y13.602 Z-0.561
X25.013 Z-0.587
X25.037 Y13.616 Z-0.613
X25.049 Y13.641 Z-0.638
X25.046 Y13.669 Z-0.664
X25.029 Y13.691 Z-0.69
X25.003 Y13.7 Z-0.716
X24.975 Y13.694 Z-0.742
X24.956 Y13.673 Z-0.768
X24.95 Y13.646 Z-0.794
X24.96 Y13.62 Z-0.82
X24.982 Y13.603 Z-0.845
X25.01 Y13.601 Z-0.871
X25.035 Y13.614 Z-0.897
X25.049 Y13.639 Z-0.923
X25.047 Y13.667 Z-0.949
X25.031 Y13.689 Z-0.975
X25.005 Y13.7 Z-1.001
X24.977 Y13.695 Z-1.027
X24.957 Y13.675 Z-1.052
X24.95 Y13.648 Z-1.078
X24.959 Y13.622 Z-1.104
X24.98 Y13.604 Z-1.13
X25.008 Y13.601 Z-1.156
X25.033 Y13.613 Z-1.182
X25.048 Y13.636 Z-1.208
Y13.664 Z-1.234
X25.033 Y13.688 Z-1.259
X25.007 Y13.699 Z-1.285
X24.979 Y13.696 Z-1.311
X24.958 Y13.677 Z-1.337
X24.95 Y13.651 Z-1.363
X24.957 Y13.624 Z-1.389
X24.978 Y13.605 Z-1.415
X25.006 Y13.6 Z-1.441
X25.032 Y13.611 Z-1.466
X25.047 Y13.634 Z-1.492
X25.048 Y13.662 Z-1.518
X25.034 Y13.686 Z-1.544
X25.009 Y13.699 Z-1.57
X24.982 Y13.696 Z-1.596
X24.959 Y13.679 Z-1.622
X24.95 Y13.653 Z-1.648
X24.956 Y13.626 Z-1.673
X24.976 Y13.606 Z-1.699
X25.004 Y13.6 Z-1.725
X25.03 Y13.61 Z-1.751
X25.047 Y13.632 Z-1.777
X25.049 Y13.66 Z-1.803
X25.036 Y13.685 Z-1.829
X25.012 Y13.699 Z-1.855
X24.984 Y13.697 Z-1.88
X24.961 Y13.681 Z-1.906
X24.95 Y13.655 Z-1.932
X24.955 Y13.628 Z-1.958
X24.974 Y13.607 Z-1.984
X25.001 Y13.6 Z-2.01
X25.028 Y13.609 Z-2.036
X25.046 Y13.63 Z-2.062
X25.049 Y13.658 Z-2.087
X25.037 Y13.683 Z-2.113
X25.014 Y13.698 Z-2.139
X24.986 Z-2.165
X24.962 Y13.683 Z-2.191
X24.951 Y13.657 Z-2.217
X24.954 Y13.63 Z-2.243
X24.972 Y13.608 Z-2.269
X24.999 Y13.6 Z-2.294
X25.026 Y13.607 Z-2.32
X25.045 Y13.628 Z-2.346
X25.05 Y13.655 Z-2.372
X25.039 Y13.681 Z-2.398
X25.016 Y13.697 Z-2.424
X24.988 Y13.699 Z-2.45
X24.964 Y13.685 Z-2.476
X24.951 Y13.66 Z-2.501
X24.953 Y13.632 Z-2.527
X24.97 Y13.61 Z-2.553
X24.997 Y13.6 Z-2.579
X25.024 Y13.606 Z-2.605
X25.044 Y13.626 Z-2.631
X25.05 Y13.653 Z-2.657
X25.04 Y13.68 Z-2.683
X25.018 Y13.697 Z-2.708
X24.99 Y13.699 Z-2.734
X24.965 Y13.686 Z-2.76
X24.951 Y13.662 Z-2.786
X24.953 Y13.634 Z-2.812
X24.969 Y13.611 Z-2.838
X24.994 Y13.6 Z-2.864
X25.022 Y13.605 Z-2.89
X25.043 Y13.624 Z-2.915
X25.05 Y13.651 Z-2.941
X25.042 Y13.678 Z-2.967
X25.02 Y13.696 Z-2.993
X24.993 Y13.699 Z-3.019
X24.967 Y13.688 Z-3.045
X24.952 Y13.664 Z-3.071
Y13.636 Z-3.097
X24.967 Y13.613 Z-3.122
X24.992 Y13.601 Z-3.148
X25.02 Y13.604 Z-3.174
X25.041 Y13.622 Z-3.2
G3 X24.959 Y13.678 I-0.041 J0.028
X25.041 Y13.622 I0.041 J-0.028
G1 X25.045 Y13.641
X25.035 Y13.657
X25. Y13.65
G0 Z15.
(2D ADAPTIVE1)
G64 P0.1 Q0.1
G0 X23.036 Y86.608
Z12.
Z2.51
Z2.5
G3 X25.811 Y84.955 Z2.368 I1.964 J0.142 F333.33
X26.404 Y88.127 Z2.235 I-0.81 J1.792
X23.226 Y87.589 Z2.103 I-1.401 J-1.378
X24.826 Y84.796 Z1.971 I1.774 J-0.838
X26.893 Y87.258 Z1.839 I0.174 J1.952
X23.872 Y88.347 Z1.706 I-1.89 J-0.51
X23.893 Y85.14 Z1.574 I1.129 J-1.596
X26.892 Y86.265 Z1.442 I1.107 J1.609
X24.804 Y88.689 Z1.31 I-1.89 J0.483
X23.251 Y85.895 Z1.177 I0.198 J-1.938
X26.405 Y85.403 Z1.045 I1.749 J0.854
X25.779 Y88.529 Z0.913 I-1.404 J1.345
X23.064 Y86.865 Z0.781 I-0.777 J-1.779
X25.56 Y84.893 Z0.648 I1.936 J-0.115
X26.548 Y87.913 Z0.516 I-0.559 J1.854
X23.377 Y87.798 Z0.384 I-1.546 J-1.164
X24.578 Y84.865 Z0.252 I1.624 J-1.048
X26.914 Y87.002 Z0.119 I0.423 J1.883
X24.105 Y88.455 Z-0.013 I-1.911 J-0.253
X23.711 Y85.321 Z-0.145 I0.896 J-1.704
X26.784 Y86.032 Z-0.277 I1.289 J1.427
X25.059 Y88.668 Z-0.41 I-1.782 J0.716
X23.183 Y86.142 Z-0.542 I-0.057 J-1.918
X26.197 Y85.254 Z-0.674 I1.817 J0.608
X25.991 Y88.386 Z-0.806 I-1.196 J1.494
X23.126 Y87.113 Z-0.939 I-0.988 J-1.636
X25.307 Y84.866 Z-1.071 I1.875 J-0.363
X26.662 Y87.685 Z-1.203 I-0.306 J1.882
X23.552 Y87.983 Z-1.335 I-1.659 J-0.936
X24.344 Y84.965 Z-1.468 I1.449 J-1.232
X26.9 Y86.748 Z-1.6 I0.656 J1.783
X23.1 I-1.9 J0.
X26.9 I1.9 J0.
G1 X26.916 Y87.506 F1000.
X26.937 Y87.598
X26.951 Y87.748
X26.941 Y87.897
X26.912 Y88.044
X26.865 Y88.187
X26.803 Y88.324
X26.728 Y88.454
X26.642 Y88.577
X26.546 Y88.692
X26.441 Y88.798
X26.328 Y88.897
X26.207 Y88.987
X26.081 Y89.067
X25.949 Y89.139
X25.813 Y89.201
X25.673 Y89.255
X25.529 Y89.298
X25.382 Y89.333
X25.231 Y89.359
X25.077 Y89.375
X24.921 Y89.381
X24.763 Y89.377
X24.604 Y89.363
X24.445 Y89.339
X24.286 Y89.304
X24.13 Y89.259
X23.975 Y89.204
X23.824 Y89.138
X23.677 Y89.063
X23.534 Y88.978
X23.396 Y88.884
X23.264 Y88.78
X23.139 Y88.669
X23.02 Y88.549
X22.91 Y88.421
X22.807 Y88.287
X22.713 Y88.145
X22.629 Y87.998
X22.553 Y87.846
X22.488 Y87.688
X22.433 Y87.527
X22.388 Y87.363
X22.354 Y87.195
X22.33 Y87.026
X22.317 Y86.855
X22.316 Y86.684
X22.325 Y86.513
X22.345 Y86.343
X22.376 Y86.174
X22.418 Y86.008
X22.47 Y85.844
X22.533 Y85.685
X22.606 Y85.529
X22.688 Y85.379
X22.78 Y85.234
X22.882 Y85.095
X22.992 Y84.963
X23.11 Y84.838
X23.236 Y84.721
X23.369 Y84.612
X23.509 Y84.512
X23.655 Y84.421
X23.806 Y84.34
X23.963 Y84.269
X24.123 Y84.207
X24.288 Y84.156
X24.455 Y84.116
X24.624 Y84.087
X24.795 Y84.068
X24.967 Y84.06
X25.139 Y84.064
X25.311 Y84.078
X25.481 Y84.103
X25.649 Y84.14
X25.815 Y84.186
X25.977 Y84.244
X26.135 Y84.311
X26.289 Y84.389
X26.437 Y84.476
X26.579 Y84.573
X26.715 Y84.678
X26.844 Y84.792
X26.966 Y84.914
X27.079 Y85.044
X27.184 Y85.18
X27.28 Y85.323
X27.367 Y85.473
X27.458 Y85.656
X27.568 Y85.917
X27.689 Y86.266
X27.764 Y86.536
X27.813 Y86.77
X27.844 Y86.984
X27.86 Y87.19
X27.863 Y87.388
X27.854 Y87.575
X27.833 Y87.755
X27.801 Y87.933
X27.758 Y88.108
X27.704 Y88.279
X27.64 Y88.444
X27.566 Y88.604
X27.482 Y88.76
X27.386 Y88.911
X27.28 Y89.058
X27.164 Y89.199
X27.038 Y89.333
X26.902 Y89.46
X26.757 Y89.58
X26.603 Y89.691
X26.44 Y89.793
X26.269 Y89.886
X26.091 Y89.968
X25.907 Y90.039
X25.716 Y90.099
X25.52 Y90.148
X25.32 Y90.183
X25.116 Y90.206
X24.908 Y90.217
X24.699 Y90.213
X24.489 Y90.197
X24.28 Y90.166
X24.071 Y90.122
X23.864 Y90.065
X23.66 Y89.994
X23.46 Y89.909
X23.265 Y89.812
X23.076 Y89.702
X22.894 Y89.579
X22.719 Y89.445
X22.552 Y89.299
X22.395 Y89.142
X22.248 Y88.976
X22.112 Y88.799
X21.986 Y88.614
X21.873 Y88.421
X21.772 Y88.221
X21.684 Y88.014
X21.609 Y87.802
X21.548 Y87.585
X21.501 Y87.365
X21.468 Y87.141
X21.449 Y86.916
X21.445 Y86.69
X21.455 Y86.463
X21.479 Y86.238
X21.519 Y86.015
X21.572 Y85.794
X21.639 Y85.577
X21.72 Y85.365
X21.815 Y85.159
X21.923 Y84.959
X22.043 Y84.766
X22.175 Y84.581
X22.319 Y84.404
X22.474 Y84.238
X22.64 Y84.081
X22.815 Y83.936
X22.999 Y83.802
X23.191 Y83.68
X23.391 Y83.571
X23.598 Y83.474
X23.81 Y83.391
X24.027 Y83.322
X24.248 Y83.266
X24.472 Y83.225
X24.698 Y83.199
X24.926 Y83.187
X25.154 Y83.189
X25.381 Y83.206
X25.607 Y83.238
X25.83 Y83.284
X26.05 Y83.344
X26.266 Y83.418
X26.476 Y83.506
X26.681 Y83.607
X26.878 Y83.721
X27.068 Y83.847
X27.25 Y83.986
X27.425 Y84.138
X27.596 Y84.307
X27.762 Y84.493
X27.934 Y84.713
X28.097 Y84.952
X28.246 Y85.203
X28.377 Y85.46
X28.49 Y85.722
X28.584 Y85.986
X28.66 Y86.25
X28.718 Y86.513
X28.757 Y86.774
X28.78 Y87.033
X28.786 Y87.289
X28.776 Y87.541
X28.749 Y87.789
X28.708 Y88.033
X28.651 Y88.271
X28.58 Y88.505
X28.494 Y88.732
X28.394 Y88.954
X28.279 Y89.169
X28.151 Y89.376
X28.01 Y89.576
X27.855 Y89.766
X27.688 Y89.947
X27.509 Y90.118
X27.319 Y90.278
X27.117 Y90.426
X26.905 Y90.561
X26.684 Y90.684
X26.453 Y90.793
X26.215 Y90.888
X25.969 Y90.967
X25.717 Y91.032
X25.459 Y91.08
X25.198 Y91.112
X24.933 Y91.127
X24.666 Y91.125
X24.399 Y91.106
X24.131 Y91.07
X23.866 Y91.016
X23.603 Y90.946
X23.344 Y90.858
X23.09 Y90.753
X22.842 Y90.632
X22.602 Y90.495
X22.37 Y90.342
X22.148 Y90.174
X21.936 Y89.992
X21.736 Y89.796
X21.548 Y89.587
X21.374 Y89.366
X21.214 Y89.134
X21.068 Y88.891
X20.939 Y88.64
X20.825 Y88.38
X20.729 Y88.113
X20.649 Y87.84
X20.587 Y87.562
X20.543 Y87.28
X20.517 Y86.996
X20.509 Y86.711
X20.519 Y86.425
X20.548 Y86.14
X20.595 Y85.858
X20.66 Y85.579
X20.743 Y85.305
X20.843 Y85.036
X20.96 Y84.774
X21.094 Y84.52
X21.243 Y84.275
X21.409 Y84.04
X21.588 Y83.816
X21.782 Y83.604
X21.99 Y83.404
X22.209 Y83.219
X22.44 Y83.047
X22.682 Y82.891
X22.933 Y82.751
X23.193 Y82.627
X23.46 Y82.519
X23.733 Y82.43
X24.012 Y82.357
X24.295 Y82.303
X24.58 Y82.267
X24.868 Y82.249
X25.156 Y82.25
X25.443 Y82.269
X25.729 Y82.306
X26.012 Y82.362
X26.29 Y82.436
X26.563 Y82.527
X26.831 Y82.636
X27.092 Y82.762
X27.348 Y82.907
X27.598 Y83.07
X27.842 Y83.253
X28.079 Y83.455
X28.308 Y83.678
X28.527 Y83.919
X28.732 Y84.177
X28.922 Y84.45
X29.095 Y84.735
X29.248 Y85.03
X29.382 Y85.334
X29.496 Y85.643
X29.589 Y85.957
X29.661 Y86.274
X29.713 Y86.592
X29.743 Y86.91
X29.753 Y87.227
X29.743 Y87.542
X29.713 Y87.853
X29.663 Y88.16
X29.595 Y88.462
X29.507 Y88.759
X29.4 Y89.048
X29.276 Y89.33
X29.133 Y89.603
X28.974 Y89.866
X28.797 Y90.12
X28.605 Y90.361
X28.397 Y90.591
X28.174 Y90.807
X27.937 Y91.01
X27.686 Y91.197
X27.423 Y91.369
X27.148 Y91.524
X26.862 Y91.662
X26.567 Y91.783
X26.263 Y91.884
X25.951 Y91.966
X25.634 Y92.029
X25.311 Y92.071
X24.985 Y92.092
X24.657 Y92.093
X24.328 Y92.073
X23.999 Y92.031
X23.673 Y91.968
X23.35 Y91.884
X23.031 Y91.779
X22.719 Y91.654
X22.415 Y91.508
X22.12 Y91.343
X21.835 Y91.159
X21.562 Y90.956
X21.301 Y90.736
X21.055 Y90.499
X20.824 Y90.246
X20.609 Y89.978
X20.411 Y89.696
X20.231 Y89.402
X20.07 Y89.097
X19.929 Y88.781
X19.808 Y88.456
X19.709 Y88.124
X19.63 Y87.786
X19.573 Y87.443
X19.538 Y87.097
X19.526 Y86.749
X19.535 Y86.401
X19.567 Y86.054
X19.622 Y85.709
X19.698 Y85.368
X19.796 Y85.033
X19.915 Y84.705
X20.055 Y84.384
X20.215 Y84.073
X20.395 Y83.773
X20.594 Y83.485
X20.811 Y83.21
X21.045 Y82.949
X21.296 Y82.704
X21.561 Y82.476
X21.841 Y82.264
X22.134 Y82.071
X22.439 Y81.898
X22.754 Y81.744
X23.078 Y81.61
X23.411 Y81.497
X23.749 Y81.406
X24.094 Y81.337
X24.441 Y81.29
X24.792 Y81.266
X25.143 Y81.263
X25.493 Y81.284
X25.842 Y81.326
X26.187 Y81.391
X26.529 Y81.478
X26.867 Y81.588
X27.199 Y81.72
X27.525 Y81.874
X27.844 Y82.051
X28.155 Y82.25
X28.457 Y82.472
X28.748 Y82.716
X29.024 Y82.98
X29.285 Y83.263
X29.529 Y83.564
X29.754 Y83.881
X29.958 Y84.212
X30.141 Y84.557
X30.302 Y84.912
X30.439 Y85.275
X30.552 Y85.646
X30.641 Y86.021
X30.706 Y86.4
X30.745 Y86.78
X30.761 Y87.161
X30.752 Y87.54
X30.719 Y87.916
X30.662 Y88.288
X30.582 Y88.655
X30.478 Y89.016
X30.352 Y89.368
X30.204 Y89.712
X30.034 Y90.045
X29.842 Y90.367
X29.631 Y90.677
X29.4 Y90.972
X29.15 Y91.253
X28.882 Y91.517
X28.597 Y91.765
X28.296 Y91.994
X27.979 Y92.205
X27.649 Y92.395
X27.306 Y92.564
X26.952 Y92.712
X26.588 Y92.837
X26.215 Y92.939
X25.835 Y93.017
X25.449 Y93.071
X25.059 Y93.1
X24.666 Y93.104
X24.273 Y93.083
X23.881 Y93.037
X23.491 Y92.965
X23.105 Y92.869
X22.724 Y92.747
X22.352 Y92.601
X21.988 Y92.431
X21.635 Y92.237
X21.294 Y92.021
X20.967 Y91.783
X20.655 Y91.523
X20.36 Y91.244
X20.082 Y90.946
X19.824 Y90.63
X19.586 Y90.297
X19.37 Y89.95
X19.175 Y89.588
X19.005 Y89.215
X18.858 Y88.831
X18.736 Y88.438
X18.639 Y88.037
X18.568 Y87.631
X18.523 Y87.22
X18.505 Y86.807
X18.513 Y86.394
X18.547 Y85.981
X18.608 Y85.572
X18.695 Y85.166
X18.807 Y84.767
X18.945 Y84.376
X19.108 Y83.995
X19.295 Y83.624
X19.506 Y83.266
X19.739 Y82.922
X19.993 Y82.593
X20.269 Y82.282
X20.563 Y81.988
X20.876 Y81.714
X21.206 Y81.461
X21.551 Y81.229
X21.911 Y81.02
X22.283 Y80.834
X22.667 Y80.672
X23.06 Y80.535
X23.461 Y80.423
X23.869 Y80.338
X24.281 Y80.278
X24.696 Y80.246
X25.113 Y80.239
X25.529 Y80.26
X25.945 Y80.307
X26.357 Y80.381
X26.766 Y80.481
X27.169 Y80.608
X27.567 Y80.762
X27.957 Y80.942
X28.338 Y81.149
X28.708 Y81.382
X29.065 Y81.64
X29.407 Y81.922
X29.733 Y82.227
X30.04 Y82.554
X30.327 Y82.902
X30.591 Y83.268
X30.832 Y83.652
X31.048 Y84.05
X31.238 Y84.461
X31.402 Y84.882
X31.537 Y85.313
X31.645 Y85.75
X31.724 Y86.192
X31.775 Y86.637
X31.797 Y87.084
X31.79 Y87.529
X31.755 Y87.972
X31.692 Y88.411
X31.601 Y88.845
X31.482 Y89.271
X31.337 Y89.688
X31.166 Y90.095
X30.968 Y90.49
X30.746 Y90.872
X30.5 Y91.239
X30.231 Y91.59
X29.939 Y91.923
X29.626 Y92.237
X29.292 Y92.532
X28.94 Y92.805
X28.571 Y93.055
X28.185 Y93.282
X27.784 Y93.485
X27.369 Y93.662
X26.943 Y93.812
X26.507 Y93.935
X26.063 Y94.031
X25.612 Y94.098
X25.156 Y94.136
X24.697 Y94.145
X24.238 Y94.124
X23.779 Y94.074
X23.323 Y93.994
X22.871 Y93.885
X22.427 Y93.747
X21.991 Y93.581
X21.565 Y93.386
X21.152 Y93.164
X20.753 Y92.916
X20.37 Y92.642
X20.004 Y92.343
X19.658 Y92.021
X19.332 Y91.677
X19.029 Y91.312
X18.749 Y90.928
X18.493 Y90.526
X18.264 Y90.108
X18.062 Y89.676
X17.887 Y89.231
X17.742 Y88.775
X17.625 Y88.31
X17.539 Y87.839
X17.482 Y87.362
X17.457 Y86.883
X17.462 Y86.403
X17.497 Y85.923
X17.564 Y85.447
X17.661 Y84.975
X17.788 Y84.51
X17.944 Y84.055
X18.129 Y83.61
X18.343 Y83.177
X18.584 Y82.759
X18.851 Y82.357
X19.143 Y81.973
X19.46 Y81.609
X19.799 Y81.265
X20.16 Y80.943
X20.54 Y80.646
X20.939 Y80.373
X21.355 Y80.126
X21.785 Y79.906
X22.229 Y79.715
X22.684 Y79.552
X23.149 Y79.418
X23.622 Y79.315
X24.1 Y79.241
X24.582 Y79.199
X25.067 Y79.188
X25.552 Y79.207
X26.036 Y79.258
X26.518 Y79.34
X26.995 Y79.453
X27.467 Y79.597
X27.931 Y79.772
X28.385 Y79.977
X28.828 Y80.213
X29.258 Y80.478
X29.672 Y80.771
X30.069 Y81.092
X30.446 Y81.44
X30.801 Y81.812
X31.133 Y82.208
X31.44 Y82.624
X31.719 Y83.061
X31.971 Y83.514
X32.192 Y83.983
X32.384 Y84.464
X32.544 Y84.957
X32.671 Y85.458
X32.767 Y85.965
X32.829 Y86.477
X32.859 Y86.99
X32.856 Y87.504
X32.82 Y88.015
X32.752 Y88.523
X32.651 Y89.024
X32.518 Y89.518
X32.355 Y90.002
X32.16 Y90.474
X31.936 Y90.932
X31.683 Y91.376
X31.402 Y91.803
X31.094 Y92.211
X30.761 Y92.599
X30.402 Y92.965
X30.02 Y93.308
X29.617 Y93.627
X29.193 Y93.92
X28.75 Y94.185
X28.29 Y94.423
X27.814 Y94.63
X27.325 Y94.808
X26.825 Y94.954
X26.315 Y95.068
X25.797 Y95.15
X25.274 Y95.198
X24.747 Y95.213
X24.219 Y95.194
X23.692 Y95.141
X23.168 Y95.054
X22.65 Y94.934
X22.139 Y94.78
X21.638 Y94.594
X21.148 Y94.375
X20.673 Y94.125
X20.214 Y93.844
X19.772 Y93.534
X19.351 Y93.196
X18.951 Y92.831
X18.575 Y92.441
X18.225 Y92.026
X17.901 Y91.59
X17.605 Y91.133
X17.339 Y90.657
X17.103 Y90.165
X16.899 Y89.658
X16.728 Y89.138
X16.59 Y88.608
X16.487 Y88.07
X16.418 Y87.526
X16.384 Y86.979
X16.385 Y86.43
X16.421 Y85.881
X16.492 Y85.336
X16.598 Y84.796
X16.738 Y84.264
X16.913 Y83.742
X17.12 Y83.232
X17.36 Y82.735
X17.631 Y82.256
X17.932 Y81.794
X18.262 Y81.352
X18.62 Y80.932
X19.004 Y80.536
X19.413 Y80.165
X19.845 Y79.822
X20.298 Y79.506
X20.77 Y79.22
X21.26 Y78.965
X21.765 Y78.741
X22.283 Y78.55
X22.813 Y78.393
X23.352 Y78.27
X23.898 Y78.182
X24.449 Y78.129
X25.003 Y78.111
X25.558 Y78.128
X26.112 Y78.182
X26.663 Y78.27
X27.209 Y78.395
X27.749 Y78.554
X28.28 Y78.749
X28.799 Y78.979
X29.306 Y79.242
X29.797 Y79.539
X30.27 Y79.868
X30.723 Y80.229
X31.153 Y80.619
X31.559 Y81.037
X31.939 Y81.481
X32.29 Y81.95
X32.61 Y82.44
X32.899 Y82.951
X33.155 Y83.479
X33.376 Y84.023
X33.562 Y84.579
X33.712 Y85.145
X33.825 Y85.719
X33.901 Y86.299
X33.94 Y86.881
X33.941 Y87.464
X33.905 Y88.045
X33.832 Y88.622
X33.723 Y89.193
X33.577 Y89.755
X33.396 Y90.306
X33.18 Y90.845
X32.93 Y91.368
X32.647 Y91.875
X32.331 Y92.363
X31.986 Y92.829
X31.61 Y93.273
X31.207 Y93.693
X30.776 Y94.087
X30.321 Y94.452
X29.843 Y94.789
X29.343 Y95.094
X28.824 Y95.368
X28.287 Y95.608
X27.734 Y95.814
X27.169 Y95.985
X26.592 Y96.119
X26.007 Y96.216
X25.415 Y96.276
X24.819 Y96.298
X24.222 Y96.282
X23.625 Y96.227
X23.032 Y96.134
X22.445 Y96.003
X21.866 Y95.835
X21.298 Y95.629
X20.744 Y95.387
X20.204 Y95.109
X19.683 Y94.797
X19.182 Y94.452
X18.703 Y94.074
X18.249 Y93.666
X17.821 Y93.229
X17.421 Y92.765
X17.052 Y92.276
X16.714 Y91.764
X16.409 Y91.23
X16.139 Y90.677
X15.904 Y90.108
X15.706 Y89.524
X15.545 Y88.928
X15.423 Y88.323
X15.34 Y87.711
X15.297 Y87.094
X15.292 Y86.475
X15.328 Y85.857
X15.403 Y85.242
X15.517 Y84.633
X15.67 Y84.032
X15.861 Y83.442
X16.09 Y82.865
X16.355 Y82.304
X16.655 Y81.76
X16.99 Y81.237
X17.358 Y80.737
X17.757 Y80.26
X18.186 Y79.81
X18.643 Y79.389
X19.126 Y78.997
X19.633 Y78.637
X20.162 Y78.31
X20.711 Y78.018
X21.278 Y77.761
X21.86 Y77.542
X22.455 Y77.359
X23.061 Y77.215
X23.676 Y77.111
X24.296 Y77.045
X24.92 Y77.02
X25.546 Y77.034
X26.171 Y77.089
X26.792 Y77.183
X27.409 Y77.318
X28.018 Y77.492
X28.616 Y77.706
X29.202 Y77.959
X29.774 Y78.25
X30.327 Y78.578
X30.86 Y78.942
X31.371 Y79.342
X31.857 Y79.774
X32.315 Y80.238
X32.744 Y80.731
X33.14 Y81.251
X33.504 Y81.797
X33.831 Y82.365
X34.122 Y82.953
X34.375 Y83.558
X34.588 Y84.179
X34.761 Y84.811
X34.894 Y85.452
X34.984 Y86.101
X35.034 Y86.753
X35.041 Y87.406
X35.006 Y88.058
X34.93 Y88.705
X34.813 Y89.346
X34.655 Y89.978
X34.457 Y90.598
X34.22 Y91.204
X33.945 Y91.794
X33.632 Y92.365
X33.283 Y92.915
X32.9 Y93.442
X32.483 Y93.944
X32.035 Y94.418
X31.556 Y94.863
X31.05 Y95.278
X30.517 Y95.659
X29.96 Y96.007
X29.381 Y96.318
X28.782 Y96.592
X28.166 Y96.828
X27.535 Y97.024
X26.891 Y97.18
X26.237 Y97.295
X25.576 Y97.367
X24.91 Y97.398
X24.242 Y97.385
X23.575 Y97.33
X22.912 Y97.232
X22.255 Y97.091
X21.607 Y96.909
X20.971 Y96.684
X20.35 Y96.42
X19.745 Y96.115
X19.161 Y95.772
X18.599 Y95.391
X18.061 Y94.975
X17.55 Y94.524
X17.069 Y94.042
X16.619 Y93.528
X16.202 Y92.986
X15.82 Y92.418
X15.475 Y91.827
X15.169 Y91.213
X14.902 Y90.581
X14.675 Y89.932
X14.491 Y89.27
X14.349 Y88.597
X14.251 Y87.915
X14.196 Y87.228
X14.185 Y86.539
X14.219 Y85.85
X14.296 Y85.164
X14.417 Y84.485
X14.582 Y83.814
X14.789 Y83.155
X15.038 Y82.51
X15.328 Y81.882
X15.658 Y81.274
X16.026 Y80.688
X16.431 Y80.127
X16.871 Y79.593
X17.344 Y79.088
X17.849 Y78.614
X18.383 Y78.173
X18.944 Y77.767
X19.53 Y77.398
X20.139 Y77.067
X20.768 Y76.776
X21.414 Y76.525
X22.076 Y76.316
X22.749 Y76.15
X23.433 Y76.027
X24.123 Y75.949
X24.819 Y75.914
X25.516 Y75.924
X26.212 Y75.979
X26.906 Y76.078
X27.593 Y76.222
X28.272 Y76.41
X28.94 Y76.643
X29.594 Y76.918
X30.231 Y77.235
X30.848 Y77.594
X31.444 Y77.993
X32.014 Y78.431
X32.556 Y78.905
X33.068 Y79.414
X33.547 Y79.956
X33.992 Y80.529
X34.399 Y81.129
X34.767 Y81.755
X35.095 Y82.404
X35.381 Y83.072
X35.623 Y83.757
X35.821 Y84.455
X35.974 Y85.165
X36.08 Y85.883
X36.141 Y86.605
X36.156 Y87.329
X36.124 Y88.053
X36.045 Y88.772
X35.921 Y89.484
X35.752 Y90.187
X35.539 Y90.877
X35.281 Y91.552
X34.981 Y92.209
X34.639 Y92.846
X34.258 Y93.46
X33.837 Y94.048
X33.38 Y94.609
X32.887 Y95.14
X32.36 Y95.638
X31.803 Y96.103
X31.215 Y96.531
X30.601 Y96.922
X29.962 Y97.272
X29.301 Y97.582
X28.621 Y97.849
X27.923 Y98.073
X27.211 Y98.252
X26.488 Y98.385
X25.757 Y98.472
X25.02 Y98.511
X24.281 Y98.504
X23.543 Y98.449
X22.808 Y98.347
X22.08 Y98.198
X21.362 Y98.002
X20.657 Y97.761
X19.967 Y97.474
X19.296 Y97.143
X18.647 Y96.769
X18.022 Y96.354
X17.424 Y95.899
X16.856 Y95.407
X16.319 Y94.878
X15.817 Y94.315
X15.352 Y93.721
X14.925 Y93.097
X14.538 Y92.447
X14.194 Y91.773
X13.893 Y91.077
X13.637 Y90.364
X13.428 Y89.636
X13.265 Y88.896
X13.15 Y88.147
X13.082 Y87.392
X13.063 Y86.635
X13.093 Y85.878
X13.17 Y85.124
X13.295 Y84.377
X13.467 Y83.639
X13.686 Y82.914
X13.951 Y82.204
X14.26 Y81.512
X14.613 Y80.841
X15.007 Y80.194
X15.441 Y79.574
X15.915 Y78.982
X16.424 Y78.421
X16.969 Y77.894
X17.545 Y77.403
X18.152 Y76.949
X18.786 Y76.534
X19.445 Y76.161
X20.127 Y75.83
X20.828 Y75.543
X21.546 Y75.301
X22.278 Y75.105
X23.021 Y74.955
X23.771 Y74.854
X24.527 Y74.799
X25.285 Y74.793
X26.041 Y74.834
X26.794 Y74.923
X27.539 Y75.059
X28.275 Y75.241
X28.997 Y75.469
X29.704 Y75.742
X30.393 Y76.057
X31.061 Y76.415
X31.705 Y76.813
X32.324 Y77.25
X32.915 Y77.725
X33.476 Y78.234
X34.005 Y78.777
X34.499 Y79.351
X34.958 Y79.954
X35.38 Y80.583
X35.762 Y81.237
X36.105 Y81.913
X36.405 Y82.609
X36.663 Y83.321
X36.878 Y84.048
X37.047 Y84.786
X37.171 Y85.534
X37.249 Y86.287
X37.28 Y87.044
X37.265 Y87.802
X37.204 Y88.557
X37.097 Y89.307
X36.945 Y90.049
X36.748 Y90.781
X36.507 Y91.499
X36.222 Y92.201
X35.895 Y92.885
X35.527 Y93.547
X35.12 Y94.186
X34.674 Y94.799
X34.192 Y95.383
X33.675 Y95.937
X33.126 Y96.459
X32.546 Y96.947
X31.938 Y97.398
X31.303 Y97.812
X30.644 Y98.187
X29.964 Y98.52
X29.264 Y98.811
X28.548 Y99.059
X27.819 Y99.264
X27.078 Y99.424
X26.33 Y99.54
X25.575 Y99.61
X24.818 Y99.636
X24.061 Y99.616
X23.306 Y99.552
X22.556 Y99.442
X21.814 Y99.289
X21.082 Y99.092
X20.363 Y98.853
X19.66 Y98.57
X18.975 Y98.246
X18.311 Y97.882
X17.67 Y97.478
X17.054 Y97.038
X16.464 Y96.562
X15.903 Y96.052
X15.373 Y95.511
X14.876 Y94.939
X14.413 Y94.34
X13.985 Y93.714
X13.594 Y93.065
X13.242 Y92.394
X12.93 Y91.704
X12.661 Y90.996
X12.433 Y90.273
X12.248 Y89.538
X12.106 Y88.794
X12.007 Y88.043
X11.952 Y87.287
X11.94 Y86.529
X11.973 Y85.772
X12.048 Y85.019
X12.167 Y84.27
X12.33 Y83.53
X12.537 Y82.801
X12.786 Y82.086
X13.077 Y81.386
X13.407 Y80.704
X13.776 Y80.043
X14.183 Y79.404
X14.626 Y78.789
X15.104 Y78.201
X15.614 Y77.641
X16.156 Y77.111
X16.728 Y76.614
X17.328 Y76.151
X17.954 Y75.725
X18.604 Y75.336
X19.276 Y74.985
X19.967 Y74.674
X20.674 Y74.403
X21.396 Y74.173
X22.13 Y73.985
X22.874 Y73.84
X23.624 Y73.737
X24.38 Y73.678
X25.137 Y73.662
X25.894 Y73.691
X26.648 Y73.765
X27.397 Y73.882
X28.138 Y74.041
X28.868 Y74.243
X29.586 Y74.485
X30.289 Y74.768
X30.975 Y75.09
X31.642 Y75.45
X32.287 Y75.846
X32.909 Y76.278
X33.506 Y76.745
X34.075 Y77.245
X34.615 Y77.777
X35.124 Y78.338
X35.601 Y78.927
X36.045 Y79.541
X36.454 Y80.179
X36.827 Y80.838
X37.163 Y81.517
X37.462 Y82.214
X37.721 Y82.926
X37.941 Y83.651
X38.119 Y84.387
X38.255 Y85.132
X38.348 Y85.884
X38.399 Y86.64
X38.407 Y87.398
X38.373 Y88.155
X38.297 Y88.909
X38.179 Y89.657
X38.02 Y90.398
X37.82 Y91.129
X37.581 Y91.848
X37.301 Y92.552
X36.983 Y93.239
X36.625 Y93.908
X36.231 Y94.554
X35.801 Y95.178
X35.337 Y95.777
X34.84 Y96.349
X34.312 Y96.893
X33.755 Y97.407
X33.171 Y97.889
X32.561 Y98.338
X31.927 Y98.753
X31.271 Y99.132
X30.595 Y99.474
X29.9 Y99.776
X29.189 Y100.039
X28.465 Y100.261
X27.73 Y100.444
X26.985 Y100.585
X26.234 Y100.686
X25.479 Y100.745
X24.722 Y100.764
X23.964 Y100.741
X23.209 Y100.678
X22.459 Y100.573
X21.715 Y100.428
X20.981 Y100.242
X20.258 Y100.016
X19.548 Y99.749
X18.855 Y99.445
X18.179 Y99.102
X17.522 Y98.724
X16.887 Y98.31
X16.276 Y97.863
X15.689 Y97.384
X15.128 Y96.874
X14.596 Y96.335
X14.093 Y95.769
X13.621 Y95.176
X13.183 Y94.558
X12.779 Y93.917
X12.41 Y93.255
X12.078 Y92.574
X11.783 Y91.876
X11.526 Y91.163
X11.307 Y90.438
X11.128 Y89.702
X10.988 Y88.957
X10.887 Y88.206
X10.826 Y87.451
X10.806 Y86.694
X10.826 Y85.936
X10.888 Y85.181
X10.99 Y84.43
X11.133 Y83.686
X11.315 Y82.951
X11.537 Y82.226
X11.797 Y81.515
X12.094 Y80.818
X12.428 Y80.138
X12.798 Y79.476
X13.201 Y78.835
X13.638 Y78.216
X14.108 Y77.621
X14.609 Y77.053
X15.14 Y76.513
X15.699 Y76.001
X16.285 Y75.521
X16.896 Y75.073
X17.53 Y74.658
X18.185 Y74.277
X18.859 Y73.932
X19.551 Y73.622
X20.258 Y73.35
X20.978 Y73.115
X21.71 Y72.919
X22.452 Y72.762
X23.2 Y72.646
X23.954 Y72.57
X24.711 Y72.534
X25.469 Y72.539
X26.225 Y72.584
X26.978 Y72.669
X27.725 Y72.794
X28.465 Y72.957
X29.195 Y73.159
X29.914 Y73.399
X30.619 Y73.676
X31.309 Y73.989
X31.982 Y74.338
X32.635 Y74.722
X33.267 Y75.14
X33.876 Y75.59
X34.461 Y76.071
X35.021 Y76.583
X35.553 Y77.122
X36.057 Y77.688
X36.531 Y78.279
X36.974 Y78.893
X37.386 Y79.529
X37.765 Y80.185
X38.11 Y80.86
X38.419 Y81.552
X38.692 Y82.258
X38.928 Y82.978
X39.126 Y83.71
X39.286 Y84.45
X39.407 Y85.198
X39.49 Y85.951
X39.533 Y86.708
X39.538 Y87.465
X39.504 Y88.222
X39.431 Y88.976
X39.32 Y89.726
X39.171 Y90.469
X38.983 Y91.203
X38.757 Y91.926
X38.494 Y92.636
X38.194 Y93.332
X37.859 Y94.012
X37.489 Y94.673
X37.085 Y95.314
X36.65 Y95.934
X36.183 Y96.531
X35.686 Y97.103
X35.161 Y97.649
X34.609 Y98.168
X34.031 Y98.658
X33.428 Y99.117
X32.802 Y99.544
X32.155 Y99.938
X31.488 Y100.298
X30.804 Y100.623
X30.103 Y100.912
X29.389 Y101.165
X28.663 Y101.381
X27.927 Y101.56
X27.182 Y101.702
X26.432 Y101.806
X25.677 Y101.872
X24.92 Y101.9
X24.162 Y101.889
X23.406 Y101.84
X22.654 Y101.752
X21.907 Y101.627
X21.167 Y101.464
X20.436 Y101.263
X19.716 Y101.026
X19.01 Y100.753
X18.318 Y100.444
X17.642 Y100.101
X16.984 Y99.725
X16.346 Y99.317
X15.729 Y98.877
X15.135 Y98.407
X14.566 Y97.907
X14.022 Y97.379
X13.505 Y96.825
X13.016 Y96.246
X12.557 Y95.643
X12.129 Y95.018
X11.732 Y94.373
X11.368 Y93.708
X11.038 Y93.027
X10.741 Y92.329
X10.48 Y91.618
X10.254 Y90.895
X10.064 Y90.162
X9.912 Y89.419
X9.797 Y88.671
X9.718 Y87.917
X9.677 Y87.16
X9.674 Y86.403
X9.708 Y85.646
X9.78 Y84.892
X9.889 Y84.142
X10.035 Y83.398
X10.217 Y82.663
X10.436 Y81.937
X10.69 Y81.224
X10.979 Y80.523
X11.302 Y79.838
X11.66 Y79.17
X12.05 Y78.52
X12.471 Y77.891
X12.923 Y77.283
X13.404 Y76.697
X13.914 Y76.137
X14.451 Y75.602
X15.014 Y75.095
X15.601 Y74.616
X16.211 Y74.166
X16.842 Y73.747
X17.493 Y73.36
X18.162 Y73.005
X18.849 Y72.685
X19.55 Y72.398
X20.265 Y72.147
X20.991 Y71.931
X21.727 Y71.751
X22.471 Y71.607
X23.221 Y71.501
X23.976 Y71.431
X24.733 Y71.399
X25.49 Y71.403
X26.247 Y71.445
X27.001 Y71.524
X27.749 Y71.64
X28.491 Y71.792
X29.225 Y71.981
X29.949 Y72.206
X30.661 Y72.465
X31.359 Y72.758
X32.043 Y73.085
X32.71 Y73.445
X33.359 Y73.836
X33.988 Y74.258
X34.596 Y74.71
X35.181 Y75.191
X35.744 Y75.699
X36.281 Y76.233
X36.792 Y76.793
X37.275 Y77.377
X37.729 Y77.983
X38.154 Y78.61
X38.549 Y79.257
X38.913 Y79.921
X39.245 Y80.603
X39.543 Y81.299
X39.809 Y82.009
X40.039 Y82.73
X40.236 Y83.462
X40.396 Y84.202
X40.522 Y84.95
X40.611 Y85.702
X40.664 Y86.458
X40.681 Y87.215
X40.66 Y87.973
X40.604 Y88.728
X40.512 Y89.48
X40.384 Y90.227
X40.221 Y90.967
X40.022 Y91.698
X39.788 Y92.419
X39.521 Y93.128
X39.22 Y93.823
X38.886 Y94.503
X38.52 Y95.166
X38.122 Y95.812
X37.695 Y96.437
X37.237 Y97.041
X36.751 Y97.622
X36.238 Y98.18
X35.699 Y98.712
X35.135 Y99.219
X34.548 Y99.697
X33.939 Y100.148
X33.309 Y100.568
X32.659 Y100.958
X31.992 Y101.317
X31.308 Y101.643
X30.609 Y101.937
X29.898 Y102.197
X29.174 Y102.423
X28.441 Y102.613
X27.7 Y102.769
X26.952 Y102.889
X26.199 Y102.974
X25.443 Y103.024
X24.685 Y103.038
X23.928 Y103.017
X23.172 Y102.96
X22.42 Y102.868
X21.673 Y102.741
X20.933 Y102.579
X20.201 Y102.382
X19.48 Y102.152
X18.77 Y101.887
X18.073 Y101.589
X17.391 Y101.258
X16.726 Y100.896
X16.078 Y100.504
X15.449 Y100.081
X14.84 Y99.63
X14.253 Y99.151
X13.689 Y98.645
X13.149 Y98.114
X12.633 Y97.559
X12.145 Y96.98
X11.683 Y96.379
X11.249 Y95.758
X10.845 Y95.117
X10.472 Y94.457
X10.13 Y93.781
X9.82 Y93.09
X9.542 Y92.385
X9.297 Y91.668
X9.085 Y90.941
X8.907 Y90.204
X8.763 Y89.46
X8.654 Y88.711
X8.579 Y87.957
X8.539 Y87.2
X8.533 Y86.442
X8.562 Y85.685
X8.626 Y84.93
X8.725 Y84.179
X8.86 Y83.434
X9.029 Y82.695
X9.231 Y81.965
X9.467 Y81.245
X9.736 Y80.536
X10.037 Y79.841
X10.37 Y79.161
X10.734 Y78.496
X11.127 Y77.848
X11.55 Y77.22
X12.001 Y76.611
X12.48 Y76.023
X12.984 Y75.458
X13.515 Y74.918
X14.07 Y74.402
X14.649 Y73.913
X15.25 Y73.451
X15.871 Y73.017
X16.511 Y72.612
X17.169 Y72.237
X17.844 Y71.893
X18.534 Y71.58
X19.238 Y71.299
X19.954 Y71.05
X20.68 Y70.834
X21.415 Y70.652
X22.158 Y70.503
X22.907 Y70.388
X23.661 Y70.309
X24.417 Y70.265
X25.175 Y70.255
X25.932 Y70.28
X26.687 Y70.34
X27.439 Y70.434
X28.186 Y70.563
X28.926 Y70.725
X29.658 Y70.92
X30.38 Y71.148
X31.092 Y71.409
X31.791 Y71.701
X32.476 Y72.025
X33.146 Y72.379
X33.799 Y72.763
X34.434 Y73.176
X35.049 Y73.618
X35.644 Y74.087
X36.218 Y74.582
X36.769 Y75.103
X37.296 Y75.647
X37.798 Y76.214
X38.274 Y76.804
X38.724 Y77.414
X39.146 Y78.043
X39.54 Y78.69
X39.905 Y79.354
X40.24 Y80.033
X40.545 Y80.727
X40.819 Y81.433
X41.06 Y82.152
X41.268 Y82.88
X41.443 Y83.617
X41.586 Y84.361
X41.695 Y85.111
X41.77 Y85.865
X41.812 Y86.622
X41.82 Y87.379
X41.794 Y88.136
X41.734 Y88.892
X41.642 Y89.644
X41.515 Y90.391
X41.356 Y91.132
X41.164 Y91.865
X40.94 Y92.588
X40.682 Y93.301
X40.393 Y94.001
X40.073 Y94.688
X39.723 Y95.36
X39.343 Y96.015
X38.934 Y96.653
X38.497 Y97.272
X38.033 Y97.871
X37.543 Y98.449
X37.028 Y99.004
X36.489 Y99.537
X35.926 Y100.045
X35.342 Y100.527
X34.737 Y100.983
X34.112 Y101.412
X33.897 Y101.545
X33.859 Y101.567
X32.316 Y102.41
X32.176 Y102.481
X31.66 Y102.677
X30.455 Y103.127
X29.938 Y103.317
X29.766 Y103.367
X27.528 Y103.854
X27.356 Y103.871
X27.012 Y103.9
X26.84 Y103.913
X25.29 Y104.024
X25.118 Y104.031
X24.602 Y104.014
X24.43 Y104.004
X22.88 Y103.893
X22.708 Y103.872
X22.364 Y103.821
X22.192 Y103.793
X20.47 Y103.418
X19.951 Y103.271
X19.782 Y103.215
X18.233 Y102.637
X18.091 Y102.582
X17.703 Y102.41
X17.544 Y102.333
X15.794 Y101.377
X15.65 Y101.285
X15.528 Y101.205
X15.478 Y101.17
X14.101 Y100.139
X13.929 Y100.008
X13.413 Y99.558
X12.133 Y98.279
X12.035 Y98.165
X11.691 Y97.751
X11.566 Y97.59
X10.536 Y96.213
X10.486 Y96.146
X10.424 Y96.041
X10.314 Y95.849
X9.385 Y94.147
X9.296 Y93.975
X9.158 Y93.631
X9.109 Y93.507
X8.513 Y91.909
X8.456 Y91.737
X8.32 Y91.221
X8.244 Y90.876
X7.944 Y89.499
X7.918 Y89.327
X7.873 Y88.983
X7.853 Y88.811
X7.732 Y87.117
X7.724 Y86.573
X7.731 Y86.401
X7.841 Y84.852
X7.856 Y84.679
X7.904 Y84.209
X7.91 Y84.163
X8.283 Y82.442
X8.42 Y81.852
X8.453 Y81.753
X9.031 Y80.204
X9.109 Y79.997
X9.3 Y79.515
X9.39 Y79.343
X10.236 Y77.794
X10.333 Y77.622
X10.431 Y77.449
X10.486 Y77.354
X10.83 Y76.893
X11.574 Y75.9
X11.705 Y75.728
X11.976 Y75.384
X12.035 Y75.319
X13.413 Y73.942
X13.757 Y73.623
X13.929 Y73.489
X15.308 Y72.457
X15.554 Y72.285
X15.65 Y72.218
X15.811 Y72.113
X17.387 Y71.252
X17.544 Y71.169
X18.114 Y70.908
X18.577 Y70.735
X19.782 Y70.285
X19.954 Y70.228
X20.47 Y70.082
X22.211 Y69.703
X22.708 Y69.628
X22.88 Y69.607
X24.43 Y69.496
X24.602 Y69.486
X25.118 Y69.469
X25.29 Y69.476
X26.84 Y69.587
X27.184 Y69.615
X27.356 Y69.629
X27.528 Y69.646
X29.766 Y70.133
X29.938 Y70.183
X30.627 Y70.438
X31.66 Y70.823
X32.176 Y71.019
X32.297 Y71.08
X33.897 Y71.954
X34.07 Y72.056
X34.442 Y72.285
X34.586 Y72.378
X36.307 Y73.667
X36.48 Y73.836
X36.996 Y74.351
X37.857 Y75.212
X38.029 Y75.385
X38.168 Y75.556
X39.328 Y77.105
X39.44 Y77.277
X39.661 Y77.622
X39.75 Y77.769
X40.611 Y79.345
X40.697 Y79.515
X40.904 Y80.032
X40.969 Y80.204
X41.547 Y81.753
X41.604 Y81.925
X42.09 Y84.163
X42.126 Y84.507
X42.144 Y84.679
X42.16 Y84.876
X42.269 Y86.401
X42.276 Y86.573
X42.269 Y87.089
X42.258 Y87.261
X42.147 Y88.811
X42.127 Y88.983
X42.082 Y89.327
X42.056 Y89.499
X41.606 Y91.565
X41.549 Y91.737
X41.472 Y91.95
X40.909 Y93.459
X40.84 Y93.631
X40.611 Y94.154
X39.675 Y95.869
X39.578 Y96.019
X39.328 Y96.385
X39.234 Y96.521
X38.176 Y97.934
X38.037 Y98.106
X37.857 Y98.289
X36.652 Y99.493
X36.48 Y99.664
X36.314 Y99.828
X35.963 Y100.091
X34.586 Y101.122
X34.471 Y101.205
X34.07 Y101.446
X33.891 Y101.549
X33.859 Y101.567
G3 X33.488 Y101.561 I-0.179 J-0.358
G1 X33.443 Y101.521 Z-1.595
X33.398 Y101.482 Z-1.581
X33.356 Y101.444 Z-1.558
X33.334 Y101.395 Z-1.526
X33.315 Y101.351 Z-1.485
X33.299 Y101.313 Z-1.437
X33.286 Y101.282 Z-1.383
X33.283 Y101.258 Z-1.325
X33.281 Y101.243 Z-1.263
X33.28 Y101.238 Z-1.2
G0 Z2.51
X26.899 Y86.242
Z0.9
G3 X24.879 Y88.712 Z0.77 I-1.899 J0.508 F333.33
X23.18 Y86.016 Z0.64 I0.12 J-1.96
X26.272 Y85.26 Z0.51 I1.818 J0.735
X26.008 Y88.429 Z0.38 I-1.273 J1.489
X23.09 Y87.175 Z0.25 I-1.007 J-1.678
X25.203 Y84.808 Z0.12 I1.908 J-0.423
X26.775 Y87.56 Z-0.01 I-0.205 J1.942
X23.67 Y88.176 Z-0.14 I-1.774 J-0.809
X24.07 Y85.04 Z-0.27 I1.329 J-1.424
X26.914 Y86.413 Z-0.4 I0.928 J1.71
X24.713 Y88.672 Z-0.53 I-1.914 J0.337
X23.271 Y85.871 Z-0.66 I0.287 J-1.92
X26.381 Y85.393 Z-0.79 I1.727 J0.88
X25.848 Y88.49 Z-0.92 I-1.381 J1.357
X23.083 Y87.004 Z-1.05 I-0.848 J-1.739
X25.367 Y84.856 Z-1.18 I1.915 J-0.252
X26.678 Y87.7 Z-1.31 I-0.368 J1.894
X23.568 Y88.04 Z-1.44 I-1.677 J-0.949
X24.231 Y84.987 Z-1.57 I1.431 J-1.288
X26.913 Y86.583 Z-1.7 I0.767 J1.763
X24.552 Y88.617 Z-1.83 I-1.913 J0.167
X23.373 Y85.736 Z-1.96 I0.448 J-1.865
X26.476 Y85.532 Z-2.09 I1.625 J1.015
X25.685 Y88.536 Z-2.22 I-1.477 J1.217
X23.091 Y86.835 Z-2.35 I-0.685 J-1.785
X25.524 Y84.917 Z-2.48 I1.907 J-0.083
X26.57 Y87.83 Z-2.61 I-0.526 J1.833
X23.479 Y87.897 Z-2.74 I-1.57 J-1.079
X24.395 Y84.948 Z-2.87 I1.519 J-1.145
X26.898 Y86.75 Z-3. I0.603 J1.802
X23.098 I-1.9 J0.
X26.898 I1.9 J0.
G1 X26.914 Y87.508 F1000.
X26.935 Y87.6
X26.949 Y87.749
X26.939 Y87.899
X26.909 Y88.046
X26.863 Y88.189
X26.801 Y88.325
X26.726 Y88.455
X26.64 Y88.578
X26.544 Y88.693
X26.439 Y88.8
X26.326 Y88.899
X26.205 Y88.988
X26.079 Y89.069
X25.947 Y89.141
X25.811 Y89.203
X25.671 Y89.256
X25.527 Y89.3
X25.38 Y89.335
X25.229 Y89.36
X25.075 Y89.377
X24.919 Y89.383
X24.761 Y89.379
X24.602 Y89.365
X24.443 Y89.341
X24.284 Y89.306
X24.128 Y89.261
X23.973 Y89.205
X23.822 Y89.14
X23.674 Y89.065
X23.531 Y88.98
X23.394 Y88.885
X23.262 Y88.782
X23.136 Y88.67
X23.018 Y88.55
X22.908 Y88.423
X22.805 Y88.288
X22.711 Y88.147
X22.627 Y88.
X22.551 Y87.847
X22.486 Y87.69
X22.431 Y87.529
X22.386 Y87.364
X22.351 Y87.197
X22.328 Y87.028
X22.315 Y86.857
X22.314 Y86.686
X22.323 Y86.515
X22.343 Y86.345
X22.374 Y86.176
X22.416 Y86.01
X22.468 Y85.846
X22.531 Y85.686
X22.604 Y85.531
X22.686 Y85.38
X22.778 Y85.235
X22.88 Y85.097
X22.989 Y84.965
X23.108 Y84.84
X23.234 Y84.723
X23.367 Y84.614
X23.507 Y84.514
X23.653 Y84.423
X23.804 Y84.342
X23.961 Y84.27
X24.121 Y84.209
X24.286 Y84.158
X24.453 Y84.118
X24.622 Y84.088
X24.793 Y84.07
X24.965 Y84.062
X25.137 Y84.066
X25.309 Y84.08
X25.479 Y84.105
X25.647 Y84.141
X25.813 Y84.188
X25.975 Y84.246
X26.133 Y84.313
X26.287 Y84.391
X26.435 Y84.478
X26.577 Y84.575
X26.713 Y84.68
X26.842 Y84.794
X26.964 Y84.916
X27.077 Y85.046
X27.182 Y85.182
X27.278 Y85.325
X27.365 Y85.475
X27.456 Y85.658
X27.566 Y85.919
X27.687 Y86.267
X27.762 Y86.538
X27.811 Y86.772
X27.842 Y86.986
X27.858 Y87.192
X27.861 Y87.39
X27.852 Y87.577
X27.831 Y87.757
X27.799 Y87.935
X27.756 Y88.11
X27.702 Y88.28
X27.638 Y88.446
X27.564 Y88.606
X27.479 Y88.761
X27.384 Y88.913
X27.278 Y89.059
X27.162 Y89.2
X27.036 Y89.335
X26.9 Y89.462
X26.755 Y89.582
X26.6 Y89.693
X26.438 Y89.795
X26.267 Y89.888
X26.089 Y89.97
X25.905 Y90.041
X25.714 Y90.101
X25.518 Y90.149
X25.318 Y90.185
X25.113 Y90.208
X24.906 Y90.218
X24.697 Y90.215
X24.487 Y90.198
X24.277 Y90.168
X24.069 Y90.124
X23.862 Y90.067
X23.658 Y89.995
X23.458 Y89.911
X23.263 Y89.814
X23.074 Y89.703
X22.891 Y89.581
X22.717 Y89.446
X22.55 Y89.301
X22.393 Y89.144
X22.246 Y88.977
X22.109 Y88.801
X21.984 Y88.616
X21.871 Y88.423
X21.77 Y88.223
X21.682 Y88.016
X21.607 Y87.804
X21.546 Y87.587
X21.499 Y87.366
X21.465 Y87.143
X21.447 Y86.918
X21.443 Y86.691
X21.453 Y86.465
X21.477 Y86.24
X21.517 Y86.017
X21.57 Y85.796
X21.637 Y85.579
X21.718 Y85.367
X21.813 Y85.16
X21.921 Y84.96
X22.041 Y84.767
X22.173 Y84.582
X22.317 Y84.406
X22.472 Y84.24
X22.638 Y84.083
X22.813 Y83.938
X22.997 Y83.804
X23.189 Y83.682
X23.389 Y83.572
X23.596 Y83.476
X23.808 Y83.393
X24.025 Y83.323
X24.246 Y83.268
X24.47 Y83.227
X24.696 Y83.201
X24.924 Y83.188
X25.152 Y83.191
X25.379 Y83.208
X25.605 Y83.24
X25.828 Y83.286
X26.048 Y83.346
X26.264 Y83.42
X26.474 Y83.508
X26.679 Y83.609
X26.876 Y83.723
X27.066 Y83.849
X27.248 Y83.987
X27.423 Y84.14
X27.594 Y84.309
X27.76 Y84.495
X27.932 Y84.715
X28.095 Y84.954
X28.244 Y85.204
X28.375 Y85.462
X28.488 Y85.724
X28.582 Y85.988
X28.658 Y86.252
X28.715 Y86.515
X28.755 Y86.776
X28.778 Y87.035
X28.784 Y87.291
X28.773 Y87.543
X28.747 Y87.791
X28.706 Y88.035
X28.649 Y88.273
X28.578 Y88.506
X28.492 Y88.734
X28.392 Y88.956
X28.277 Y89.171
X28.149 Y89.378
X28.008 Y89.577
X27.853 Y89.768
X27.686 Y89.949
X27.507 Y90.12
X27.317 Y90.279
X27.115 Y90.428
X26.903 Y90.563
X26.682 Y90.686
X26.451 Y90.795
X26.212 Y90.889
X25.967 Y90.969
X25.714 Y91.033
X25.457 Y91.082
X25.195 Y91.113
X24.931 Y91.129
X24.664 Y91.127
X24.396 Y91.108
X24.129 Y91.072
X23.864 Y91.018
X23.601 Y90.947
X23.342 Y90.86
X23.088 Y90.755
X22.84 Y90.634
X22.6 Y90.497
X22.368 Y90.344
X22.145 Y90.176
X21.934 Y89.994
X21.734 Y89.798
X21.546 Y89.589
X21.372 Y89.368
X21.212 Y89.135
X21.066 Y88.893
X20.937 Y88.641
X20.823 Y88.381
X20.727 Y88.114
X20.647 Y87.841
X20.585 Y87.564
X20.541 Y87.282
X20.515 Y86.998
X20.507 Y86.712
X20.517 Y86.427
X20.546 Y86.142
X20.593 Y85.86
X20.658 Y85.581
X20.741 Y85.306
X20.841 Y85.038
X20.958 Y84.776
X21.092 Y84.522
X21.241 Y84.277
X21.407 Y84.042
X21.587 Y83.818
X21.78 Y83.606
X21.988 Y83.406
X22.207 Y83.221
X22.438 Y83.049
X22.68 Y82.893
X22.931 Y82.753
X23.191 Y82.629
X23.458 Y82.521
X23.731 Y82.431
X24.01 Y82.359
X24.293 Y82.305
X24.578 Y82.269
X24.866 Y82.251
X25.154 Y82.252
X25.441 Y82.271
X25.727 Y82.308
X26.01 Y82.364
X26.288 Y82.437
X26.561 Y82.529
X26.829 Y82.638
X27.09 Y82.764
X27.346 Y82.909
X27.596 Y83.072
X27.84 Y83.255
X28.077 Y83.457
X28.306 Y83.68
X28.525 Y83.921
X28.73 Y84.179
X28.92 Y84.452
X29.093 Y84.737
X29.246 Y85.032
X29.38 Y85.335
X29.494 Y85.645
X29.587 Y85.959
X29.659 Y86.276
X29.71 Y86.594
X29.741 Y86.912
X29.751 Y87.229
X29.741 Y87.544
X29.711 Y87.855
X29.661 Y88.162
X29.592 Y88.464
X29.505 Y88.76
X29.398 Y89.05
X29.274 Y89.331
X29.131 Y89.605
X28.972 Y89.868
X28.795 Y90.121
X28.603 Y90.363
X28.395 Y90.593
X28.172 Y90.809
X27.934 Y91.012
X27.684 Y91.199
X27.42 Y91.371
X27.146 Y91.526
X26.86 Y91.664
X26.564 Y91.784
X26.26 Y91.886
X25.949 Y91.968
X25.631 Y92.03
X25.309 Y92.073
X24.983 Y92.094
X24.655 Y92.095
X24.326 Y92.074
X23.997 Y92.033
X23.671 Y91.97
X23.347 Y91.886
X23.029 Y91.781
X22.717 Y91.656
X22.413 Y91.51
X22.118 Y91.345
X21.833 Y91.161
X21.559 Y90.958
X21.299 Y90.737
X21.053 Y90.5
X20.821 Y90.247
X20.606 Y89.979
X20.409 Y89.698
X20.229 Y89.404
X20.068 Y89.098
X19.927 Y88.783
X19.806 Y88.458
X19.706 Y88.126
X19.628 Y87.788
X19.571 Y87.445
X19.536 Y87.099
X19.524 Y86.751
X19.533 Y86.403
X19.565 Y86.056
X19.62 Y85.711
X19.696 Y85.37
X19.794 Y85.035
X19.913 Y84.706
X20.053 Y84.386
X20.213 Y84.075
X20.393 Y83.775
X20.592 Y83.487
X20.809 Y83.212
X21.043 Y82.951
X21.294 Y82.706
X21.559 Y82.477
X21.839 Y82.266
X22.132 Y82.073
X22.437 Y81.899
X22.752 Y81.745
X23.076 Y81.612
X23.409 Y81.499
X23.748 Y81.408
X24.092 Y81.339
X24.439 Y81.292
X24.79 Y81.267
X25.141 Y81.265
X25.491 Y81.285
X25.84 Y81.328
X26.185 Y81.393
X26.527 Y81.48
X26.865 Y81.59
X27.197 Y81.722
X27.523 Y81.876
X27.842 Y82.053
X28.153 Y82.252
X28.455 Y82.474
X28.746 Y82.718
X29.022 Y82.981
X29.283 Y83.265
X29.527 Y83.565
X29.752 Y83.883
X29.956 Y84.214
X30.139 Y84.559
X30.3 Y84.914
X30.437 Y85.277
X30.55 Y85.648
X30.639 Y86.023
X30.703 Y86.402
X30.743 Y86.782
X30.759 Y87.162
X30.75 Y87.541
X30.717 Y87.918
X30.66 Y88.29
X30.58 Y88.657
X30.476 Y89.018
X30.35 Y89.37
X30.201 Y89.714
X30.031 Y90.047
X29.84 Y90.369
X29.629 Y90.678
X29.398 Y90.974
X29.148 Y91.255
X28.88 Y91.519
X28.595 Y91.767
X28.293 Y91.996
X27.977 Y92.206
X27.647 Y92.397
X27.304 Y92.566
X26.95 Y92.714
X26.586 Y92.839
X26.213 Y92.941
X25.832 Y93.019
X25.447 Y93.073
X25.057 Y93.102
X24.664 Y93.106
X24.271 Y93.085
X23.878 Y93.039
X23.488 Y92.967
X23.102 Y92.87
X22.722 Y92.749
X22.349 Y92.603
X21.986 Y92.433
X21.633 Y92.239
X21.292 Y92.023
X20.965 Y91.784
X20.653 Y91.525
X20.357 Y91.246
X20.08 Y90.947
X19.822 Y90.631
X19.584 Y90.299
X19.367 Y89.951
X19.173 Y89.59
X19.003 Y89.217
X18.856 Y88.832
X18.734 Y88.439
X18.637 Y88.039
X18.566 Y87.632
X18.521 Y87.222
X18.503 Y86.809
X18.511 Y86.395
X18.545 Y85.983
X18.606 Y85.573
X18.693 Y85.168
X18.805 Y84.769
X18.943 Y84.378
X19.106 Y83.996
X19.293 Y83.626
X19.504 Y83.268
X19.737 Y82.924
X19.991 Y82.595
X20.267 Y82.284
X20.561 Y81.99
X20.874 Y81.716
X21.204 Y81.463
X21.549 Y81.231
X21.909 Y81.021
X22.281 Y80.835
X22.665 Y80.674
X23.058 Y80.537
X23.459 Y80.425
X23.867 Y80.34
X24.279 Y80.28
X24.694 Y80.247
X25.111 Y80.241
X25.528 Y80.262
X25.943 Y80.309
X26.355 Y80.383
X26.764 Y80.483
X27.167 Y80.61
X27.565 Y80.764
X27.955 Y80.944
X28.336 Y81.151
X28.706 Y81.384
X29.063 Y81.641
X29.405 Y81.924
X29.731 Y82.229
X30.038 Y82.556
X30.324 Y82.904
X30.589 Y83.27
X30.83 Y83.653
X31.046 Y84.052
X31.236 Y84.463
X31.4 Y84.884
X31.535 Y85.315
X31.643 Y85.752
X31.722 Y86.194
X31.773 Y86.639
X31.795 Y87.085
X31.788 Y87.531
X31.753 Y87.974
X31.69 Y88.413
X31.599 Y88.847
X31.48 Y89.273
X31.335 Y89.69
X31.163 Y90.097
X30.966 Y90.492
X30.744 Y90.874
X30.498 Y91.241
X30.228 Y91.591
X29.937 Y91.925
X29.623 Y92.239
X29.29 Y92.534
X28.938 Y92.807
X28.568 Y93.057
X28.182 Y93.284
X27.781 Y93.486
X27.367 Y93.663
X26.941 Y93.814
X26.505 Y93.937
X26.061 Y94.032
X25.61 Y94.099
X25.154 Y94.137
X24.695 Y94.146
X24.235 Y94.126
X23.777 Y94.076
X23.32 Y93.996
X22.869 Y93.887
X22.425 Y93.749
X21.989 Y93.583
X21.563 Y93.388
X21.15 Y93.166
X20.751 Y92.918
X20.368 Y92.644
X20.002 Y92.345
X19.656 Y92.023
X19.33 Y91.679
X19.026 Y91.314
X18.746 Y90.93
X18.491 Y90.528
X18.262 Y90.11
X18.06 Y89.677
X17.885 Y89.232
X17.739 Y88.777
X17.623 Y88.312
X17.537 Y87.841
X17.48 Y87.364
X17.455 Y86.885
X17.46 Y86.404
X17.495 Y85.925
X17.562 Y85.448
X17.659 Y84.977
X17.786 Y84.512
X17.942 Y84.056
X18.127 Y83.611
X18.341 Y83.179
X18.582 Y82.761
X18.849 Y82.359
X19.141 Y81.975
X19.458 Y81.61
X19.797 Y81.267
X20.158 Y80.945
X20.538 Y80.647
X20.937 Y80.375
X21.353 Y80.128
X21.783 Y79.908
X22.227 Y79.716
X22.683 Y79.553
X23.147 Y79.42
X23.62 Y79.316
X24.098 Y79.243
X24.58 Y79.201
X25.065 Y79.189
X25.55 Y79.209
X26.034 Y79.26
X26.516 Y79.342
X26.993 Y79.455
X27.465 Y79.599
X27.929 Y79.774
X28.383 Y79.979
X28.826 Y80.215
X29.256 Y80.48
X29.67 Y80.773
X30.067 Y81.094
X30.444 Y81.442
X30.799 Y81.814
X31.131 Y82.21
X31.438 Y82.626
X31.717 Y83.063
X31.969 Y83.516
X32.19 Y83.985
X32.382 Y84.466
X32.541 Y84.959
X32.669 Y85.46
X32.765 Y85.967
X32.827 Y86.479
X32.857 Y86.992
X32.854 Y87.506
X32.818 Y88.017
X32.749 Y88.525
X32.649 Y89.026
X32.516 Y89.52
X32.352 Y90.004
X32.158 Y90.476
X31.934 Y90.934
X31.681 Y91.378
X31.4 Y91.804
X31.092 Y92.213
X30.758 Y92.601
X30.4 Y92.967
X30.018 Y93.31
X29.615 Y93.629
X29.19 Y93.922
X28.748 Y94.187
X28.288 Y94.424
X27.812 Y94.632
X27.323 Y94.81
X26.823 Y94.956
X26.313 Y95.07
X25.795 Y95.151
X25.271 Y95.2
X24.745 Y95.214
X24.217 Y95.195
X23.69 Y95.142
X23.166 Y95.056
X22.648 Y94.935
X22.137 Y94.782
X21.635 Y94.595
X21.146 Y94.377
X20.671 Y94.127
X20.211 Y93.846
X19.77 Y93.536
X19.349 Y93.198
X18.949 Y92.833
X18.573 Y92.442
X18.223 Y92.028
X17.899 Y91.591
X17.603 Y91.134
X17.336 Y90.659
X17.101 Y90.166
X16.897 Y89.659
X16.726 Y89.14
X16.588 Y88.61
X16.485 Y88.072
X16.416 Y87.528
X16.381 Y86.98
X16.383 Y86.431
X16.419 Y85.883
X16.49 Y85.338
X16.596 Y84.798
X16.736 Y84.266
X16.911 Y83.744
X17.118 Y83.233
X17.358 Y82.737
X17.629 Y82.257
X17.93 Y81.795
X18.26 Y81.354
X18.618 Y80.934
X19.002 Y80.538
X19.411 Y80.167
X19.843 Y79.823
X20.296 Y79.508
X20.768 Y79.222
X21.258 Y78.966
X21.763 Y78.743
X22.282 Y78.552
X22.811 Y78.395
X23.35 Y78.272
X23.896 Y78.184
X24.447 Y78.131
X25.001 Y78.113
X25.556 Y78.13
X26.11 Y78.183
X26.661 Y78.272
X27.207 Y78.397
X27.747 Y78.556
X28.278 Y78.751
X28.797 Y78.981
X29.304 Y79.244
X29.795 Y79.541
X30.268 Y79.87
X30.721 Y80.231
X31.151 Y80.621
X31.557 Y81.039
X31.937 Y81.483
X32.288 Y81.952
X32.608 Y82.442
X32.897 Y82.953
X33.153 Y83.481
X33.374 Y84.025
X33.56 Y84.581
X33.709 Y85.147
X33.823 Y85.721
X33.899 Y86.3
X33.937 Y86.883
X33.939 Y87.466
X33.903 Y88.047
X33.83 Y88.624
X33.721 Y89.195
X33.575 Y89.757
X33.394 Y90.308
X33.178 Y90.847
X32.928 Y91.37
X32.644 Y91.877
X32.329 Y92.364
X31.983 Y92.831
X31.608 Y93.275
X31.204 Y93.695
X30.774 Y94.088
X30.319 Y94.454
X29.841 Y94.791
X29.341 Y95.096
X28.821 Y95.37
X28.285 Y95.61
X27.732 Y95.816
X27.167 Y95.986
X26.59 Y96.121
X26.004 Y96.218
X25.413 Y96.278
X24.817 Y96.3
X24.219 Y96.283
X23.623 Y96.229
X23.03 Y96.136
X22.443 Y96.005
X21.864 Y95.836
X21.296 Y95.63
X20.741 Y95.388
X20.202 Y95.111
X19.681 Y94.799
X19.18 Y94.453
X18.701 Y94.076
X18.247 Y93.668
X17.819 Y93.231
X17.419 Y92.767
X17.05 Y92.278
X16.712 Y91.765
X16.407 Y91.232
X16.136 Y90.679
X15.902 Y90.11
X15.704 Y89.526
X15.543 Y88.93
X15.421 Y88.325
X15.338 Y87.712
X15.295 Y87.095
X15.29 Y86.477
X15.326 Y85.859
X15.401 Y85.244
X15.515 Y84.634
X15.668 Y84.034
X15.859 Y83.444
X16.088 Y82.867
X16.353 Y82.305
X16.653 Y81.762
X16.988 Y81.239
X17.356 Y80.738
X17.755 Y80.262
X18.184 Y79.812
X18.641 Y79.39
X19.124 Y78.999
X19.631 Y78.639
X20.16 Y78.312
X20.709 Y78.02
X21.276 Y77.763
X21.858 Y77.543
X22.454 Y77.361
X23.059 Y77.217
X23.674 Y77.112
X24.294 Y77.047
X24.918 Y77.021
X25.544 Y77.036
X26.169 Y77.09
X26.79 Y77.185
X27.407 Y77.32
X28.016 Y77.494
X28.614 Y77.708
X29.201 Y77.961
X29.772 Y78.252
X30.325 Y78.58
X30.858 Y78.944
X31.369 Y79.343
X31.855 Y79.776
X32.313 Y80.24
X32.742 Y80.733
X33.138 Y81.253
X33.502 Y81.799
X33.829 Y82.367
X34.12 Y82.955
X34.373 Y83.56
X34.586 Y84.181
X34.759 Y84.813
X34.892 Y85.454
X34.982 Y86.103
X35.031 Y86.755
X35.039 Y87.408
X35.004 Y88.06
X34.928 Y88.707
X34.811 Y89.348
X34.653 Y89.98
X34.455 Y90.6
X34.218 Y91.206
X33.942 Y91.796
X33.63 Y92.367
X33.281 Y92.917
X32.898 Y93.444
X32.481 Y93.946
X32.032 Y94.42
X31.554 Y94.865
X31.048 Y95.28
X30.515 Y95.661
X29.958 Y96.008
X29.379 Y96.32
X28.78 Y96.594
X28.164 Y96.83
X27.532 Y97.026
X26.888 Y97.182
X26.235 Y97.297
X25.573 Y97.369
X24.908 Y97.399
X24.24 Y97.387
X23.573 Y97.332
X22.91 Y97.233
X22.253 Y97.093
X21.605 Y96.91
X20.969 Y96.686
X20.347 Y96.421
X19.743 Y96.117
X19.159 Y95.773
X18.596 Y95.393
X18.059 Y94.977
X17.548 Y94.526
X17.067 Y94.043
X16.617 Y93.53
X16.2 Y92.988
X15.818 Y92.42
X15.473 Y91.828
X15.167 Y91.215
X14.9 Y90.583
X14.673 Y89.934
X14.489 Y89.272
X14.347 Y88.598
X14.249 Y87.917
X14.194 Y87.23
X14.183 Y86.541
X14.217 Y85.852
X14.294 Y85.166
X14.416 Y84.486
X14.58 Y83.816
X14.787 Y83.156
X15.036 Y82.512
X15.326 Y81.884
X15.656 Y81.276
X16.024 Y80.69
X16.429 Y80.129
X16.869 Y79.594
X17.342 Y79.089
X17.847 Y78.615
X18.381 Y78.174
X18.942 Y77.769
X19.529 Y77.4
X20.137 Y77.069
X20.766 Y76.777
X21.413 Y76.527
X22.074 Y76.318
X22.747 Y76.152
X23.431 Y76.029
X24.121 Y75.95
X24.817 Y75.916
X25.514 Y75.926
X26.21 Y75.981
X26.904 Y76.08
X27.591 Y76.224
X28.27 Y76.412
X28.938 Y76.644
X29.592 Y76.92
X30.229 Y77.237
X30.847 Y77.596
X31.442 Y77.995
X32.012 Y78.433
X32.554 Y78.907
X33.066 Y79.416
X33.545 Y79.958
X33.99 Y80.531
X34.397 Y81.131
X34.765 Y81.757
X35.093 Y82.406
X35.379 Y83.074
X35.621 Y83.759
X35.819 Y84.457
X35.971 Y85.167
X36.078 Y85.885
X36.139 Y86.607
X36.153 Y87.331
X36.121 Y88.055
X36.043 Y88.774
X35.919 Y89.486
X35.75 Y90.189
X35.536 Y90.879
X35.279 Y91.554
X34.979 Y92.211
X34.637 Y92.848
X34.256 Y93.462
X33.835 Y94.05
X33.377 Y94.611
X32.885 Y95.142
X32.358 Y95.64
X31.8 Y96.105
X31.213 Y96.533
X30.599 Y96.923
X29.96 Y97.274
X29.299 Y97.584
X28.618 Y97.851
X27.921 Y98.075
X27.209 Y98.254
X26.486 Y98.387
X25.755 Y98.473
X25.018 Y98.513
X24.279 Y98.506
X23.541 Y98.451
X22.806 Y98.349
X22.078 Y98.2
X21.36 Y98.004
X20.654 Y97.762
X19.965 Y97.475
X19.294 Y97.144
X18.645 Y96.771
X18.02 Y96.356
X17.422 Y95.901
X16.853 Y95.408
X16.317 Y94.879
X15.815 Y94.317
X15.35 Y93.722
X14.923 Y93.099
X14.536 Y92.448
X14.192 Y91.774
X13.891 Y91.079
X13.635 Y90.366
X13.425 Y89.637
X13.263 Y88.897
X13.148 Y88.149
X13.08 Y87.394
X13.061 Y86.636
X13.09 Y85.879
X13.168 Y85.126
X13.293 Y84.378
X13.465 Y83.641
X13.684 Y82.915
X13.949 Y82.205
X14.258 Y81.514
X14.611 Y80.843
X15.005 Y80.196
X15.44 Y79.575
X15.913 Y78.984
X16.422 Y78.423
X16.967 Y77.896
X17.543 Y77.404
X18.15 Y76.95
X18.784 Y76.536
X19.443 Y76.162
X20.125 Y75.832
X20.826 Y75.545
X21.544 Y75.303
X22.276 Y75.107
X23.019 Y74.957
X23.77 Y74.855
X24.525 Y74.801
X25.283 Y74.795
X26.04 Y74.836
X26.792 Y74.925
X27.537 Y75.061
X28.273 Y75.243
X28.995 Y75.471
X29.702 Y75.744
X30.391 Y76.059
X31.059 Y76.417
X31.704 Y76.815
X32.322 Y77.252
X32.913 Y77.727
X33.474 Y78.236
X34.003 Y78.779
X34.497 Y79.353
X34.956 Y79.956
X35.378 Y80.585
X35.76 Y81.239
X36.103 Y81.915
X36.403 Y82.611
X36.661 Y83.323
X36.876 Y84.05
X37.045 Y84.788
X37.169 Y85.536
X37.247 Y86.29
X37.278 Y87.047
X37.263 Y87.804
X37.202 Y88.559
X37.095 Y89.309
X36.943 Y90.052
X36.746 Y90.783
X36.504 Y91.501
X36.22 Y92.203
X35.893 Y92.887
X35.525 Y93.549
X35.117 Y94.188
X34.672 Y94.801
X34.189 Y95.385
X33.673 Y95.94
X33.123 Y96.461
X32.543 Y96.949
X31.935 Y97.4
X31.3 Y97.814
X30.642 Y98.189
X29.961 Y98.522
X29.262 Y98.813
X28.546 Y99.061
X27.816 Y99.266
X27.076 Y99.426
X26.327 Y99.542
X25.573 Y99.612
X24.815 Y99.638
X24.058 Y99.618
X23.303 Y99.553
X22.553 Y99.444
X21.811 Y99.291
X21.08 Y99.094
X20.361 Y98.854
X19.658 Y98.572
X18.973 Y98.248
X18.309 Y97.883
X17.667 Y97.48
X17.051 Y97.039
X16.462 Y96.563
X15.901 Y96.053
X15.371 Y95.512
X14.874 Y94.94
X14.41 Y94.341
X13.982 Y93.716
X13.592 Y93.067
X13.24 Y92.396
X12.928 Y91.705
X12.659 Y90.997
X12.431 Y90.274
X12.246 Y89.539
X12.104 Y88.795
X12.005 Y88.044
X11.95 Y87.288
X11.938 Y86.531
X11.971 Y85.774
X12.046 Y85.02
X12.166 Y84.272
X12.328 Y83.532
X12.535 Y82.803
X12.784 Y82.087
X13.075 Y81.387
X13.405 Y80.706
X13.775 Y80.044
X14.181 Y79.405
X14.624 Y78.79
X15.102 Y78.202
X15.612 Y77.642
X16.154 Y77.113
X16.726 Y76.615
X17.326 Y76.153
X17.952 Y75.726
X18.603 Y75.337
X19.274 Y74.987
X19.965 Y74.676
X20.673 Y74.405
X21.395 Y74.175
X22.129 Y73.987
X22.872 Y73.841
X23.623 Y73.739
X24.378 Y73.679
X25.136 Y73.664
X25.893 Y73.693
X26.647 Y73.767
X27.396 Y73.884
X28.136 Y74.043
X28.867 Y74.245
X29.584 Y74.487
X30.287 Y74.77
X30.973 Y75.092
X31.64 Y75.452
X32.286 Y75.848
X32.908 Y76.281
X33.505 Y76.747
X34.074 Y77.248
X34.613 Y77.779
X35.123 Y78.341
X35.6 Y78.929
X36.043 Y79.543
X36.452 Y80.181
X36.825 Y80.841
X37.161 Y81.52
X37.46 Y82.216
X37.719 Y82.928
X37.939 Y83.653
X38.117 Y84.389
X38.253 Y85.135
X38.346 Y85.887
X38.396 Y86.643
X38.405 Y87.4
X38.371 Y88.157
X38.295 Y88.911
X38.177 Y89.66
X38.018 Y90.4
X37.818 Y91.131
X37.578 Y91.85
X37.299 Y92.554
X36.98 Y93.242
X36.623 Y93.91
X36.228 Y94.557
X35.798 Y95.18
X35.334 Y95.779
X34.837 Y96.351
X34.31 Y96.895
X33.753 Y97.409
X33.168 Y97.891
X32.558 Y98.34
X31.924 Y98.755
X31.268 Y99.135
X30.592 Y99.476
X29.897 Y99.778
X29.187 Y100.041
X28.462 Y100.263
X27.727 Y100.445
X26.982 Y100.587
X26.232 Y100.688
X25.476 Y100.747
X24.719 Y100.766
X23.961 Y100.743
X23.206 Y100.679
X22.456 Y100.575
X21.712 Y100.43
X20.978 Y100.244
X20.255 Y100.017
X19.546 Y99.751
X18.852 Y99.446
X18.176 Y99.104
X17.52 Y98.725
X16.885 Y98.312
X16.273 Y97.865
X15.686 Y97.385
X15.126 Y96.876
X14.593 Y96.337
X14.09 Y95.77
X13.619 Y95.177
X13.181 Y94.559
X12.776 Y93.918
X12.408 Y93.256
X12.076 Y92.575
X11.781 Y91.877
X11.524 Y91.164
X11.305 Y90.439
X11.126 Y89.703
X10.985 Y88.958
X10.885 Y88.207
X10.824 Y87.452
X10.804 Y86.695
X10.825 Y85.937
X10.886 Y85.182
X10.988 Y84.431
X11.131 Y83.687
X11.314 Y82.952
X11.535 Y82.227
X11.795 Y81.516
X12.093 Y80.819
X12.427 Y80.139
X12.796 Y79.477
X13.2 Y78.836
X13.637 Y78.217
X14.107 Y77.623
X14.608 Y77.054
X15.139 Y76.514
X15.698 Y76.003
X16.284 Y75.522
X16.895 Y75.074
X17.529 Y74.659
X18.184 Y74.279
X18.858 Y73.933
X19.55 Y73.624
X20.257 Y73.352
X20.977 Y73.117
X21.709 Y72.92
X22.45 Y72.764
X23.199 Y72.648
X23.953 Y72.571
X24.71 Y72.536
X25.467 Y72.541
X26.224 Y72.586
X26.977 Y72.671
X27.724 Y72.796
X28.464 Y72.959
X29.194 Y73.161
X29.913 Y73.401
X30.618 Y73.678
X31.308 Y73.991
X31.98 Y74.34
X32.633 Y74.725
X33.265 Y75.142
X33.875 Y75.593
X34.46 Y76.074
X35.019 Y76.585
X35.551 Y77.124
X36.055 Y77.69
X36.529 Y78.281
X36.973 Y78.896
X37.385 Y79.532
X37.764 Y80.188
X38.108 Y80.862
X38.417 Y81.554
X38.69 Y82.261
X38.926 Y82.981
X39.124 Y83.712
X39.284 Y84.453
X39.405 Y85.201
X39.488 Y85.954
X39.531 Y86.71
X39.536 Y87.468
X39.502 Y88.225
X39.429 Y88.979
X39.318 Y89.729
X39.168 Y90.471
X38.98 Y91.205
X38.754 Y91.929
X38.491 Y92.639
X38.192 Y93.335
X37.856 Y94.014
X37.486 Y94.676
X37.083 Y95.317
X36.647 Y95.937
X36.18 Y96.533
X35.683 Y97.105
X35.158 Y97.652
X34.606 Y98.171
X34.028 Y98.66
X33.425 Y99.119
X32.799 Y99.546
X32.152 Y99.94
X31.485 Y100.3
X30.801 Y100.625
X30.1 Y100.914
X29.386 Y101.167
X28.66 Y101.383
X27.924 Y101.562
X27.179 Y101.704
X26.429 Y101.808
X25.674 Y101.874
X24.917 Y101.902
X24.159 Y101.891
X23.403 Y101.841
X22.651 Y101.754
X21.903 Y101.628
X21.164 Y101.465
X20.433 Y101.265
X19.713 Y101.027
X19.007 Y100.754
X18.315 Y100.445
X17.639 Y100.103
X16.981 Y99.726
X16.343 Y99.318
X15.726 Y98.878
X15.132 Y98.408
X14.563 Y97.908
X14.019 Y97.38
X13.502 Y96.826
X13.014 Y96.247
X12.555 Y95.644
X12.126 Y95.019
X11.73 Y94.374
X11.366 Y93.709
X11.035 Y93.027
X10.739 Y92.33
X10.477 Y91.619
X10.251 Y90.896
X10.062 Y90.162
X9.91 Y89.42
X9.794 Y88.671
X9.716 Y87.918
X9.675 Y87.161
X9.672 Y86.403
X9.706 Y85.646
X9.778 Y84.892
X9.887 Y84.142
X10.033 Y83.399
X10.216 Y82.664
X10.434 Y81.938
X10.688 Y81.224
X10.977 Y80.524
X11.301 Y79.839
X11.658 Y79.171
X12.048 Y78.521
X12.47 Y77.891
X12.922 Y77.283
X13.403 Y76.698
X13.913 Y76.138
X14.45 Y75.603
X15.012 Y75.096
X15.599 Y74.617
X16.209 Y74.167
X16.841 Y73.748
X17.492 Y73.361
X18.161 Y73.006
X18.848 Y72.686
X19.549 Y72.4
X20.264 Y72.148
X20.99 Y71.932
X21.726 Y71.752
X22.47 Y71.609
X23.22 Y71.502
X23.975 Y71.433
X24.732 Y71.4
X25.49 Y71.405
X26.246 Y71.447
X27. Y71.526
X27.748 Y71.642
X28.491 Y71.795
X29.224 Y71.984
X29.948 Y72.208
X30.66 Y72.467
X31.358 Y72.761
X32.042 Y73.088
X32.709 Y73.447
X33.357 Y73.839
X33.987 Y74.261
X34.595 Y74.713
X35.18 Y75.194
X35.742 Y75.702
X36.279 Y76.236
X36.79 Y76.796
X37.273 Y77.38
X37.728 Y77.986
X38.153 Y78.613
X38.548 Y79.26
X38.911 Y79.924
X39.243 Y80.606
X39.542 Y81.302
X39.807 Y82.012
X40.038 Y82.733
X40.234 Y83.465
X40.395 Y84.205
X40.52 Y84.953
X40.609 Y85.705
X40.662 Y86.461
X40.679 Y87.218
X40.658 Y87.976
X40.602 Y88.731
X40.51 Y89.483
X40.382 Y90.23
X40.218 Y90.97
X40.019 Y91.701
X39.786 Y92.422
X39.518 Y93.131
X39.217 Y93.826
X38.883 Y94.506
X38.517 Y95.169
X38.12 Y95.815
X37.692 Y96.44
X37.234 Y97.044
X36.748 Y97.625
X36.235 Y98.182
X35.696 Y98.715
X35.132 Y99.221
X34.545 Y99.7
X33.936 Y100.15
X33.305 Y100.571
X32.656 Y100.961
X31.988 Y101.319
X31.305 Y101.646
X30.606 Y101.939
X29.894 Y102.199
X29.171 Y102.425
X28.438 Y102.615
X27.696 Y102.771
X26.948 Y102.891
X26.195 Y102.976
X25.439 Y103.026
X24.682 Y103.04
X23.924 Y103.019
X23.169 Y102.962
X22.417 Y102.869
X21.67 Y102.742
X20.93 Y102.58
X20.198 Y102.383
X19.476 Y102.153
X18.766 Y101.888
X18.07 Y101.59
X17.388 Y101.26
X16.723 Y100.897
X16.075 Y100.505
X15.446 Y100.082
X14.837 Y99.631
X14.25 Y99.152
X13.686 Y98.646
X13.146 Y98.115
X12.631 Y97.559
X12.142 Y96.98
X11.68 Y96.38
X11.247 Y95.758
X10.843 Y95.117
X10.469 Y94.458
X10.127 Y93.782
X9.817 Y93.09
X9.539 Y92.386
X9.294 Y91.669
X9.083 Y90.941
X8.905 Y90.205
X8.761 Y89.461
X8.652 Y88.711
X8.577 Y87.957
X8.537 Y87.2
X8.531 Y86.443
X8.56 Y85.686
X8.624 Y84.931
X8.724 Y84.18
X8.858 Y83.434
X9.027 Y82.695
X9.23 Y81.965
X9.466 Y81.245
X9.734 Y80.537
X10.036 Y79.842
X10.369 Y79.161
X10.732 Y78.496
X11.126 Y77.849
X11.549 Y77.22
X12. Y76.612
X12.478 Y76.024
X12.983 Y75.459
X13.514 Y74.918
X14.069 Y74.403
X14.648 Y73.914
X15.249 Y73.452
X15.87 Y73.018
X16.51 Y72.613
X17.169 Y72.239
X17.844 Y71.894
X18.534 Y71.581
X19.237 Y71.3
X19.953 Y71.051
X20.679 Y70.836
X21.415 Y70.653
X22.157 Y70.504
X22.906 Y70.39
X23.66 Y70.311
X24.416 Y70.266
X25.174 Y70.257
X25.931 Y70.282
X26.687 Y70.342
X27.438 Y70.436
X28.185 Y70.565
X28.925 Y70.727
X29.657 Y70.922
X30.38 Y71.151
X31.091 Y71.411
X31.79 Y71.704
X32.475 Y72.027
X33.145 Y72.381
X33.798 Y72.765
X34.433 Y73.179
X35.049 Y73.621
X35.643 Y74.09
X36.217 Y74.585
X36.768 Y75.105
X37.294 Y75.65
X37.796 Y76.217
X38.273 Y76.807
X38.722 Y77.417
X39.145 Y78.046
X39.539 Y78.693
X39.903 Y79.357
X40.239 Y80.036
X40.544 Y80.73
X40.817 Y81.437
X41.058 Y82.155
X41.266 Y82.883
X41.442 Y83.62
X41.584 Y84.365
X41.693 Y85.114
X41.768 Y85.868
X41.81 Y86.625
X41.818 Y87.383
X41.792 Y88.14
X41.732 Y88.895
X41.639 Y89.647
X41.513 Y90.394
X41.354 Y91.135
X41.162 Y91.868
X40.937 Y92.591
X40.68 Y93.304
X40.39 Y94.004
X40.07 Y94.691
X39.72 Y95.363
X39.34 Y96.018
X38.931 Y96.656
X38.494 Y97.275
X38.03 Y97.874
X37.54 Y98.452
X37.025 Y99.007
X36.485 Y99.54
X35.923 Y100.047
X35.339 Y100.53
X34.734 Y100.986
X34.109 Y101.414
X33.903 Y101.542
X33.865 Y101.564
X32.316 Y102.41
X32.176 Y102.481
X31.66 Y102.677
X30.455 Y103.127
X29.938 Y103.317
X29.766 Y103.367
X27.528 Y103.854
X27.356 Y103.871
X27.012 Y103.9
X26.84 Y103.913
X25.29 Y104.024
X25.118 Y104.031
X24.602 Y104.014
X24.43 Y104.004
X22.88 Y103.893
X22.708 Y103.872
X22.364 Y103.821
X22.192 Y103.793
X20.47 Y103.418
X19.951 Y103.271
X19.782 Y103.215
X18.233 Y102.637
X18.091 Y102.582
X17.703 Y102.41
X17.544 Y102.333
X15.794 Y101.377
X15.65 Y101.285
X15.528 Y101.205
X15.478 Y101.17
X14.101 Y100.139
X13.929 Y100.008
X13.413 Y99.558
X12.133 Y98.279
X12.035 Y98.165
X11.691 Y97.751
X11.566 Y97.59
X10.536 Y96.213
X10.486 Y96.146
X10.424 Y96.041
X10.314 Y95.849
X9.385 Y94.147
X9.296 Y93.975
X9.158 Y93.631
X9.109 Y93.507
X8.513 Y91.909
X8.456 Y91.737
X8.32 Y91.221
X8.244 Y90.876
X7.944 Y89.499
X7.918 Y89.327
X7.873 Y88.983
X7.853 Y88.811
X7.732 Y87.117
X7.724 Y86.573
X7.731 Y86.401
X7.841 Y84.852
X7.856 Y84.679
X7.904 Y84.209
X7.91 Y84.163
X8.283 Y82.442
X8.42 Y81.852
X8.453 Y81.753
X9.031 Y80.204
X9.109 Y79.997
X9.3 Y79.515
X9.39 Y79.343
X10.236 Y77.794
X10.333 Y77.622
X10.431 Y77.449
X10.486 Y77.354
X10.83 Y76.893
X11.574 Y75.9
X11.705 Y75.728
X11.976 Y75.384
X12.035 Y75.319
X13.413 Y73.942
X13.757 Y73.623
X13.929 Y73.489
X15.308 Y72.457
X15.554 Y72.285
X15.65 Y72.218
X15.811 Y72.113
X17.387 Y71.252
X17.544 Y71.169
X18.114 Y70.908
X18.577 Y70.735
X19.782 Y70.285
X19.954 Y70.228
X20.47 Y70.082
X22.211 Y69.703
X22.708 Y69.628
X22.88 Y69.607
X24.43 Y69.496
X24.602 Y69.486
X25.118 Y69.469
X25.29 Y69.476
X26.84 Y69.587
X27.184 Y69.615
X27.356 Y69.629
X27.528 Y69.646
X29.766 Y70.133
X29.938 Y70.183
X30.627 Y70.438
X31.66 Y70.823
X32.176 Y71.019
X32.297 Y71.08
X33.897 Y71.954
X34.07 Y72.056
X34.442 Y72.285
X34.586 Y72.378
X36.307 Y73.667
X36.48 Y73.836
X36.996 Y74.351
X37.857 Y75.212
X38.029 Y75.385
X38.168 Y75.556
X39.328 Y77.105
X39.44 Y77.277
X39.661 Y77.622
X39.75 Y77.769
X40.611 Y79.345
X40.697 Y79.515
X40.904 Y80.032
X40.969 Y80.204
X41.547 Y81.753
X41.604 Y81.925
X42.09 Y84.163
X42.126 Y84.507
X42.144 Y84.679
X42.16 Y84.876
X42.269 Y86.401
X42.276 Y86.573
X42.269 Y87.089
X42.258 Y87.261
X42.147 Y88.811
X42.127 Y88.983
X42.082 Y89.327
X42.056 Y89.499
X41.606 Y91.565
X41.549 Y91.737
X41.472 Y91.95
X40.909 Y93.459
X40.84 Y93.631
X40.611 Y94.154
X39.675 Y95.869
X39.578 Y96.019
X39.328 Y96.385
X39.234 Y96.521
X38.176 Y97.934
X38.037 Y98.106
X37.857 Y98.289
X36.652 Y99.493
X36.48 Y99.664
X36.314 Y99.828
X35.963 Y100.091
X34.586 Y101.122
X34.471 Y101.205
X34.07 Y101.446
X33.891 Y101.549
X33.865 Y101.564
G3 X33.287 Y101.235 I-0.179 J-0.358
G1 X33.281 Y101.157 Z-2.992
X33.275 Y101.082 Z-2.97
X33.27 Y101.013 Z-2.933
X33.266 Y100.953 Z-2.883
X33.262 Y100.903 Z-2.822
X33.26 Y100.866 Z-2.753
X33.258 Y100.844 Z-2.678
Y100.836 Z-2.6
G0 Z12.
(2D CONTOUR1)
G64 P0.01 Q0.01
G0 Z15.
X41.3 Y86.35
Z15.
Z5.
G1 Z0.8 F333.33
Z-2.6
G18 G2 X41.7 Z-3. I0.4 K0. F1000.
G1 X42.1
G17 G3 X42.5 Y86.75 I0. J0.4
X7.5 I-17.5 J0.
X27.492 Y69.428 I17.5 J0.
X41.791 Y91.682 I-2.492 J17.322
X41.294 Y91.953 I-0.384 J-0.113
G1 X40.91 Y91.841
X40.835 Y91.819 Z-2.992
X40.763 Y91.797 Z-2.97
X40.697 Y91.778 Z-2.933
X40.639 Y91.761 Z-2.883
X40.591 Y91.747 Z-2.822
X40.556 Y91.736 Z-2.753
X40.534 Y91.73 Z-2.678
X40.526 Y91.728 Z-2.6
G0 Z15.
(2D CONTOUR2)
G0 X1.721 Y60.899
Z15.
Z5.
G1 Z0.8 F333.33
Z0.65
X1.729 Y60.9 Z0.572 F1000.
X1.752 Y60.903 Z0.497
X1.788 Y60.907 Z0.428
X1.838 Y60.913 Z0.367
X1.898 Y60.921 Z0.317
X1.966 Y60.929 Z0.28
X2.041 Y60.938 Z0.258
X2.118 Y60.947 Z0.25
X2.516 Y60.995
G3 X2.865 Y61.44 I-0.048 J0.397
X1.539 Y64.243 Z0.24 I-4.865 J-0.587
G2 X0.4 Y67.078 Z0.229 I2.961 J2.836
G1 Y104.422 Z0.107
G2 X1.601 Y107.321 Z0.097 I4.1 J0.
G1 X4.429 Y110.149 Z0.083
G2 X7.328 Y111.35 Z0.073 I2.899 J-2.899
G1 X42.672 Z-0.043
G2 X45.571 Y110.149 Z-0.053 I0. J-4.1
G1 X48.399 Y107.321 Z-0.067
G2 X49.6 Y104.422 Z-0.077 I-2.899 J-2.899
G1 Y67.078 Z-0.199
G2 X48.461 Y64.243 Z-0.21 I-4.1 J0.
G3 X47.1 Y60.854 Z-0.222 I3.539 J-3.389
G1 Y20.131 Z-0.355
G3 X47.952 Y17.369 Z-0.365 I4.9 J0.
G2 X46.84 Y8.678 Z-0.396 I-5.452 J-3.719
G1 X36.513 Y-0.336 Z-0.441
G2 X34.475 Y-1.1 Z-0.449 I-2.038 J2.335
G1 X11.536 Z-0.524
G2 X9.264 Y-0.109 Z-0.532 I0. J3.1
G1 X0.662 Y9.161 Z-0.573
G2 X1.196 Y18.653 Z-0.608 I4.838 J4.489
G3 X2.9 Y22.368 Z-0.622 I-3.196 J3.715
G1 Y60.853 Z-0.748
G3 X1.539 Y64.243 Z-0.76 I-4.9 J0.
G2 X0.4 Y67.078 Z-0.771 I2.961 J2.836
G1 Y104.422 Z-0.893
G2 X1.601 Y107.321 Z-0.903 I4.1 J0.
G1 X4.429 Y110.149 Z-0.917
G2 X7.328 Y111.35 Z-0.927 I2.899 J-2.899
G1 X42.672 Z-1.043
G2 X45.571 Y110.149 Z-1.053 I0. J-4.1
G1 X48.399 Y107.321 Z-1.067
G2 X49.6 Y104.422 Z-1.077 I-2.899 J-2.899
G1 Y67.078 Z-1.199
G2 X48.461 Y64.243 Z-1.21 I-4.1 J0.
G3 X47.1 Y60.854 Z-1.222 I3.539 J-3.389
G1 Y20.131 Z-1.355
G3 X47.952 Y17.369 Z-1.365 I4.9 J0.
G2 X46.84 Y8.678 Z-1.396 I-5.452 J-3.719
G1 X36.513 Y-0.336 Z-1.441
G2 X34.475 Y-1.1 Z-1.449 I-2.038 J2.335
G1 X11.536 Z-1.524
G2 X9.264 Y-0.109 Z-1.532 I0. J3.1
G1 X0.662 Y9.161 Z-1.573
G2 X1.196 Y18.653 Z-1.608 I4.838 J4.489
G3 X2.9 Y22.368 Z-1.622 I-3.196 J3.715
G1 Y60.853 Z-1.748
G3 X1.539 Y64.243 Z-1.76 I-4.9 J0.
G2 X0.4 Y67.078 Z-1.771 I2.961 J2.836
G1 Y104.422 Z-1.893
G2 X1.601 Y107.321 Z-1.903 I4.1 J0.
G1 X4.429 Y110.149 Z-1.917
G2 X7.328 Y111.35 Z-1.927 I2.899 J-2.899
G1 X42.672 Z-2.043
G2 X45.571 Y110.149 Z-2.053 I0. J-4.1
G1 X48.399 Y107.321 Z-2.067
G2 X49.6 Y104.422 Z-2.077 I-2.899 J-2.899
G1 Y67.078 Z-2.199
G2 X48.461 Y64.243 Z-2.21 I-4.1 J0.
G3 X47.1 Y60.854 Z-2.222 I3.539 J-3.389
G1 Y20.131 Z-2.355
G3 X47.952 Y17.369 Z-2.365 I4.9 J0.
G2 X46.84 Y8.678 Z-2.396 I-5.452 J-3.719
G1 X36.513 Y-0.336 Z-2.441
G2 X34.475 Y-1.1 Z-2.449 I-2.038 J2.335
G1 X11.536 Z-2.524
G2 X9.264 Y-0.109 Z-2.532 I0. J3.1
G1 X0.662 Y9.161 Z-2.573
G2 X1.196 Y18.653 Z-2.608 I4.838 J4.489
G3 X2.9 Y22.368 Z-2.622 I-3.196 J3.715
G1 Y60.853 Z-2.748
G3 X1.539 Y64.243 Z-2.76 I-4.9 J0.
G2 X0.4 Y67.078 Z-2.771 I2.961 J2.836
G1 Y104.422 Z-2.893
G2 X1.601 Y107.321 Z-2.903 I4.1 J0.
G1 X4.429 Y110.149 Z-2.917
G2 X7.328 Y111.35 Z-2.927 I2.899 J-2.899
G1 X42.672 Z-3.043
G2 X45.571 Y110.149 Z-3.053 I0. J-4.1
G1 X48.399 Y107.321 Z-3.067
G2 X49.6 Y104.422 Z-3.077 I-2.899 J-2.899
G1 Y67.078 Z-3.199
X49.596 Y66.899 Z-3.2
G2 X48.461 Y64.243 I-4.096 J0.18
G3 X47.1 Y60.854 I3.539 J-3.389
G1 Y20.131
G3 X47.952 Y17.369 I4.9 J0.
G2 X46.84 Y8.678 I-5.452 J-3.719
G1 X36.513 Y-0.336
G2 X34.475 Y-1.1 I-2.038 J2.335
G1 X11.536
G2 X9.264 Y-0.109 I0. J3.1
G1 X0.662 Y9.161
G2 X1.196 Y18.653 I4.838 J4.489
G3 X2.9 Y22.368 I-3.196 J3.715
G1 Y60.853
G3 X1.539 Y64.243 I-4.9 J0.
G2 X0.4 Y67.078 I2.961 J2.836
G1 Y104.422
G2 X1.601 Y107.321 I4.1 J0.
G1 X4.429 Y110.149
G2 X7.328 Y111.35 I2.899 J-2.899
G1 X42.672
G2 X45.571 Y110.149 I0. J-4.1
G1 X48.399 Y107.321
G2 X49.6 Y104.422 I-2.899 J-2.899
G1 Y67.078
G2 X48.461 Y64.243 I-4.1 J0.
G3 X47.39 Y62.514 I3.539 J-3.389
G0 Z15.
(2D CONTOUR3)
G0 X24.35 Y-1.6
Z15.
Z5.
G1 Z0.8 F333.33
Z-3.1
Y-1.592 Z-3.138 F1000.
Y-1.571 Z-3.171
Y-1.538 Z-3.192
Y-1.5 Z-3.2
Y-1.1
X24.342 Y-1.062
X24.321 Y-1.029
X24.288 Y-1.008
X24.25 Y-1.
X11.536
G2 X9.337 Y-0.041 I0. J3.
G1 X0.735 Y9.229
G2 X1.261 Y18.577 I4.765 J4.421
G3 X3. Y22.368 I-3.261 J3.79
G1 Y60.853
G3 X1.611 Y64.312 I-5. J0.
G2 X0.5 Y67.078 I2.889 J2.767
G1 Y104.422
G2 X1.672 Y107.25 I4. J0.
G1 X4.5 Y110.078
G2 X7.328 Y111.25 I2.829 J-2.828
G1 X42.672
G2 X45.5 Y110.078 I0. J-4.
G1 X48.328 Y107.25
G2 X49.5 Y104.422 I-2.828 J-2.829
G1 Y67.078
G2 X48.389 Y64.312 I-4. J0.
G3 X47. Y60.854 I3.611 J-3.458
G1 Y20.131
G3 X47.87 Y17.313 I5. J0.
G2 X46.774 Y8.753 I-5.37 J-3.663
G1 X36.448 Y-0.26
G2 X34.475 Y-1. I-1.973 J2.26
G1 X24.25
X19.25
G0 Z15.
(BORE1)
G0 X75.25 Y13.65
Z15.
Z2.1
G1 Z0.5 F1000.
X75.275 Y13.625
X75.293 Y13.632
X75.3 Y13.65
X75.292 Y13.677 Z0.474
X75.271 Y13.695 Z0.448
X75.244 Y13.7 Z0.422
X75.218 Y13.688 Z0.397
X75.202 Y13.665 Z0.371
Y13.637 Z0.345
X75.216 Y13.613 Z0.319
X75.241 Y13.601 Z0.293
X75.269 Y13.604 Z0.267
X75.291 Y13.621 Z0.241
X75.3 Y13.648 Z0.215
X75.293 Y13.675 Z0.19
X75.273 Y13.694 Z0.164
X75.246 Y13.7 Z0.138
X75.22 Y13.69 Z0.112
X75.203 Y13.667 Z0.086
X75.201 Y13.639 Z0.06
X75.215 Y13.615 Z0.034
X75.239 Y13.601 Z0.008
X75.267 Y13.603 Z-0.017
X75.29 Y13.619 Z-0.043
X75.3 Y13.645 Z-0.069
X75.294 Y13.673 Z-0.095
X75.275 Y13.693 Z-0.121
X75.248 Y13.7 Z-0.147
X75.222 Y13.691 Z-0.173
X75.204 Y13.669 Z-0.199
X75.201 Y13.642 Z-0.224
X75.213 Y13.616 Z-0.25
X75.237 Y13.602 Z-0.276
X75.265 Z-0.302
X75.288 Y13.618 Z-0.328
X75.3 Y13.643 Z-0.354
X75.295 Y13.671 Z-0.38
X75.277 Y13.692 Z-0.406
X75.25 Y13.7 Z-0.431
X75.223 Y13.692 Z-0.457
X75.205 Y13.671 Z-0.483
X75.2 Y13.644 Z-0.509
X75.211 Y13.618 Z-0.535
X75.235 Y13.602 Z-0.561
X75.263 Z-0.587
X75.287 Y13.616 Z-0.613
X75.299 Y13.641 Z-0.638
X75.296 Y13.669 Z-0.664
X75.279 Y13.691 Z-0.69
X75.253 Y13.7 Z-0.716
X75.225 Y13.694 Z-0.742
X75.206 Y13.673 Z-0.768
X75.2 Y13.646 Z-0.794
X75.21 Y13.62 Z-0.82
X75.232 Y13.603 Z-0.845
X75.26 Y13.601 Z-0.871
X75.285 Y13.614 Z-0.897
X75.299 Y13.639 Z-0.923
X75.297 Y13.667 Z-0.949
X75.281 Y13.689 Z-0.975
X75.255 Y13.7 Z-1.001
X75.227 Y13.695 Z-1.027
X75.207 Y13.675 Z-1.052
X75.2 Y13.648 Z-1.078
X75.209 Y13.622 Z-1.104
X75.23 Y13.604 Z-1.13
X75.258 Y13.601 Z-1.156
X75.283 Y13.613 Z-1.182
X75.298 Y13.636 Z-1.208
Y13.664 Z-1.234
X75.283 Y13.688 Z-1.259
X75.257 Y13.699 Z-1.285
X75.229 Y13.696 Z-1.311
X75.208 Y13.677 Z-1.337
X75.2 Y13.651 Z-1.363
X75.207 Y13.624 Z-1.389
X75.228 Y13.605 Z-1.415
X75.256 Y13.6 Z-1.441
X75.282 Y13.611 Z-1.466
X75.297 Y13.634 Z-1.492
X75.298 Y13.662 Z-1.518
X75.284 Y13.686 Z-1.544
X75.259 Y13.699 Z-1.57
X75.232 Y13.696 Z-1.596
X75.209 Y13.679 Z-1.622
X75.2 Y13.653 Z-1.648
X75.206 Y13.626 Z-1.673
X75.226 Y13.606 Z-1.699
X75.254 Y13.6 Z-1.725
X75.28 Y13.61 Z-1.751
X75.297 Y13.632 Z-1.777
X75.299 Y13.66 Z-1.803
X75.286 Y13.685 Z-1.829
X75.262 Y13.699 Z-1.855
X75.234 Y13.697 Z-1.88
X75.211 Y13.681 Z-1.906
X75.2 Y13.655 Z-1.932
X75.205 Y13.628 Z-1.958
X75.224 Y13.607 Z-1.984
X75.251 Y13.6 Z-2.01
X75.278 Y13.609 Z-2.036
X75.296 Y13.63 Z-2.062
X75.299 Y13.658 Z-2.087
X75.287 Y13.683 Z-2.113
X75.264 Y13.698 Z-2.139
X75.236 Z-2.165
X75.212 Y13.683 Z-2.191
X75.201 Y13.657 Z-2.217
X75.204 Y13.63 Z-2.243
X75.222 Y13.608 Z-2.269
X75.249 Y13.6 Z-2.294
X75.276 Y13.607 Z-2.32
X75.295 Y13.628 Z-2.346
X75.3 Y13.655 Z-2.372
X75.289 Y13.681 Z-2.398
X75.266 Y13.697 Z-2.424
X75.238 Y13.699 Z-2.45
X75.214 Y13.685 Z-2.476
X75.201 Y13.66 Z-2.501
X75.203 Y13.632 Z-2.527
X75.22 Y13.61 Z-2.553
X75.247 Y13.6 Z-2.579
X75.274 Y13.606 Z-2.605
X75.294 Y13.626 Z-2.631
X75.3 Y13.653 Z-2.657
X75.29 Y13.68 Z-2.683
X75.268 Y13.697 Z-2.708
X75.24 Y13.699 Z-2.734
X75.215 Y13.686 Z-2.76
X75.201 Y13.662 Z-2.786
X75.203 Y13.634 Z-2.812
X75.219 Y13.611 Z-2.838
X75.244 Y13.6 Z-2.864
X75.272 Y13.605 Z-2.89
X75.293 Y13.624 Z-2.915
X75.3 Y13.651 Z-2.941
X75.292 Y13.678 Z-2.967
X75.27 Y13.696 Z-2.993
X75.243 Y13.699 Z-3.019
X75.217 Y13.688 Z-3.045
X75.202 Y13.664 Z-3.071
Y13.636 Z-3.097
X75.217 Y13.613 Z-3.122
X75.242 Y13.601 Z-3.148
X75.27 Y13.604 Z-3.174
X75.291 Y13.622 Z-3.2
G3 X75.209 Y13.678 I-0.041 J0.028
X75.291 Y13.622 I0.041 J-0.028
G1 X75.295 Y13.641
X75.285 Y13.657
X75.25 Y13.65
G0 Z15.
(2D ADAPTIVE1)
G64 P0.1 Q0.1
G0 X73.286 Y86.608
Z12.
Z2.51
Z2.5
G3 X76.061 Y84.955 Z2.368 I1.964 J0.142 F333.33
X76.654 Y88.127 Z2.235 I-0.81 J1.792
X73.476 Y87.589 Z2.103 I-1.401 J-1.378
X75.076 Y84.796 Z1.971 I1.774 J-0.838
X77.143 Y87.258 Z1.839 I0.174 J1.952
X74.122 Y88.347 Z1.706 I-1.89 J-0.51
X74.143 Y85.14 Z1.574 I1.129 J-1.596
X77.142 Y86.265 Z1.442 I1.107 J1.609
X75.054 Y88.689 Z1.31 I-1.89 J0.483
X73.501 Y85.895 Z1.177 I0.198 J-1.938
X76.655 Y85.403 Z1.045 I1.749 J0.854
X76.029 Y88.529 Z0.913 I-1.404 J1.345
X73.314 Y86.865 Z0.781 I-0.777 J-1.779
X75.81 Y84.893 Z0.648 I1.936 J-0.115
X76.798 Y87.913 Z0.516 I-0.559 J1.854
X73.627 Y87.798 Z0.384 I-1.546 J-1.164
X74.828 Y84.865 Z0.252 I1.624 J-1.048
X77.164 Y87.002 Z0.119 I0.423 J1.883
X74.355 Y88.455 Z-0.013 I-1.911 J-0.253
X73.961 Y85.321 Z-0.145 I0.896 J-1.704
X77.034 Y86.032 Z-0.277 I1.289 J1.427
X75.309 Y88.668 Z-0.41 I-1.782 J0.716
X73.433 Y86.142 Z-0.542 I-0.057 J-1.918
X76.447 Y85.254 Z-0.674 I1.817 J0.608
X76.241 Y88.386 Z-0.806 I-1.196 J1.494
X73.376 Y87.113 Z-0.939 I-0.988 J-1.636
X75.557 Y84.866 Z-1.071 I1.875 J-0.363
X76.912 Y87.685 Z-1.203 I-0.306 J1.882
X73.802 Y87.983 Z-1.335 I-1.659 J-0.936
X74.594 Y84.965 Z-1.468 I1.449 J-1.232
X77.15 Y86.748 Z-1.6 I0.656 J1.783
X73.35 I-1.9 J0.
X77.15 I1.9 J0.
G1 X77.166 Y87.506 F1000.
X77.187 Y87.598
X77.201 Y87.748
X77.191 Y87.897
X77.162 Y88.044
X77.115 Y88.187
X77.053 Y88.324
X76.978 Y88.454
X76.892 Y88.577
X76.796 Y88.692
X76.691 Y88.798
X76.578 Y88.897
X76.457 Y88.987
X76.331 Y89.067
X76.199 Y89.139
X76.063 Y89.201
X75.923 Y89.255
X75.779 Y89.298
X75.632 Y89.333
X75.481 Y89.359
X75.327 Y89.375
X75.171 Y89.381
X75.013 Y89.377
X74.854 Y89.363
X74.695 Y89.339
X74.536 Y89.304
X74.38 Y89.259
X74.225 Y89.204
X74.074 Y89.138
X73.927 Y89.063
X73.784 Y88.978
X73.646 Y88.884
X73.514 Y88.78
X73.389 Y88.669
X73.27 Y88.549
X73.16 Y88.421
X73.057 Y88.287
X72.963 Y88.145
X72.879 Y87.998
X72.803 Y87.846
X72.738 Y87.688
X72.683 Y87.527
X72.638 Y87.363
X72.604 Y87.195
X72.58 Y87.026
X72.567 Y86.855
X72.566 Y86.684
X72.575 Y86.513
X72.595 Y86.343
X72.626 Y86.174
X72.668 Y86.008
X72.72 Y85.844
X72.783 Y85.685
X72.856 Y85.529
X72.938 Y85.379
X73.03 Y85.234
X73.132 Y85.095
X73.242 Y84.963
X73.36 Y84.838
X73.486 Y84.721
X73.619 Y84.612
X73.759 Y84.512
X73.905 Y84.421
X74.056 Y84.34
X74.213 Y84.269
X74.373 Y84.207
X74.538 Y84.156
X74.705 Y84.116
X74.874 Y84.087
X75.045 Y84.068
X75.217 Y84.06
X75.389 Y84.064
X75.561 Y84.078
X75.731 Y84.103
X75.899 Y84.14
X76.065 Y84.186
X76.227 Y84.244
X76.385 Y84.311
X76.539 Y84.389
X76.687 Y84.476
X76.829 Y84.573
X76.965 Y84.678
X77.094 Y84.792
X77.216 Y84.914
X77.329 Y85.044
X77.434 Y85.18
X77.53 Y85.323
X77.617 Y85.473
X77.708 Y85.656
X77.818 Y85.917
X77.939 Y86.266
X78.014 Y86.536
X78.063 Y86.77
X78.094 Y86.984
X78.11 Y87.19
X78.113 Y87.388
X78.104 Y87.575
X78.083 Y87.755
X78.051 Y87.933
X78.008 Y88.108
X77.954 Y88.279
X77.89 Y88.444
X77.816 Y88.604
X77.732 Y88.76
X77.636 Y88.911
X77.53 Y89.058
X77.414 Y89.199
X77.288 Y89.333
X77.152 Y89.46
X77.007 Y89.58
X76.853 Y89.691
X76.69 Y89.793
X76.519 Y89.886
X76.341 Y89.968
X76.157 Y90.039
X75.966 Y90.099
X75.77 Y90.148
X75.57 Y90.183
X75.366 Y90.206
X75.158 Y90.217
X74.949 Y90.213
X74.739 Y90.197
X74.53 Y90.166
X74.321 Y90.122
X74.114 Y90.065
X73.91 Y89.994
X73.71 Y89.909
X73.515 Y89.812
X73.326 Y89.702
X73.144 Y89.579
X72.969 Y89.445
X72.802 Y89.299
X72.645 Y89.142
X72.498 Y88.976
X72.362 Y88.799
X72.236 Y88.614
X72.123 Y88.421
X72.022 Y88.221
X71.934 Y88.014
X71.859 Y87.802
X71.798 Y87.585
X71.751 Y87.365
X71.718 Y87.141
X71.699 Y86.916
X71.695 Y86.69
X71.705 Y86.463
X71.729 Y86.238
X71.769 Y86.015
X71.822 Y85.794
X71.889 Y85.577
X71.97 Y85.365
X72.065 Y85.159
X72.173 Y84.959
X72.293 Y84.766
X72.425 Y84.581
X72.569 Y84.404
X72.724 Y84.238
X72.89 Y84.081
X73.065 Y83.936
X73.249 Y83.802
X73.441 Y83.68
X73.641 Y83.571
X73.848 Y83.474
X74.06 Y83.391
X74.277 Y83.322
X74.498 Y83.266
X74.722 Y83.225
X74.948 Y83.199
X75.176 Y83.187
X75.404 Y83.189
X75.631 Y83.206
X75.857 Y83.238
X76.08 Y83.284
X76.3 Y83.344
X76.516 Y83.418
X76.726 Y83.506
X76.931 Y83.607
X77.128 Y83.721
X77.318 Y83.847
X77.5 Y83.986
X77.675 Y84.138
X77.846 Y84.307
X78.012 Y84.493
X78.184 Y84.713
X78.347 Y84.952
X78.496 Y85.203
X78.627 Y85.46
X78.74 Y85.722
X78.834 Y85.986
X78.91 Y86.25
X78.968 Y86.513
X79.007 Y86.774
X79.03 Y87.033
X79.036 Y87.289
X79.026 Y87.541
X78.999 Y87.789
X78.958 Y88.033
X78.901 Y88.271
X78.83 Y88.505
X78.744 Y88.732
X78.644 Y88.954
X78.529 Y89.169
X78.401 Y89.376
X78.26 Y89.576
X78.105 Y89.766
X77.938 Y89.947
X77.759 Y90.118
X77.569 Y90.278
X77.367 Y90.426
X77.155 Y90.561
X76.934 Y90.684
X76.703 Y90.793
X76.465 Y90.888
X76.219 Y90.967
X75.967 Y91.032
X75.709 Y91.08
X75.448 Y91.112
X75.183 Y91.127
X74.916 Y91.125
X74.649 Y91.106
X74.381 Y91.07
X74.116 Y91.016
X73.853 Y90.946
X73.594 Y90.858
X73.34 Y90.753
X73.092 Y90.632
X72.852 Y90.495
X72.62 Y90.342
X72.398 Y90.174
X72.186 Y89.992
X71.986 Y89.796
X71.798 Y89.587
X71.624 Y89.366
X71.464 Y89.134
X71.318 Y88.891
X71.189 Y88.64
X71.075 Y88.38
X70.979 Y88.113
X70.899 Y87.84
X70.837 Y87.562
X70.793 Y87.28
X70.767 Y86.996
X70.759 Y86.711
X70.769 Y86.425
X70.798 Y86.14
X70.845 Y85.858
X70.91 Y85.579
X70.993 Y85.305
X71.093 Y85.036
X71.21 Y84.774
X71.344 Y84.52
X71.493 Y84.275
X71.659 Y84.04
X71.838 Y83.816
X72.032 Y83.604
X72.24 Y83.404
X72.459 Y83.219
X72.69 Y83.047
X72.932 Y82.891
X73.183 Y82.751
X73.443 Y82.627
X73.71 Y82.519
X73.983 Y82.43
X74.262 Y82.357
X74.545 Y82.303
X74.83 Y82.267
X75.118 Y82.249
X75.406 Y82.25
X75.693 Y82.269
X75.979 Y82.306
X76.262 Y82.362
X76.54 Y82.436
X76.813 Y82.527
X77.081 Y82.636
X77.342 Y82.762
X77.598 Y82.907
X77.848 Y83.07
X78.092 Y83.253
X78.329 Y83.455
X78.558 Y83.678
X78.777 Y83.919
X78.982 Y84.177
X79.172 Y84.45
X79.345 Y84.735
X79.498 Y85.03
X79.632 Y85.334
X79.746 Y85.643
X79.839 Y85.957
X79.911 Y86.274
X79.963 Y86.592
X79.993 Y86.91
X80.003 Y87.227
X79.993 Y87.542
X79.963 Y87.853
X79.913 Y88.16
X79.845 Y88.462
X79.757 Y88.759
X79.65 Y89.048
X79.526 Y89.33
X79.383 Y89.603
X79.224 Y89.866
X79.047 Y90.12
X78.855 Y90.361
X78.647 Y90.591
X78.424 Y90.807
X78.187 Y91.01
X77.936 Y91.197
X77.673 Y91.369
X77.398 Y91.524
X77.112 Y91.662
X76.817 Y91.783
X76.513 Y91.884
X76.201 Y91.966
X75.884 Y92.029
X75.561 Y92.071
X75.235 Y92.092
X74.907 Y92.093
X74.578 Y92.073
X74.249 Y92.031
X73.923 Y91.968
X73.6 Y91.884
X73.281 Y91.779
X72.969 Y91.654
X72.665 Y91.508
X72.37 Y91.343
X72.085 Y91.159
X71.812 Y90.956
X71.551 Y90.736
X71.305 Y90.499
X71.074 Y90.246
X70.859 Y89.978
X70.661 Y89.696
X70.481 Y89.402
X70.32 Y89.097
X70.179 Y88.781
X70.058 Y88.456
X69.959 Y88.124
X69.88 Y87.786
X69.823 Y87.443
X69.788 Y87.097
X69.776 Y86.749
X69.785 Y86.401
X69.817 Y86.054
X69.872 Y85.709
X69.948 Y85.368
X70.046 Y85.033
X70.165 Y84.705
X70.305 Y84.384
X70.465 Y84.073
X70.645 Y83.773
X70.844 Y83.485
X71.061 Y83.21
X71.295 Y82.949
X71.546 Y82.704
X71.811 Y82.476
X72.091 Y82.264
X72.384 Y82.071
X72.689 Y81.898
X73.004 Y81.744
X73.328 Y81.61
X73.661 Y81.497
X73.999 Y81.406
X74.344 Y81.337
X74.691 Y81.29
X75.042 Y81.266
X75.393 Y81.263
X75.743 Y81.284
X76.092 Y81.326
X76.437 Y81.391
X76.779 Y81.478
X77.117 Y81.588
X77.449 Y81.72
X77.775 Y81.874
X78.094 Y82.051
X78.405 Y82.25
X78.707 Y82.472
X78.998 Y82.716
X79.274 Y82.98
X79.535 Y83.263
X79.779 Y83.564
X80.004 Y83.881
X80.208 Y84.212
X80.391 Y84.557
X80.552 Y84.912
X80.689 Y85.275
X80.802 Y85.646
X80.891 Y86.021
X80.956 Y86.4
X80.995 Y86.78
X81.011 Y87.161
X81.002 Y87.54
X80.969 Y87.916
X80.912 Y88.288
X80.832 Y88.655
X80.728 Y89.016
X80.602 Y89.368
X80.454 Y89.712
X80.284 Y90.045
X80.092 Y90.367
X79.881 Y90.677
X79.65 Y90.972
X79.4 Y91.253
X79.132 Y91.517
X78.847 Y91.765
X78.546 Y91.994
X78.229 Y92.205
X77.899 Y92.395
X77.556 Y92.564
X77.202 Y92.712
X76.838 Y92.837
X76.465 Y92.939
X76.085 Y93.017
X75.699 Y93.071
X75.309 Y93.1
X74.916 Y93.104
X74.523 Y93.083
X74.131 Y93.037
X73.741 Y92.965
X73.355 Y92.869
X72.974 Y92.747
X72.602 Y92.601
X72.238 Y92.431
X71.885 Y92.237
X71.544 Y92.021
X71.217 Y91.783
X70.905 Y91.523
X70.61 Y91.244
X70.332 Y90.946
X70.074 Y90.63
X69.836 Y90.297
X69.62 Y89.95
X69.425 Y89.588
X69.255 Y89.215
X69.108 Y88.831
X68.986 Y88.438
X68.889 Y88.037
X68.818 Y87.631
X68.773 Y87.22
X68.755 Y86.807
X68.763 Y86.394
X68.797 Y85.981
X68.858 Y85.572
X68.945 Y85.166
X69.057 Y84.767
X69.195 Y84.376
X69.358 Y83.995
X69.545 Y83.624
X69.756 Y83.266
X69.989 Y82.922
X70.243 Y82.593
X70.519 Y82.282
X70.813 Y81.988
X71.126 Y81.714
X71.456 Y81.461
X71.801 Y81.229
X72.161 Y81.02
X72.533 Y80.834
X72.917 Y80.672
X73.31 Y80.535
X73.711 Y80.423
X74.119 Y80.338
X74.531 Y80.278
X74.946 Y80.246
X75.363 Y80.239
X75.779 Y80.26
X76.195 Y80.307
X76.607 Y80.381
X77.016 Y80.481
X77.419 Y80.608
X77.817 Y80.762
X78.207 Y80.942
X78.588 Y81.149
X78.958 Y81.382
X79.315 Y81.64
X79.657 Y81.922
X79.983 Y82.227
X80.29 Y82.554
X80.577 Y82.902
X80.841 Y83.268
X81.082 Y83.652
X81.298 Y84.05
X81.488 Y84.461
X81.652 Y84.882
X81.787 Y85.313
X81.895 Y85.75
X81.974 Y86.192
X82.025 Y86.637
X82.047 Y87.084
X82.04 Y87.529
X82.005 Y87.972
X81.942 Y88.411
X81.851 Y88.845
X81.732 Y89.271
X81.587 Y89.688
X81.416 Y90.095
X81.218 Y90.49
X80.996 Y90.872
X80.75 Y91.239
X80.481 Y91.59
X80.189 Y91.923
X79.876 Y92.237
X79.542 Y92.532
X79.19 Y92.805
X78.821 Y93.055
X78.435 Y93.282
X78.034 Y93.485
X77.619 Y93.662
X77.193 Y93.812
X76.757 Y93.935
X76.313 Y94.031
X75.862 Y94.098
X75.406 Y94.136
X74.947 Y94.145
X74.488 Y94.124
X74.029 Y94.074
X73.573 Y93.994
X73.121 Y93.885
X72.677 Y93.747
X72.241 Y93.581
X71.815 Y93.386
X71.402 Y93.164
X71.003 Y92.916
X70.62 Y92.642
X70.254 Y92.343
X69.908 Y92.021
X69.582 Y91.677
X69.279 Y91.312
X68.999 Y90.928
X68.743 Y90.526
X68.514 Y90.108
X68.312 Y89.676
X68.137 Y89.231
X67.992 Y88.775
X67.875 Y88.31
X67.789 Y87.839
X67.732 Y87.362
X67.707 Y86.883
X67.712 Y86.403
X67.747 Y85.923
X67.814 Y85.447
X67.911 Y84.975
X68.038 Y84.51
X68.194 Y84.055
X68.379 Y83.61
X68.593 Y83.177
X68.834 Y82.759
X69.101 Y82.357
X69.393 Y81.973
X69.71 Y81.609
X70.049 Y81.265
X70.41 Y80.943
X70.79 Y80.646
X71.189 Y80.373
X71.605 Y80.126
X72.035 Y79.906
X72.479 Y79.715
X72.934 Y79.552
X73.399 Y79.418
X73.872 Y79.315
X74.35 Y79.241
X74.832 Y79.199
X75.317 Y79.188
X75.802 Y79.207
X76.286 Y79.258
X76.768 Y79.34
X77.245 Y79.453
X77.717 Y79.597
X78.181 Y79.772
X78.635 Y79.977
X79.078 Y80.213
X79.508 Y80.478
X79.922 Y80.771
X80.319 Y81.092
X80.696 Y81.44
X81.051 Y81.812
X81.383 Y82.208
X81.69 Y82.624
X81.969 Y83.061
X82.221 Y83.514
X82.442 Y83.983
X82.634 Y84.464
X82.794 Y84.957
X82.921 Y85.458
X83.017 Y85.965
X83.079 Y86.477
X83.109 Y86.99
X83.106 Y87.504
X83.07 Y88.015
X83.002 Y88.523
X82.901 Y89.024
X82.768 Y89.518
X82.605 Y90.002
X82.41 Y90.474
X82.186 Y90.932
X81.933 Y91.376
X81.652 Y91.803
X81.344 Y92.211
X81.011 Y92.599
X80.652 Y92.965
X80.27 Y93.308
X79.867 Y93.627
X79.443 Y93.92
X79. Y94.185
X78.54 Y94.423
X78.064 Y94.63
X77.575 Y94.808
X77.075 Y94.954
X76.565 Y95.068
X76.047 Y95.15
X75.524 Y95.198
X74.997 Y95.213
X74.469 Y95.194
X73.942 Y95.141
X73.418 Y95.054
X72.9 Y94.934
X72.389 Y94.78
X71.888 Y94.594
X71.398 Y94.375
X70.923 Y94.125
X70.464 Y93.844
X70.022 Y93.534
X69.601 Y93.196
X69.201 Y92.831
X68.825 Y92.441
X68.475 Y92.026
X68.151 Y91.59
X67.855 Y91.133
X67.589 Y90.657
X67.353 Y90.165
X67.149 Y89.658
X66.978 Y89.138
X66.84 Y88.608
X66.737 Y88.07
X66.668 Y87.526
X66.634 Y86.979
X66.635 Y86.43
X66.671 Y85.881
X66.742 Y85.336
X66.848 Y84.796
X66.988 Y84.264
X67.163 Y83.742
X67.37 Y83.232
X67.61 Y82.735
X67.881 Y82.256
X68.182 Y81.794
X68.512 Y81.352
X68.87 Y80.932
X69.254 Y80.536
X69.663 Y80.165
X70.095 Y79.822
X70.548 Y79.506
X71.02 Y79.22
X71.51 Y78.965
X72.015 Y78.741
X72.533 Y78.55
X73.063 Y78.393
X73.602 Y78.27
X74.148 Y78.182
X74.699 Y78.129
X75.253 Y78.111
X75.808 Y78.128
X76.362 Y78.182
X76.913 Y78.27
X77.459 Y78.395
X77.999 Y78.554
X78.53 Y78.749
X79.049 Y78.979
X79.556 Y79.242
X80.047 Y79.539
X80.52 Y79.868
X80.973 Y80.229
X81.403 Y80.619
X81.809 Y81.037
X82.189 Y81.481
X82.54 Y81.95
X82.86 Y82.44
X83.149 Y82.951
X83.405 Y83.479
X83.626 Y84.023
X83.812 Y84.579
X83.962 Y85.145
X84.075 Y85.719
X84.151 Y86.299
X84.19 Y86.881
X84.191 Y87.464
X84.155 Y88.045
X84.082 Y88.622
X83.973 Y89.193
X83.827 Y89.755
X83.646 Y90.306
X83.43 Y90.845
X83.18 Y91.368
X82.897 Y91.875
X82.581 Y92.363
X82.236 Y92.829
X81.86 Y93.273
X81.457 Y93.693
X81.026 Y94.087
X80.571 Y94.452
X80.093 Y94.789
X79.593 Y95.094
X79.074 Y95.368
X78.537 Y95.608
X77.984 Y95.814
X77.419 Y95.985
X76.842 Y96.119
X76.257 Y96.216
X75.665 Y96.276
X75.069 Y96.298
X74.472 Y96.282
X73.875 Y96.227
X73.282 Y96.134
X72.695 Y96.003
X72.116 Y95.835
X71.548 Y95.629
X70.994 Y95.387
X70.454 Y95.109
X69.933 Y94.797
X69.432 Y94.452
X68.953 Y94.074
X68.499 Y93.666
X68.071 Y93.229
X67.671 Y92.765
X67.302 Y92.276
X66.964 Y91.764
X66.659 Y91.23
X66.389 Y90.677
X66.154 Y90.108
X65.956 Y89.524
X65.795 Y88.928
X65.673 Y88.323
X65.59 Y87.711
X65.547 Y87.094
X65.542 Y86.475
X65.578 Y85.857
X65.653 Y85.242
X65.767 Y84.633
X65.92 Y84.032
X66.111 Y83.442
X66.34 Y82.865
X66.605 Y82.304
X66.905 Y81.76
X67.24 Y81.237
X67.608 Y80.737
X68.007 Y80.26
X68.436 Y79.81
X68.893 Y79.389
X69.376 Y78.997
X69.883 Y78.637
X70.412 Y78.31
X70.961 Y78.018
X71.528 Y77.761
X72.11 Y77.542
X72.705 Y77.359
X73.311 Y77.215
X73.926 Y77.111
X74.546 Y77.045
X75.17 Y77.02
X75.796 Y77.034
X76.421 Y77.089
X77.042 Y77.183
X77.659 Y77.318
X78.268 Y77.492
X78.866 Y77.706
X79.452 Y77.959
X80.024 Y78.25
X80.577 Y78.578
X81.11 Y78.942
X81.621 Y79.342
X82.107 Y79.774
X82.565 Y80.238
X82.994 Y80.731
X83.39 Y81.251
X83.754 Y81.797
X84.081 Y82.365
X84.372 Y82.953
X84.625 Y83.558
X84.838 Y84.179
X85.011 Y84.811
X85.144 Y85.452
X85.234 Y86.101
X85.284 Y86.753
X85.291 Y87.406
X85.256 Y88.058
X85.18 Y88.705
X85.063 Y89.346
X84.905 Y89.978
X84.707 Y90.598
X84.47 Y91.204
X84.195 Y91.794
X83.882 Y92.365
X83.533 Y92.915
X83.15 Y93.442
X82.733 Y93.944
X82.285 Y94.418
X81.806 Y94.863
X81.3 Y95.278
X80.767 Y95.659
X80.21 Y96.007
X79.631 Y96.318
X79.032 Y96.592
X78.416 Y96.828
X77.785 Y97.024
X77.141 Y97.18
X76.487 Y97.295
X75.826 Y97.367
X75.16 Y97.398
X74.492 Y97.385
X73.825 Y97.33
X73.162 Y97.232
X72.505 Y97.091
X71.857 Y96.909
X71.221 Y96.684
X70.6 Y96.42
X69.995 Y96.115
X69.411 Y95.772
X68.849 Y95.391
X68.311 Y94.975
X67.8 Y94.524
X67.319 Y94.042
X66.869 Y93.528
X66.452 Y92.986
X66.07 Y92.418
X65.725 Y91.827
X65.419 Y91.213
X65.152 Y90.581
X64.925 Y89.932
X64.741 Y89.27
X64.599 Y88.597
X64.501 Y87.915
X64.446 Y87.228
X64.435 Y86.539
X64.469 Y85.85
X64.546 Y85.164
X64.667 Y84.485
X64.832 Y83.814
X65.039 Y83.155
X65.288 Y82.51
X65.578 Y81.882
X65.908 Y81.274
X66.276 Y80.688
X66.681 Y80.127
X67.121 Y79.593
X67.594 Y79.088
X68.099 Y78.614
X68.633 Y78.173
X69.194 Y77.767
X69.78 Y77.398
X70.389 Y77.067
X71.018 Y76.776
X71.664 Y76.525
X72.326 Y76.316
X72.999 Y76.15
X73.683 Y76.027
X74.373 Y75.949
X75.069 Y75.914
X75.766 Y75.924
X76.462 Y75.979
X77.156 Y76.078
X77.843 Y76.222
X78.522 Y76.41
X79.19 Y76.643
X79.844 Y76.918
X80.481 Y77.235
X81.098 Y77.594
X81.694 Y77.993
X82.264 Y78.431
X82.806 Y78.905
X83.318 Y79.414
X83.797 Y79.956
X84.242 Y80.529
X84.649 Y81.129
X85.017 Y81.755
X85.345 Y82.404
X85.631 Y83.072
X85.873 Y83.757
X86.071 Y84.455
X86.224 Y85.165
X86.33 Y85.883
X86.391 Y86.605
X86.406 Y87.329
X86.374 Y88.053
X86.295 Y88.772
X86.171 Y89.484
X86.002 Y90.187
X85.789 Y90.877
X85.531 Y91.552
X85.231 Y92.209
X84.889 Y92.846
X84.508 Y93.46
X84.087 Y94.048
X83.63 Y94.609
X83.137 Y95.14
X82.61 Y95.638
X82.053 Y96.103
X81.465 Y96.531
X80.851 Y96.922
X80.212 Y97.272
X79.551 Y97.582
X78.871 Y97.849
X78.173 Y98.073
X77.461 Y98.252
X76.738 Y98.385
X76.007 Y98.472
X75.27 Y98.511
X74.531 Y98.504
X73.793 Y98.449
X73.058 Y98.347
X72.33 Y98.198
X71.612 Y98.002
X70.907 Y97.761
X70.217 Y97.474
X69.546 Y97.143
X68.897 Y96.769
X68.272 Y96.354
X67.674 Y95.899
X67.106 Y95.407
X66.569 Y94.878
X66.067 Y94.315
X65.602 Y93.721
X65.175 Y93.097
X64.788 Y92.447
X64.444 Y91.773
X64.143 Y91.077
X63.887 Y90.364
X63.678 Y89.636
X63.515 Y88.896
X63.4 Y88.147
X63.332 Y87.392
X63.313 Y86.635
X63.343 Y85.878
X63.42 Y85.124
X63.545 Y84.377
X63.717 Y83.639
X63.936 Y82.914
X64.201 Y82.204
X64.51 Y81.512
X64.863 Y80.841
X65.257 Y80.194
X65.691 Y79.574
X66.165 Y78.982
X66.674 Y78.421
X67.219 Y77.894
X67.795 Y77.403
X68.402 Y76.949
X69.036 Y76.534
X69.695 Y76.161
X70.377 Y75.83
X71.078 Y75.543
X71.796 Y75.301
X72.528 Y75.105
X73.271 Y74.955
X74.021 Y74.854
X74.777 Y74.799
X75.535 Y74.793
X76.291 Y74.834
X77.044 Y74.923
X77.789 Y75.059
X78.525 Y75.241
X79.247 Y75.469
X79.954 Y75.742
X80.643 Y76.057
X81.311 Y76.415
X81.955 Y76.813
X82.574 Y77.25
X83.165 Y77.725
X83.726 Y78.234
X84.255 Y78.777
X84.749 Y79.351
X85.208 Y79.954
X85.63 Y80.583
X86.012 Y81.237
X86.355 Y81.913
X86.655 Y82.609
X86.913 Y83.321
X87.128 Y84.048
X87.297 Y84.786
X87.421 Y85.534
X87.499 Y86.287
X87.53 Y87.044
X87.515 Y87.802
X87.454 Y88.557
X87.347 Y89.307
X87.195 Y90.049
X86.998 Y90.781
X86.757 Y91.499
X86.472 Y92.201
X86.145 Y92.885
X85.777 Y93.547
X85.37 Y94.186
X84.924 Y94.799
X84.442 Y95.383
X83.925 Y95.937
X83.376 Y96.459
X82.796 Y96.947
X82.188 Y97.398
X81.553 Y97.812
X80.894 Y98.187
X80.214 Y98.52
X79.514 Y98.811
X78.798 Y99.059
X78.069 Y99.264
X77.328 Y99.424
X76.58 Y99.54
X75.825 Y99.61
X75.068 Y99.636
X74.311 Y99.616
X73.556 Y99.552
X72.806 Y99.442
X72.064 Y99.289
X71.332 Y99.092
X70.613 Y98.853
X69.91 Y98.57
X69.225 Y98.246
X68.561 Y97.882
X67.92 Y97.478
X67.304 Y97.038
X66.714 Y96.562
X66.153 Y96.052
X65.623 Y95.511
X65.126 Y94.939
X64.663 Y94.34
X64.235 Y93.714
X63.844 Y93.065
X63.492 Y92.394
