%
(IDEX_RP)
(T3 D=4. CR=0. - ZMIN=-3.15 - FLAT END MILL)
(T8 D=8. CR=0. TAPER=45DEG - ZMIN=-3.3 - CHAMFER MILL)
(T14 D=2.35 CR=0. - ZMIN=-3.063 - THREAD MILL)
(T18 D=4. CR=2. - ZMIN=-2.286 - BALL END MILL)
(T19 D=2. CR=0. - ZMIN=-3.15 - FLAT END MILL)
(T44 D=2.9 CR=0. TAPER=130DEG - ZMIN=-3.676 - DRILL)
(T46 D=2.5 CR=0. TAPER=130DEG - ZMIN=-3.583 - DRILL)
(T47 D=3.3 CR=0. TAPER=165DEG - ZMIN=-3.217 - DRILL)
G90 G94 G17 G91.1
G21
G53 G0 Z0.
(DRILL1)
N10 T46 M600
S19099 M300
G17 G90 G94
G54
M7
G0 X94.501 Y14.65
G43 Z15. H46
G0 Z5.
Z2.
G1 Z-2. F572.96
G0 Z-1.9
G1 Z-3.583 F572.96
G0 Z5.
X85.547 Y25.494
Z2.
G1 Z-2. F572.96
G0 Z-1.9
G1 Z-3.583 F572.96
G0 Z5.
X81.337 Y26.621
Z2.
G1 Z-2. F572.96
G0 Z-1.9
G1 Z-3.583 F572.96
G0 Z5.
X76.996 Y27.
Z2.
G1 Z-2. F572.96
G0 Z-1.9
G1 Z-3.583 F572.96
G0 Z5.
X72.655 Y26.619
Z2.
G1 Z-2. F572.96
G0 Z-1.9
G1 Z-3.583 F572.96
G0 Z5.
X68.446 Y25.491
Z2.
G1 Z-2. F572.96
G0 Z-1.9
G1 Z-3.583 F572.96
G0 Z5.
X57.501 Y14.65
Z2.
G1 Z-2. F572.96
G0 Z-1.9
G1 Z-3.583 F572.96
G0 Z5.
X43.501
Z2.
G1 Z-2. F572.96
G0 Z-1.9
G1 Z-3.583 F572.96
G0 Z5.
X34.556 Y25.491
Z2.
G1 Z-2. F572.96
G0 Z-1.9
G1 Z-3.583 F572.96
G0 Z5.
X30.347 Y26.619
Z2.
G1 Z-2. F572.96
G0 Z-1.9
G1 Z-3.583 F572.96
G0 Z5.
X26.006 Y27.
Z2.
G1 Z-2. F572.96
G0 Z-1.9
G1 Z-3.583 F572.96
G0 Z5.
X21.664 Y26.621
Z2.
G1 Z-2. F572.96
G0 Z-1.9
G1 Z-3.583 F572.96
G0 Z5.
X17.455 Y25.494
Z2.
G1 Z-2. F572.96
G0 Z-1.9
G1 Z-3.583 F572.96
G0 Z5.
X6.501 Y14.65
Z2.
G1 Z-2. F572.96
G0 Z-1.9
G1 Z-3.583 F572.96
G0 Z5.
Z15.
M500
G53 G0 Z0.
(DRILL2)
M9
M1
N15 T44 M600
S16465 M300
G17 G90 G94
G54
M7
G0 X31.608 Y20.356
G43 Z15. H44
G0 Z5.
Z2.
G1 Z-2. F494.
G0 Z-1.9
G1 Z-3.676 F494.
G0 Z5.
X20.295 Y20.257
Z2.
G1 Z-2. F494.
G0 Z-1.9
G1 Z-3.676 F494.
G0 Z5.
X20.393 Y8.944
Z2.
G1 Z-2. F494.
G0 Z-1.9
G1 Z-3.676 F494.
G0 Z5.
X31.707 Y9.043
Z2.
G1 Z-2. F494.
G0 Z-1.9
G1 Z-3.676 F494.
G0 Z5.
X71.393 Y8.944
Z2.
G1 Z-2. F494.
G0 Z-1.9
G1 Z-3.676 F494.
G0 Z5.
X82.707 Y9.043
Z2.
G1 Z-2. F494.
G0 Z-1.9
G1 Z-3.676 F494.
G0 Z5.
X82.608 Y20.356
Z2.
G1 Z-2. F494.
G0 Z-1.9
G1 Z-3.676 F494.
G0 Z5.
X71.295 Y20.257
Z2.
G1 Z-2. F494.
G0 Z-1.9
G1 Z-3.676 F494.
G0 Z5.
Z15.
M500
G53 G0 Z0.
(DRILL3)
M9
M1
N20 T47 M600
S14469 M300
G17 G90 G94
G54
M7
G0 X10.001 Y103.75
G43 Z15. H47
G0 Z5.
Z2.
G1 Z-0.825 F144.69
G0 Z-0.725
G1 Z-1.65 F144.69
G0 Z-1.55
G1 Z-2.475 F144.69
G0 Z-2.375
G1 Z-3.217 F144.69
G0 Z5.
X42.001
Z2.
G1 Z-0.825 F144.69
G0 Z-0.725
G1 Z-1.65 F144.69
G0 Z-1.55
G1 Z-2.475 F144.69
G0 Z-2.375
G1 Z-3.217 F144.69
G0 Z5.
X61.001
Z2.
G1 Z-0.825 F144.69
G0 Z-0.725
G1 Z-1.65 F144.69
G0 Z-1.55
G1 Z-2.475 F144.69
G0 Z-2.375
G1 Z-3.217 F144.69
G0 Z5.
X93.001
Z2.
G1 Z-0.825 F144.69
G0 Z-0.725
G1 Z-1.65 F144.69
G0 Z-1.55
G1 Z-2.475 F144.69
G0 Z-2.375
G1 Z-3.217 F144.69
G0 Z5.
Y71.75
Z3.3
Z0.3
G1 Z-2.525 F144.69
G0 Z-2.425
G1 Z-3.217 F144.69
G0 Z5.
X87.001 Y63.85
Z2.
G1 Z-0.825 F144.69
G0 Z-0.725
G1 Z-1.65 F144.69
G0 Z-1.55
G1 Z-2.475 F144.69
G0 Z-2.375
G1 Z-3.217 F144.69
G0 Z5.
X84.501 Y51.45
Z3.3
Z0.3
G1 Z-2.525 F144.69
G0 Z-2.425
G1 Z-3.217 F144.69
G0 Z5.
Y31.45
Z3.3
Z0.3
G1 Z-2.525 F144.69
G0 Z-2.425
G1 Z-3.217 F144.69
G0 Z5.
X94.001 Y23.05
Z3.3
Z0.3
G1 Z-2.525 F144.69
G0 Z-2.425
G1 Z-3.217 F144.69
G0 Z5.
X77.001 Y14.65
Z2.
G1 Z-0.825 F144.69
G0 Z-0.725
G1 Z-1.65 F144.69
G0 Z-1.55
G1 Z-2.475 F144.69
G0 Z-2.375
G1 Z-3.217 F144.69
G0 Z5.
X62.001 Y23.05
Z3.3
Z0.3
G1 Z-2.525 F144.69
G0 Z-2.425
G1 Z-3.217 F144.69
G0 Z5.
X69.501 Y31.45
Z3.3
Z0.3
G1 Z-2.525 F144.69
G0 Z-2.425
G1 Z-3.217 F144.69
G0 Z5.
Y51.45
Z3.3
Z0.3
G1 Z-2.525 F144.69
G0 Z-2.425
G1 Z-3.217 F144.69
G0 Z5.
X67.001 Y63.85
Z2.
G1 Z-0.825 F144.69
G0 Z-0.725
G1 Z-1.65 F144.69
G0 Z-1.55
G1 Z-2.475 F144.69
G0 Z-2.375
G1 Z-3.217 F144.69
G0 Z5.
X61.001 Y71.75
Z3.3
Z0.3
G1 Z-2.525 F144.69
G0 Z-2.425
G1 Z-3.217 F144.69
G0 Z5.
X42.001
Z3.3
Z0.3
G1 Z-2.525 F144.69
G0 Z-2.425
G1 Z-3.217 F144.69
G0 Z5.
X36.001 Y63.85
Z2.
G1 Z-0.825 F144.69
G0 Z-0.725
G1 Z-1.65 F144.69
G0 Z-1.55
G1 Z-2.475 F144.69
G0 Z-2.375
G1 Z-3.217 F144.69
G0 Z5.
X33.501 Y51.45
Z3.3
Z0.3
G1 Z-2.525 F144.69
G0 Z-2.425
G1 Z-3.217 F144.69
G0 Z5.
Y31.45
Z3.3
Z0.3
G1 Z-2.525 F144.69
G0 Z-2.425
G1 Z-3.217 F144.69
G0 Z5.
X41.001 Y23.05
Z3.3
Z0.3
G1 Z-2.525 F144.69
G0 Z-2.425
G1 Z-3.217 F144.69
G0 Z5.
X26.001 Y14.65
Z2.
G1 Z-0.825 F144.69
G0 Z-0.725
G1 Z-1.65 F144.69
G0 Z-1.55
G1 Z-2.475 F144.69
G0 Z-2.375
G1 Z-3.217 F144.69
G0 Z5.
X11.001 Y23.05
Z3.3
Z0.3
G1 Z-2.525 F144.69
G0 Z-2.425
G1 Z-3.217 F144.69
G0 Z5.
X18.501 Y31.45
Z3.3
Z0.3
G1 Z-2.525 F144.69
G0 Z-2.425
G1 Z-3.217 F144.69
G0 Z5.
Y51.45
Z3.3
Z0.3
G1 Z-2.525 F144.69
G0 Z-2.425
G1 Z-3.217 F144.69
G0 Z5.
X16.001 Y63.85
Z2.
G1 Z-0.825 F144.69
G0 Z-0.725
G1 Z-1.65 F144.69
G0 Z-1.55
G1 Z-2.475 F144.69
G0 Z-2.375
G1 Z-3.217 F144.69
G0 Z5.
X10.001 Y71.75
Z3.3
Z0.3
G1 Z-2.525 F144.69
G0 Z-2.425
G1 Z-3.217 F144.69
G0 Z5.
Z15.
M9
M500
G53 G0 Z0.
(2D CONTOUR1)
M1
N25 T19 M600
S24000 M300
G17 G90 G94
G54
G64 P0.01 Q0.01
G0 X43.645 Y49.6
G43 Z15. H19
G0 Z5.
G1 Z0.45 F333.33
X43.641 Z0.412
X43.631 Y49.599 Z0.375
X43.613 Y49.596 Z0.341
X43.59 Y49.591 Z0.311
X43.563 Y49.58 Z0.286
X43.534 Y49.563 Z0.267
X43.507 Y49.539 Z0.255
X43.483 Y49.509 Z0.25
X43.465 Y49.475 Z0.249
X43.454 Y49.438 Z0.247
X43.451 Y49.4 Z0.246
Y47.4 Z0.176
G3 X43.851 Z0.154 I0.2 J0.
G1 Y49.4 Z0.084
G3 X43.451 Z0.062 I-0.2 J0.
G1 Y47.4 Z-0.007
G3 X43.851 Z-0.029 I0.2 J0.
G1 Y49.4 Z-0.099
G3 X43.451 Z-0.121 I-0.2 J0.
G1 Y47.4 Z-0.191
G3 X43.851 Z-0.213 I0.2 J0.
G1 Y49.4 Z-0.283
G3 X43.451 Z-0.305 I-0.2 J0.
G1 Y47.4 Z-0.375
G3 X43.851 Z-0.397 I0.2 J0.
G1 Y49.4 Z-0.466
G3 X43.451 Z-0.488 I-0.2 J0.
G1 Y47.4 Z-0.558
G3 X43.851 Z-0.58 I0.2 J0.
G1 Y49.4 Z-0.65
G3 X43.451 Z-0.672 I-0.2 J0.
G1 Y47.4 Z-0.742
G3 X43.851 Z-0.764 I0.2 J0.
G1 Y49.4 Z-0.833
G3 X43.451 Z-0.855 I-0.2 J0.
G1 Y47.4 Z-0.925
G3 X43.851 Z-0.947 I0.2 J0.
G1 Y49.4 Z-1.017
G3 X43.451 Z-1.039 I-0.2 J0.
G1 Y47.4 Z-1.109
G3 X43.851 Z-1.131 I0.2 J0.
G1 Y49.4 Z-1.201
G3 X43.451 Z-1.223 I-0.2 J0.
G1 Y47.4 Z-1.292
G3 X43.851 Z-1.314 I0.2 J0.
G1 Y49.4 Z-1.384
G3 X43.451 Z-1.406 I-0.2 J0.
G1 Y47.4 Z-1.476
G3 X43.851 Z-1.498 I0.2 J0.
G1 Y49.4 Z-1.568
G3 X43.451 Z-1.59 I-0.2 J0.
G1 Y47.4 Z-1.66
G3 X43.851 Z-1.681 I0.2 J0.
G1 Y49.4 Z-1.751
G3 X43.451 Z-1.773 I-0.2 J0.
G1 Y47.4 Z-1.843
G3 X43.851 Z-1.865 I0.2 J0.
G1 Y49.4 Z-1.935
G3 X43.451 Z-1.957 I-0.2 J0.
G1 Y47.4 Z-2.027
G3 X43.851 Z-2.049 I0.2 J0.
G1 Y49.4 Z-2.118
G3 X43.451 Z-2.14 I-0.2 J0.
G1 Y47.4 Z-2.21
G3 X43.851 Z-2.232 I0.2 J0.
G1 Y49.4 Z-2.302
G3 X43.451 Z-2.324 I-0.2 J0.
G1 Y47.4 Z-2.394
G3 X43.851 Z-2.416 I0.2 J0.
G1 Y49.4 Z-2.486
G3 X43.451 Z-2.508 I-0.2 J0.
G1 Y47.4 Z-2.577
G3 X43.851 Z-2.599 I0.2 J0.
G1 Y49.4 Z-2.669
G3 X43.451 Z-2.691 I-0.2 J0.
G1 Y47.4 Z-2.761
G3 X43.851 Z-2.783 I0.2 J0.
G1 Y49.4 Z-2.853
G3 X43.451 Z-2.875 I-0.2 J0.
G1 Y47.4 Z-2.944
G3 X43.851 Z-2.966 I0.2 J0.
G1 Y49.4 Z-3.036
G3 X43.451 Z-3.058 I-0.2 J0.
G1 Y47.4 Z-3.128
G3 X43.851 Z-3.15 I0.2 J0.
G1 Y49.4 F960.
G3 X43.451 I-0.2 J0.
G1 Y47.4
G3 X43.851 I0.2 J0.
G1 Y49.4
G3 X43.451 I-0.2 J0.
G1 Y49.028
X43.456 Y48.99 Z-3.146
X43.467 Y48.954 Z-3.135
X43.484 Y48.924 Z-3.116
X43.503 Y48.9 Z-3.091
X43.521 Y48.883 Z-3.061
X43.536 Y48.872 Z-3.027
X43.545 Y48.866 Z-2.989
X43.549 Y48.864 Z-2.95
G0 Z5.
X59.401 Y47.844
G1 Z0.45 F333.33
X59.398 Y47.839 Z0.398 F960.
X59.387 Y47.822 Z0.35
X59.369 Y47.795 Z0.309
X59.347 Y47.761 Z0.277
X59.321 Y47.72 Z0.257
X59.292 Y47.677 Z0.25
X59.183 Y47.509
G3 X59.242 Y47.232 I0.168 J-0.109
X59.551 Y47.4 Z0.235 I0.109 J0.168 F333.33
G1 Y49.4 Z0.165
G3 X59.151 Z0.143 I-0.2 J0.
G1 Y47.4 Z0.073
G3 X59.551 Z0.051 I0.2 J0.
G1 Y49.4 Z-0.018
G3 X59.151 Z-0.04 I-0.2 J0.
G1 Y47.4 Z-0.11
G3 X59.551 Z-0.132 I0.2 J0.
G1 Y49.4 Z-0.202
G3 X59.151 Z-0.224 I-0.2 J0.
G1 Y47.4 Z-0.294
G3 X59.551 Z-0.316 I0.2 J0.
G1 Y49.4 Z-0.386
G3 X59.151 Z-0.407 I-0.2 J0.
G1 Y47.4 Z-0.477
G3 X59.551 Z-0.499 I0.2 J0.
G1 Y49.4 Z-0.569
G3 X59.151 Z-0.591 I-0.2 J0.
G1 Y47.4 Z-0.661
G3 X59.551 Z-0.683 I0.2 J0.
G1 Y49.4 Z-0.753
G3 X59.151 Z-0.775 I-0.2 J0.
G1 Y47.4 Z-0.844
G3 X59.551 Z-0.866 I0.2 J0.
G1 Y49.4 Z-0.936
G3 X59.151 Z-0.958 I-0.2 J0.
G1 Y47.4 Z-1.028
G3 X59.551 Z-1.05 I0.2 J0.
G1 Y49.4 Z-1.12
G3 X59.151 Z-1.142 I-0.2 J0.
G1 Y47.4 Z-1.212
G3 X59.551 Z-1.234 I0.2 J0.
G1 Y49.4 Z-1.303
G3 X59.151 Z-1.325 I-0.2 J0.
G1 Y47.4 Z-1.395
G3 X59.551 Z-1.417 I0.2 J0.
G1 Y49.4 Z-1.487
G3 X59.151 Z-1.509 I-0.2 J0.
G1 Y47.4 Z-1.579
G3 X59.551 Z-1.601 I0.2 J0.
G1 Y49.4 Z-1.671
G3 X59.151 Z-1.692 I-0.2 J0.
G1 Y47.4 Z-1.762
G3 X59.551 Z-1.784 I0.2 J0.
G1 Y49.4 Z-1.854
G3 X59.151 Z-1.876 I-0.2 J0.
G1 Y47.4 Z-1.946
G3 X59.551 Z-1.968 I0.2 J0.
G1 Y49.4 Z-2.038
G3 X59.151 Z-2.06 I-0.2 J0.
G1 Y47.4 Z-2.129
G3 X59.551 Z-2.151 I0.2 J0.
G1 Y49.4 Z-2.221
G3 X59.151 Z-2.243 I-0.2 J0.
G1 Y47.4 Z-2.313
G3 X59.551 Z-2.335 I0.2 J0.
G1 Y49.4 Z-2.405
G3 X59.151 Z-2.427 I-0.2 J0.
G1 Y47.4 Z-2.497
G3 X59.551 Z-2.518 I0.2 J0.
G1 Y49.4 Z-2.588
G3 X59.151 Z-2.61 I-0.2 J0.
G1 Y47.4 Z-2.68
G3 X59.551 Z-2.702 I0.2 J0.
G1 Y49.4 Z-2.772
G3 X59.151 Z-2.794 I-0.2 J0.
G1 Y47.4 Z-2.864
G3 X59.551 Z-2.886 I0.2 J0.
G1 Y49.4 Z-2.955
G3 X59.151 Z-2.977 I-0.2 J0.
G1 Y47.4 Z-3.047
G3 X59.551 Z-3.069 I0.2 J0.
G1 Y49.4 Z-3.139
G3 X59.351 Y49.6 Z-3.15 I-0.2 J0.
X59.151 Y49.4 I0. J-0.2 F960.
G1 Y47.4
G3 X59.551 I0.2 J0.
G1 Y49.4
G3 X59.151 I-0.2 J0.
G1 Y47.4
G3 X59.551 I0.2 J0.
G1 Y47.458
X59.547 Y47.496 Z-3.146
X59.536 Y47.532 Z-3.135
X59.521 Y47.563 Z-3.116
X59.503 Y47.587 Z-3.091
X59.485 Y47.605 Z-3.061
X59.471 Y47.617 Z-3.027
X59.462 Y47.624 Z-2.989
X59.459 Y47.626 Z-2.95
G0 Z15.
M500
G53 G0 Z0.
(BORE1)
M1
N30 T18 M600
S24000 M300
G17 G90 G94
G54
G0 X12.829 Y22.907
G43 Z15. H18
G0 Z2.
G1 Z0.4 F1300.
G18 G2 X13.229 Z0. I0.4 K0.
G1 X13.429
X13.474 Y22.914
X13.513 Y22.934
X13.545 Y22.966
X13.565 Y23.006
X13.572 Y23.05
X13.562 Y23.252 Z-0.002
X13.536 Y23.453 Z-0.004
X13.495 Y23.651 Z-0.006
X13.438 Y23.845 Z-0.008
X13.366 Y24.034 Z-0.01
X13.279 Y24.216 Z-0.012
X13.178 Y24.391 Z-0.014
X13.064 Y24.557 Z-0.016
X12.938 Y24.714 Z-0.018
X12.799 Y24.86 Z-0.02
X12.65 Y24.994 Z-0.022
X12.49 Y25.116 Z-0.024
X12.322 Y25.226 Z-0.026
X12.146 Y25.321 Z-0.028
X11.962 Y25.403 Z-0.03
X11.774 Y25.469 Z-0.032
X11.58 Y25.52 Z-0.034
X11.384 Y25.556 Z-0.036
X11.185 Y25.577 Z-0.038
X10.985 Y25.581 Z-0.04
X10.786 Y25.57 Z-0.042
X10.588 Y25.544 Z-0.044
X10.394 Y25.502 Z-0.046
X10.203 Y25.444 Z-0.048
X10.018 Y25.372 Z-0.05
X9.839 Y25.286 Z-0.052
X9.668 Y25.186 Z-0.054
X9.505 Y25.072 Z-0.056
X9.351 Y24.947 Z-0.058
X9.209 Y24.809 Z-0.06
X9.077 Y24.662 Z-0.062
X8.958 Y24.504 Z-0.064
X8.851 Y24.337 Z-0.066
X8.758 Y24.163 Z-0.068
X8.68 Y23.982 Z-0.07
X8.615 Y23.796 Z-0.072
X8.566 Y23.605 Z-0.074
X8.532 Y23.412 Z-0.076
X8.513 Y23.216 Z-0.078
X8.509 Y23.019 Z-0.08
X8.522 Y22.824 Z-0.082
X8.549 Y22.629 Z-0.084
X8.592 Y22.438 Z-0.086
X8.649 Y22.251 Z-0.088
X8.721 Y22.069 Z-0.09
X8.808 Y21.893 Z-0.092
X8.907 Y21.725 Z-0.094
X9.02 Y21.566 Z-0.096
X9.144 Y21.416 Z-0.098
X9.28 Y21.276 Z-0.1
X9.426 Y21.147 Z-0.102
X9.582 Y21.031 Z-0.104
X9.747 Y20.927 Z-0.106
X9.919 Y20.837 Z-0.108
X10.097 Y20.76 Z-0.11
X10.281 Y20.698 Z-0.112
X10.469 Y20.651 Z-0.114
X10.66 Y20.618 Z-0.116
X10.852 Y20.601 Z-0.118
X11.046 Y20.599 Z-0.12
X11.238 Y20.612 Z-0.122
X11.429 Y20.64 Z-0.124
X11.617 Y20.684 Z-0.126
X11.801 Y20.741 Z-0.128
X11.98 Y20.814 Z-0.13
X12.152 Y20.899 Z-0.132
X12.317 Y20.998 Z-0.134
X12.473 Y21.11 Z-0.136
X12.62 Y21.233 Z-0.138
X12.756 Y21.368 Z-0.14
X12.882 Y21.513 Z-0.142
X12.995 Y21.667 Z-0.144
X13.096 Y21.829 Z-0.146
X13.184 Y21.999 Z-0.148
X13.258 Y22.175 Z-0.15
X13.318 Y22.356 Z-0.152
X13.364 Y22.541 Z-0.154
X13.395 Y22.729 Z-0.156
X13.41 Y22.919 Z-0.158
X13.411 Y23.109 Z-0.16
X13.397 Y23.299 Z-0.162
X13.368 Y23.486 Z-0.164
X13.324 Y23.671 Z-0.166
X13.266 Y23.851 Z-0.168
X13.195 Y24.026 Z-0.17
X13.109 Y24.195 Z-0.172
X13.011 Y24.357 Z-0.174
X12.9 Y24.51 Z-0.176
X12.777 Y24.653 Z-0.178
X12.644 Y24.787 Z-0.18
X12.501 Y24.909 Z-0.182
X12.349 Y25.02 Z-0.184
X12.189 Y25.118 Z-0.186
X12.021 Y25.204 Z-0.188
X11.848 Y25.276 Z-0.19
X11.669 Y25.333 Z-0.192
X11.487 Y25.377 Z-0.194
X11.302 Y25.406 Z-0.196
X11.115 Y25.42 Z-0.198
X10.928 Z-0.2
X10.742 Y25.405 Z-0.202
X10.558 Y25.375 Z-0.204
X10.376 Y25.331 Z-0.206
X10.199 Y25.273 Z-0.208
X10.027 Y25.201 Z-0.21
X9.862 Y25.116 Z-0.212
X9.704 Y25.018 Z-0.214
X9.554 Y24.909 Z-0.216
X9.414 Y24.787 Z-0.218
X9.283 Y24.656 Z-0.22
X9.163 Y24.514 Z-0.222
X9.056 Y24.364 Z-0.224
X8.96 Y24.205 Z-0.226
X8.877 Y24.04 Z-0.228
X8.807 Y23.869 Z-0.23
X8.752 Y23.693 Z-0.232
X8.71 Y23.514 Z-0.234
X8.683 Y23.332 Z-0.236
X8.67 Y23.148 Z-0.238
X8.671 Y22.964 Z-0.24
X8.687 Y22.781 Z-0.242
X8.717 Y22.6 Z-0.244
X8.762 Y22.422 Z-0.246
X8.82 Y22.249 Z-0.248
X8.892 Y22.08 Z-0.25
X8.976 Y21.918 Z-0.252
X9.074 Y21.763 Z-0.254
X9.182 Y21.617 Z-0.256
X9.302 Y21.479 Z-0.258
X9.433 Y21.352 Z-0.26
X9.573 Y21.235 Z-0.262
X9.721 Y21.13 Z-0.264
X9.877 Y21.037 Z-0.266
X10.04 Y20.957 Z-0.268
X10.209 Y20.889 Z-0.27
X10.382 Y20.836 Z-0.272
X10.559 Y20.796 Z-0.274
X10.738 Y20.77 Z-0.276
X10.918 Y20.758 Z-0.278
X11.099 Y20.761 Z-0.28
X11.279 Y20.778 Z-0.282
X11.456 Y20.809 Z-0.284
X11.631 Y20.854 Z-0.286
X11.801 Y20.912 Z-0.288
X11.966 Y20.983 Z-0.29
X12.125 Y21.068 Z-0.292
X12.277 Y21.164 Z-0.294
X12.42 Y21.272 Z-0.296
X12.554 Y21.391 Z-0.298
X12.679 Y21.52 Z-0.3
X12.792 Y21.658 Z-0.303
X12.895 Y21.804 Z-0.305
X12.985 Y21.958 Z-0.307
X13.063 Y22.119 Z-0.309
X13.128 Y22.285 Z-0.311
X13.18 Y22.455 Z-0.313
X13.218 Y22.629 Z-0.315
X13.242 Y22.805 Z-0.317
X13.253 Y22.983 Z-0.319
X13.249 Y23.16 Z-0.321
X13.231 Y23.337 Z-0.323
X13.2 Y23.511 Z-0.325
X13.155 Y23.682 Z-0.327
X13.096 Y23.849 Z-0.329
X13.025 Y24.011 Z-0.331
X12.941 Y24.167 Z-0.333
X12.846 Y24.315 Z-0.335
X12.739 Y24.455 Z-0.337
X12.621 Y24.586 Z-0.339
X12.494 Y24.708 Z-0.341
X12.358 Y24.818 Z-0.343
X12.213 Y24.918 Z-0.345
X12.061 Y25.006 Z-0.347
X11.903 Y25.082 Z-0.349
X11.739 Y25.145 Z-0.351
X11.572 Y25.194 Z-0.353
X11.401 Y25.231 Z-0.355
X11.227 Y25.253 Z-0.357
X11.053 Y25.262 Z-0.359
X10.879 Y25.258 Z-0.361
X10.706 Y25.239 Z-0.363
X10.535 Y25.207 Z-0.365
X10.367 Y25.162 Z-0.367
X10.203 Y25.103 Z-0.369
X10.045 Y25.032 Z-0.371
X9.892 Y24.949 Z-0.373
X9.747 Y24.854 Z-0.375
X9.61 Y24.749 Z-0.377
X9.482 Y24.632 Z-0.379
X9.364 Y24.506 Z-0.381
X9.256 Y24.372 Z-0.383
X9.159 Y24.229 Z-0.385
X9.074 Y24.08 Z-0.387
X9. Y23.924 Z-0.389
X8.94 Y23.763 Z-0.391
X8.892 Y23.598 Z-0.393
X8.857 Y23.43 Z-0.395
X8.836 Y23.259 Z-0.397
X8.828 Y23.088 Z-0.399
X8.834 Y22.917 Z-0.401
X8.853 Y22.747 Z-0.403
X8.886 Y22.579 Z-0.405
X8.931 Y22.415 Z-0.407
X8.989 Y22.254 Z-0.409
X9.06 Y22.099 Z-0.411
X9.143 Y21.951 Z-0.413
X9.237 Y21.809 Z-0.415
X9.342 Y21.675 Z-0.417
X9.456 Y21.55 Z-0.419
X9.581 Y21.434 Z-0.421
X9.714 Y21.329 Z-0.423
X9.854 Y21.235 Z-0.425
X10.002 Y21.152 Z-0.427
X10.155 Y21.081 Z-0.429
X10.313 Y21.022 Z-0.431
X10.476 Y20.977 Z-0.433
X10.641 Y20.944 Z-0.435
X10.808 Y20.924 Z-0.437
X10.976 Y20.917 Z-0.439
X11.144 Y20.924 Z-0.441
X11.311 Y20.944 Z-0.443
X11.475 Y20.977 Z-0.445
X11.637 Y21.023 Z-0.447
X11.794 Y21.081 Z-0.449
X11.945 Y21.151 Z-0.451
X12.091 Y21.233 Z-0.453
X12.229 Y21.326 Z-0.455
X12.36 Y21.43 Z-0.457
X12.482 Y21.544 Z-0.459
X12.595 Y21.666 Z-0.461
X12.697 Y21.797 Z-0.463
X12.789 Y21.936 Z-0.465
X12.869 Y22.081 Z-0.467
X12.938 Y22.232 Z-0.469
X12.994 Y22.388 Z-0.471
X13.038 Y22.547 Z-0.473
X13.07 Y22.71 Z-0.475
X13.088 Y22.874 Z-0.477
X13.093 Y23.039 Z-0.479
X13.086 Y23.204 Z-0.481
X13.065 Y23.367 Z-0.483
X13.032 Y23.528 Z-0.485
X12.986 Y23.686 Z-0.487
X12.928 Y23.84 Z-0.489
X12.858 Y23.988 Z-0.491
X12.777 Y24.13 Z-0.493
X12.684 Y24.266 Z-0.495
X12.582 Y24.393 Z-0.497
X12.47 Y24.512 Z-0.499
X12.349 Y24.622 Z-0.501
X12.219 Y24.722 Z-0.503
X12.083 Y24.811 Z-0.505
X11.94 Y24.889 Z-0.507
X11.791 Y24.955 Z-0.509
X11.638 Y25.01 Z-0.511
X11.482 Y25.052 Z-0.513
X11.322 Y25.081 Z-0.515
X11.161 Y25.098 Z-0.517
X10.999 Y25.103 Z-0.519
X10.838 Y25.094 Z-0.521
X10.677 Y25.073 Z-0.523
X10.519 Y25.039 Z-0.525
X10.365 Y24.993 Z-0.527
X10.215 Y24.935 Z-0.529
X10.069 Y24.866 Z-0.531
X9.93 Y24.785 Z-0.533
X9.798 Y24.694 Z-0.535
X9.674 Y24.592 Z-0.537
X9.558 Y24.482 Z-0.539
X9.451 Y24.362 Z-0.541
X9.354 Y24.235 Z-0.543
X9.268 Y24.101 Z-0.545
X9.192 Y23.96 Z-0.547
X9.128 Y23.814 Z-0.549
X9.075 Y23.663 Z-0.551
X9.035 Y23.509 Z-0.553
X9.007 Y23.353 Z-0.555
X8.991 Y23.195 Z-0.557
X8.988 Y23.036 Z-0.559
X8.997 Y22.878 Z-0.561
X9.019 Y22.721 Z-0.563
X9.053 Y22.566 Z-0.565
X9.099 Y22.415 Z-0.567
X9.157 Y22.268 Z-0.569
X9.226 Y22.126 Z-0.571
X9.306 Y21.99 Z-0.573
X9.396 Y21.861 Z-0.575
X9.497 Y21.74 Z-0.577
X9.606 Y21.627 Z-0.579
X9.724 Y21.523 Z-0.581
X9.849 Y21.429 Z-0.583
X9.981 Y21.345 Z-0.585
X10.12 Y21.272 Z-0.587
X10.263 Y21.21 Z-0.589
X10.411 Y21.159 Z-0.591
X10.562 Y21.121 Z-0.593
X10.716 Y21.094 Z-0.595
X10.871 Y21.08 Z-0.597
X11.026 Y21.078 Z-0.599
X11.182 Y21.088 Z-0.601
X11.335 Y21.11 Z-0.603
X11.486 Y21.144 Z-0.605
X11.634 Y21.19 Z-0.607
X11.778 Y21.248 Z-0.609
X11.917 Y21.317 Z-0.611
X12.049 Y21.396 Z-0.613
X12.175 Y21.485 Z-0.615
X12.293 Y21.584 Z-0.617
X12.403 Y21.692 Z-0.619
X12.504 Y21.808 Z-0.621
X12.596 Y21.931 Z-0.623
X12.677 Y22.061 Z-0.625
X12.748 Y22.197 Z-0.627
X12.808 Y22.338 Z-0.629
X12.857 Y22.484 Z-0.631
X12.894 Y22.632 Z-0.633
X12.919 Y22.783 Z-0.635
X12.932 Y22.935 Z-0.637
X12.933 Y23.087 Z-0.639
X12.922 Y23.239 Z-0.641
X12.899 Y23.389 Z-0.643
X12.865 Y23.537 Z-0.645
X12.818 Y23.682 Z-0.647
X12.761 Y23.822 Z-0.649
X12.693 Y23.958 Z-0.651
X12.615 Y24.087 Z-0.653
X12.526 Y24.21 Z-0.655
X12.429 Y24.325 Z-0.657
X12.323 Y24.432 Z-0.659
X12.208 Y24.53 Z-0.661
X12.087 Y24.619 Z-0.663
X11.959 Y24.698 Z-0.665
X11.825 Y24.767 Z-0.667
X11.687 Y24.824 Z-0.669
X11.544 Y24.871 Z-0.671
X11.399 Y24.906 Z-0.673
X11.251 Y24.93 Z-0.675
X11.102 Y24.942 Z-0.677
X10.953 Z-0.679
X10.804 Y24.93 Z-0.681
X10.657 Y24.907 Z-0.683
X10.512 Y24.872 Z-0.685
X10.371 Y24.826 Z-0.687
X10.234 Y24.769 Z-0.689
X10.102 Y24.702 Z-0.691
X9.976 Y24.624 Z-0.693
X9.856 Y24.537 Z-0.695
X9.744 Y24.441 Z-0.697
X9.64 Y24.336 Z-0.699
X9.544 Y24.223 Z-0.701
X9.458 Y24.104 Z-0.703
X9.381 Y23.978 Z-0.705
X9.315 Y23.847 Z-0.707
X9.26 Y23.711 Z-0.709
X9.215 Y23.571 Z-0.711
X9.181 Y23.429 Z-0.713
X9.159 Y23.284 Z-0.715
X9.148 Y23.138 Z-0.717
X9.149 Y22.992 Z-0.719
X9.162 Y22.846 Z-0.721
X9.185 Y22.703 Z-0.723
X9.22 Y22.561 Z-0.725
X9.266 Y22.423 Z-0.727
X9.323 Y22.289 Z-0.729
X9.39 Y22.16 Z-0.731
X9.466 Y22.037 Z-0.733
X9.552 Y21.921 Z-0.735
X9.647 Y21.812 Z-0.737
X9.75 Y21.71 Z-0.739
X9.861 Y21.618 Z-0.741
X9.979 Y21.534 Z-0.743
X10.102 Y21.46 Z-0.745
X10.231 Y21.396 Z-0.747
X10.364 Y21.342 Z-0.749
X10.501 Y21.299 Z-0.751
X10.641 Y21.268 Z-0.753
X10.783 Y21.247 Z-0.755
X10.926 Y21.237 Z-0.757
X11.069 Y21.239 Z-0.759
X11.211 Y21.252 Z-0.761
X11.352 Y21.276 Z-0.763
X11.49 Y21.311 Z-0.765
X11.624 Y21.357 Z-0.767
X11.755 Y21.413 Z-0.769
X11.881 Y21.479 Z-0.771
X12. Y21.555 Z-0.773
X12.114 Y21.64 Z-0.775
X12.22 Y21.734 Z-0.777
X12.318 Y21.835 Z-0.779
X12.408 Y21.944 Z-0.781
X12.49 Y22.059 Z-0.783
X12.561 Y22.181 Z-0.785
X12.623 Y22.307 Z-0.787
X12.675 Y22.438 Z-0.789
X12.716 Y22.572 Z-0.791
X12.746 Y22.709 Z-0.793
X12.765 Y22.848 Z-0.795
X12.774 Y22.988 Z-0.797
X12.771 Y23.127 Z-0.799
X12.758 Y23.266 Z-0.801
X12.733 Y23.404 Z-0.803
X12.698 Y23.538 Z-0.805
X12.652 Y23.67 Z-0.807
X12.597 Y23.797 Z-0.809
X12.531 Y23.92 Z-0.811
X12.456 Y24.036 Z-0.813
X12.372 Y24.147 Z-0.815
X12.28 Y24.25 Z-0.817
X12.18 Y24.346 Z-0.819
X12.073 Y24.433 Z-0.821
X11.96 Y24.511 Z-0.823
X11.841 Y24.581 Z-0.825
X11.717 Y24.64 Z-0.827
X11.589 Y24.69 Z-0.829
X11.457 Y24.729 Z-0.831
X11.323 Y24.758 Z-0.833
X11.188 Y24.776 Z-0.835
X11.051 Y24.783 Z-0.837
X10.914 Y24.78 Z-0.839
X10.779 Y24.766 Z-0.841
X10.645 Y24.741 Z-0.843
X10.513 Y24.706 Z-0.845
X10.385 Y24.66 Z-0.847
X10.261 Y24.605 Z-0.849
X10.142 Y24.54 Z-0.851
X10.028 Y24.466 Z-0.853
X9.921 Y24.384 Z-0.855
X9.82 Y24.293 Z-0.857
X9.728 Y24.195 Z-0.859
X9.643 Y24.09 Z-0.861
X9.567 Y23.979 Z-0.863
X9.5 Y23.862 Z-0.865
X9.443 Y23.74 Z-0.867
X9.395 Y23.615 Z-0.869
X9.357 Y23.486 Z-0.871
X9.33 Y23.355 Z-0.873
X9.313 Y23.222 Z-0.875
X9.307 Y23.089 Z-0.877
X9.311 Y22.955 Z-0.879
X9.326 Y22.823 Z-0.881
X9.351 Y22.692 Z-0.883
X9.386 Y22.564 Z-0.885
X9.431 Y22.439 Z-0.887
X9.486 Y22.318 Z-0.889
X9.55 Y22.202 Z-0.891
X9.623 Y22.092 Z-0.893
X9.704 Y21.987 Z-0.895
X9.794 Y21.89 Z-0.897
X9.89 Y21.8 Z-0.899
X9.993 Y21.718 Z-0.901
X10.102 Y21.644 Z-0.903
X10.217 Y21.58 Z-0.905
X10.336 Y21.525 Z-0.908
X10.459 Y21.479 Z-0.91
X10.585 Y21.443 Z-0.912
X10.713 Y21.417 Z-0.914
X10.843 Y21.402 Z-0.916
X10.973 Y21.396 Z-0.918
X11.103 Y21.401 Z-0.92
X11.232 Y21.416 Z-0.922
X11.36 Y21.442 Z-0.924
X11.485 Y21.477 Z-0.926
X11.607 Y21.522 Z-0.928
X11.724 Y21.576 Z-0.93
X11.837 Y21.639 Z-0.932
X11.944 Y21.711 Z-0.934
X12.046 Y21.791 Z-0.936
X12.14 Y21.879 Z-0.938
X12.227 Y21.974 Z-0.94
X12.307 Y22.075 Z-0.942
X12.378 Y22.182 Z-0.944
X12.44 Y22.294 Z-0.946
X12.493 Y22.41 Z-0.948
X12.537 Y22.53 Z-0.95
X12.571 Y22.654 Z-0.952
X12.596 Y22.779 Z-0.954
X12.61 Y22.906 Z-0.956
X12.615 Y23.033 Z-0.958
X12.609 Y23.16 Z-0.96
X12.593 Y23.286 Z-0.962
X12.568 Y23.41 Z-0.964
X12.533 Y23.532 Z-0.966
X12.488 Y23.65 Z-0.968
X12.434 Y23.765 Z-0.97
X12.372 Y23.874 Z-0.972
X12.301 Y23.979 Z-0.974
X12.222 Y24.077 Z-0.976
X12.136 Y24.169 Z-0.978
X12.043 Y24.253 Z-0.98
X11.944 Y24.33 Z-0.982
X11.839 Y24.398 Z-0.984
X11.73 Y24.458 Z-0.986
X11.616 Y24.51 Z-0.988
X11.498 Y24.552 Z-0.99
X11.378 Y24.584 Z-0.992
X11.256 Y24.607 Z-0.994
X11.132 Y24.62 Z-0.996
X11.008 Y24.624 Z-0.998
X10.884 Y24.618 Z-1.
X10.761 Y24.602 Z-1.002
X10.64 Y24.576 Z-1.004
X10.522 Y24.541 Z-1.006
X10.407 Y24.497 Z-1.008
X10.295 Y24.444 Z-1.01
X10.189 Y24.382 Z-1.012
X10.088 Y24.312 Z-1.014
X9.992 Y24.235 Z-1.016
X9.904 Y24.15 Z-1.018
X9.822 Y24.059 Z-1.02
X9.748 Y23.962 Z-1.022
X9.681 Y23.859 Z-1.024
X9.623 Y23.752 Z-1.026
X9.574 Y23.641 Z-1.028
X9.534 Y23.526 Z-1.03
X9.503 Y23.408 Z-1.032
X9.482 Y23.289 Z-1.034
X9.469 Y23.169 Z-1.036
X9.467 Y23.048 Z-1.038
X9.474 Y22.927 Z-1.04
X9.49 Y22.807 Z-1.042
X9.516 Y22.69 Z-1.044
X9.551 Y22.574 Z-1.046
X9.595 Y22.462 Z-1.048
X9.647 Y22.354 Z-1.05
X9.708 Y22.251 Z-1.052
X9.776 Y22.153 Z-1.054
X9.852 Y22.061 Z-1.056
X9.935 Y21.975 Z-1.058
X10.025 Y21.896 Z-1.06
X10.12 Y21.824 Z-1.062
X10.22 Y21.76 Z-1.064
X10.325 Y21.704 Z-1.066
X10.434 Y21.657 Z-1.068
X10.546 Y21.619 Z-1.07
X10.66 Y21.589 Z-1.072
X10.777 Y21.569 Z-1.074
X10.894 Y21.558 Z-1.076
X11.012 Y21.556 Z-1.078
X11.13 Y21.564 Z-1.08
X11.246 Y21.581 Z-1.082
X11.36 Y21.606 Z-1.084
X11.472 Y21.641 Z-1.086
X11.581 Y21.684 Z-1.088
X11.686 Y21.736 Z-1.09
X11.786 Y21.796 Z-1.092
X11.881 Y21.863 Z-1.094
X11.971 Y21.938 Z-1.096
X12.054 Y22.019 Z-1.098
X12.13 Y22.107 Z-1.1
X12.199 Y22.2 Z-1.102
X12.261 Y22.298 Z-1.104
X12.315 Y22.4 Z-1.106
X12.36 Y22.507 Z-1.108
X12.396 Y22.616 Z-1.11
X12.424 Y22.728 Z-1.112
X12.443 Y22.841 Z-1.114
X12.453 Y22.955 Z-1.116
X12.454 Y23.07 Z-1.118
X12.446 Y23.184 Z-1.12
X12.429 Y23.297 Z-1.122
X12.403 Y23.409 Z-1.124
X12.369 Y23.517 Z-1.126
X12.326 Y23.623 Z-1.128
X12.275 Y23.725 Z-1.13
X12.216 Y23.822 Z-1.132
X12.15 Y23.914 Z-1.134
X12.077 Y24. Z-1.136
X11.997 Y24.081 Z-1.138
X11.912 Y24.155 Z-1.14
X11.821 Y24.221 Z-1.142
X11.725 Y24.28 Z-1.144
X11.625 Y24.332 Z-1.146
X11.521 Y24.375 Z-1.148
X11.415 Y24.41 Z-1.15
X11.306 Y24.437 Z-1.152
X11.195 Y24.454 Z-1.154
X11.084 Y24.463 Z-1.156
X10.972 Z-1.158
X10.861 Y24.455 Z-1.16
X10.752 Y24.437 Z-1.162
X10.644 Y24.412 Z-1.164
X10.538 Y24.377 Z-1.166
X10.436 Y24.335 Z-1.168
X10.337 Y24.285 Z-1.17
X10.243 Y24.227 Z-1.172
X10.154 Y24.162 Z-1.174
X10.07 Y24.09 Z-1.176
X9.993 Y24.012 Z-1.178
X9.922 Y23.929 Z-1.18
X9.857 Y23.84 Z-1.182
X9.801 Y23.746 Z-1.184
X9.751 Y23.649 Z-1.186
X9.71 Y23.548 Z-1.188
X9.676 Y23.444 Z-1.19
X9.652 Y23.338 Z-1.192
X9.635 Y23.231 Z-1.194
X9.627 Y23.123 Z-1.196
X9.628 Y23.014 Z-1.198
X9.637 Y22.906 Z-1.2
X9.654 Y22.8 Z-1.202
X9.68 Y22.695 Z-1.204
X9.714 Y22.593 Z-1.206
X9.756 Y22.494 Z-1.208
X9.805 Y22.398 Z-1.21
X9.862 Y22.307 Z-1.212
X9.926 Y22.221 Z-1.214
X9.996 Y22.14 Z-1.216
X10.072 Y22.065 Z-1.218
X10.154 Y21.997 Z-1.22
X10.24 Y21.935 Z-1.222
X10.331 Y21.88 Z-1.224
X10.427 Y21.833 Z-1.226
X10.525 Y21.794 Z-1.228
X10.626 Y21.762 Z-1.23
X10.729 Y21.738 Z-1.232
X10.833 Y21.723 Z-1.234
X10.938 Y21.716 Z-1.236
X11.044 Y21.717 Z-1.238
X11.148 Y21.727 Z-1.24
X11.252 Y21.744 Z-1.242
X11.353 Y21.77 Z-1.244
X11.452 Y21.804 Z-1.246
X11.548 Y21.845 Z-1.248
X11.64 Y21.894 Z-1.25
X11.728 Y21.949 Z-1.252
X11.812 Y22.012 Z-1.254
X11.889 Y22.08 Z-1.256
X11.962 Y22.155 Z-1.258
X12.028 Y22.234 Z-1.26
X12.087 Y22.319 Z-1.262
X12.139 Y22.408 Z-1.264
X12.185 Y22.5 Z-1.266
X12.222 Y22.596 Z-1.268
X12.253 Y22.694 Z-1.27
X12.275 Y22.794 Z-1.272
X12.289 Y22.896 Z-1.274
X12.295 Y22.998 Z-1.276
X12.293 Y23.1 Z-1.278
X12.283 Y23.201 Z-1.28
X12.265 Y23.301 Z-1.282
X12.24 Y23.399 Z-1.284
X12.207 Y23.495 Z-1.286
X12.166 Y23.588 Z-1.288
X12.118 Y23.677 Z-1.29
X12.064 Y23.762 Z-1.292
X12.003 Y23.842 Z-1.294
X11.936 Y23.917 Z-1.296
X11.863 Y23.987 Z-1.298
X11.785 Y24.05 Z-1.3
X11.703 Y24.107 Z-1.302
X11.617 Y24.158 Z-1.304
X11.527 Y24.201 Z-1.306
X11.434 Y24.237 Z-1.308
X11.338 Y24.265 Z-1.31
X11.241 Y24.286 Z-1.312
X11.143 Y24.299 Z-1.314
X11.044 Y24.305 Z-1.316
X10.945 Y24.302 Z-1.318
X10.847 Y24.292 Z-1.32
X10.75 Y24.274 Z-1.322
X10.655 Y24.248 Z-1.324
X10.562 Y24.216 Z-1.326
X10.473 Y24.176 Z-1.328
X10.387 Y24.129 Z-1.33
X10.305 Y24.075 Z-1.332
X10.227 Y24.016 Z-1.334
X10.155 Y23.95 Z-1.336
X10.088 Y23.88 Z-1.338
X10.027 Y23.804 Z-1.34
X9.972 Y23.724 Z-1.342
X9.924 Y23.64 Z-1.344
X9.883 Y23.552 Z-1.346
X9.849 Y23.462 Z-1.348
X9.822 Y23.37 Z-1.35
X9.802 Y23.275 Z-1.352
X9.79 Y23.18 Z-1.354
X9.786 Y23.084 Z-1.356
X9.789 Y22.989 Z-1.358
X9.799 Y22.894 Z-1.36
X9.818 Y22.8 Z-1.362
X9.843 Y22.708 Z-1.364
X9.875 Y22.619 Z-1.366
X9.914 Y22.532 Z-1.368
X9.96 Y22.449 Z-1.37
X10.013 Y22.37 Z-1.372
X10.071 Y22.296 Z-1.374
X10.134 Y22.226 Z-1.376
X10.203 Y22.162 Z-1.378
X10.277 Y22.104 Z-1.38
X10.355 Y22.051 Z-1.382
X10.436 Y22.005 Z-1.384
X10.521 Y21.966 Z-1.386
X10.609 Y21.933 Z-1.388
X10.699 Y21.908 Z-1.39
X10.79 Y21.89 Z-1.392
X10.882 Y21.879 Z-1.394
X10.975 Y21.875 Z-1.396
X11.067 Y21.879 Z-1.398
X11.159 Y21.889 Z-1.4
X11.249 Y21.908 Z-1.402
X11.338 Y21.933 Z-1.404
X11.424 Y21.965 Z-1.406
X11.508 Y22.003 Z-1.408
X11.588 Y22.048 Z-1.41
X11.663 Y22.099 Z-1.412
X11.735 Y22.156 Z-1.414
X11.802 Y22.218 Z-1.416
X11.863 Y22.285 Z-1.418
X11.919 Y22.356 Z-1.42
X11.97 Y22.432 Z-1.422
X12.013 Y22.511 Z-1.424
X12.051 Y22.593 Z-1.426
X12.082 Y22.678 Z-1.428
X12.106 Y22.765 Z-1.43
X12.123 Y22.853 Z-1.432
X12.133 Y22.942 Z-1.434
X12.136 Y23.032 Z-1.436
X12.132 Y23.121 Z-1.438
X12.121 Y23.21 Z-1.44
X12.103 Y23.297 Z-1.442
X12.078 Y23.382 Z-1.444
X12.046 Y23.466 Z-1.446
X12.009 Y23.546 Z-1.448
X11.965 Y23.623 Z-1.45
X11.915 Y23.696 Z-1.452
X11.86 Y23.764 Z-1.454
X11.799 Y23.828 Z-1.456
X11.734 Y23.887 Z-1.458
X11.665 Y23.941 Z-1.46
X11.592 Y23.989 Z-1.462
X11.515 Y24.031 Z-1.464
X11.435 Y24.066 Z-1.466
X11.353 Y24.095 Z-1.468
X11.269 Y24.118 Z-1.47
X11.184 Y24.134 Z-1.472
X11.098 Y24.143 Z-1.474
X11.011 Y24.145 Z-1.476
X10.925 Y24.141 Z-1.478
X10.84 Y24.129 Z-1.48
X10.756 Y24.111 Z-1.482
X10.674 Y24.087 Z-1.484
X10.594 Y24.056 Z-1.486
X10.517 Y24.019 Z-1.488
X10.443 Y23.976 Z-1.49
X10.373 Y23.928 Z-1.492
X10.307 Y23.874 Z-1.494
X10.246 Y23.815 Z-1.496
X10.189 Y23.752 Z-1.498
X10.138 Y23.685 Z-1.5
X10.092 Y23.614 Z-1.502
X10.053 Y23.54 Z-1.504
X10.019 Y23.463 Z-1.506
X9.991 Y23.384 Z-1.508
X9.97 Y23.303 Z-1.511
X9.955 Y23.22 Z-1.513
X9.947 Y23.137 Z-1.515
X9.946 Y23.054 Z-1.517
X9.951 Y22.971 Z-1.519
X9.962 Y22.889 Z-1.521
X9.98 Y22.808 Z-1.523
X10.004 Y22.729 Z-1.525
X10.034 Y22.652 Z-1.527
X10.07 Y22.578 Z-1.529
X10.112 Y22.507 Z-1.531
X10.159 Y22.44 Z-1.533
X10.211 Y22.377 Z-1.535
X10.268 Y22.319 Z-1.537
X10.329 Y22.265 Z-1.539
X10.395 Y22.216 Z-1.541
X10.463 Y22.172 Z-1.543
X10.535 Y22.135 Z-1.545
X10.609 Y22.103 Z-1.547
X10.686 Y22.077 Z-1.549
X10.764 Y22.057 Z-1.551
X10.843 Y22.043 Z-1.553
X10.923 Y22.036 Z-1.555
X11.003 Y22.035 Z-1.557
X11.083 Y22.04 Z-1.559
X11.162 Y22.052 Z-1.561
X11.239 Y22.07 Z-1.563
X11.315 Y22.093 Z-1.565
X11.389 Y22.123 Z-1.567
X11.46 Y22.158 Z-1.569
X11.528 Y22.199 Z-1.571
X11.592 Y22.245 Z-1.573
X11.652 Y22.295 Z-1.575
X11.708 Y22.35 Z-1.577
X11.759 Y22.409 Z-1.579
X11.806 Y22.472 Z-1.581
X11.847 Y22.539 Z-1.583
X11.883 Y22.608 Z-1.585
X11.913 Y22.679 Z-1.587
X11.938 Y22.753 Z-1.589
X11.956 Y22.828 Z-1.591
X11.969 Y22.905 Z-1.593
X11.975 Y22.981 Z-1.595
X11.976 Y23.058 Z-1.597
X11.97 Y23.135 Z-1.599
X11.958 Y23.211 Z-1.601
X11.941 Y23.285 Z-1.603
X11.917 Y23.358 Z-1.605
X11.888 Y23.428 Z-1.607
X11.854 Y23.496 Z-1.609
X11.815 Y23.561 Z-1.611
X11.77 Y23.622 Z-1.613
X11.721 Y23.68 Z-1.615
X11.668 Y23.733 Z-1.617
X11.611 Y23.782 Z-1.619
X11.55 Y23.826 Z-1.621
X11.486 Y23.865 Z-1.623
X11.42 Y23.899 Z-1.625
X11.351 Y23.928 Z-1.627
X11.28 Y23.951 Z-1.629
X11.208 Y23.968 Z-1.631
X11.135 Y23.979 Z-1.633
X11.061 Y23.985 Z-1.635
X10.987 Z-1.637
X10.914 Y23.979 Z-1.639
X10.841 Y23.967 Z-1.641
X10.77 Y23.95 Z-1.643
X10.7 Y23.927 Z-1.645
X10.633 Y23.899 Z-1.647
X10.568 Y23.865 Z-1.649
X10.506 Y23.827 Z-1.651
X10.448 Y23.784 Z-1.653
X10.393 Y23.737 Z-1.655
X10.342 Y23.685 Z-1.657
X10.296 Y23.63 Z-1.659
X10.254 Y23.572 Z-1.661
X10.217 Y23.51 Z-1.663
X10.185 Y23.446 Z-1.665
X10.158 Y23.38 Z-1.667
X10.137 Y23.312 Z-1.669
X10.121 Y23.243 Z-1.671
X10.11 Y23.173 Z-1.673
X10.105 Y23.102 Z-1.675
X10.106 Y23.031 Z-1.677
X10.112 Y22.961 Z-1.679
X10.124 Y22.892 Z-1.681
X10.141 Y22.824 Z-1.683
X10.164 Y22.757 Z-1.685
X10.191 Y22.693 Z-1.687
X10.223 Y22.632 Z-1.689
X10.26 Y22.573 Z-1.691
X10.302 Y22.517 Z-1.693
X10.348 Y22.465 Z-1.695
X10.397 Y22.417 Z-1.697
X10.45 Y22.373 Z-1.699
X10.506 Y22.333 Z-1.701
X10.565 Y22.298 Z-1.703
X10.627 Y22.268 Z-1.705
X10.69 Y22.243 Z-1.707
X10.755 Y22.223 Z-1.709
X10.822 Y22.208 Z-1.711
X10.889 Y22.199 Z-1.713
X10.956 Y22.194 Z-1.715
X11.024 Y22.196 Z-1.717
X11.091 Y22.202 Z-1.719
X11.157 Y22.214 Z-1.721
X11.222 Y22.231 Z-1.723
X11.285 Y22.252 Z-1.725
X11.346 Y22.279 Z-1.727
X11.405 Y22.31 Z-1.729
X11.461 Y22.346 Z-1.731
X11.513 Y22.386 Z-1.733
X11.563 Y22.43 Z-1.735
X11.608 Y22.478 Z-1.737
X11.65 Y22.529 Z-1.739
X11.687 Y22.583 Z-1.741
X11.72 Y22.639 Z-1.743
X11.749 Y22.698 Z-1.745
X11.772 Y22.759 Z-1.747
X11.791 Y22.821 Z-1.749
X11.804 Y22.884 Z-1.751
X11.813 Y22.948 Z-1.753
X11.816 Y23.013 Z-1.755
X11.815 Y23.077 Z-1.757
X11.808 Y23.141 Z-1.759
X11.797 Y23.204 Z-1.761
X11.78 Y23.265 Z-1.763
X11.759 Y23.325 Z-1.765
X11.733 Y23.383 Z-1.767
X11.703 Y23.439 Z-1.769
X11.668 Y23.492 Z-1.771
X11.63 Y23.542 Z-1.773
X11.588 Y23.589 Z-1.775
X11.542 Y23.632 Z-1.777
X11.493 Y23.671 Z-1.779
X11.442 Y23.706 Z-1.781
X11.388 Y23.737 Z-1.783
X11.331 Y23.764 Z-1.785
X11.273 Y23.786 Z-1.787
X11.214 Y23.803 Z-1.789
X11.154 Y23.815 Z-1.791
X11.093 Y23.823 Z-1.793
X11.032 Y23.826 Z-1.795
X10.97 Y23.824 Z-1.797
X10.91 Y23.817 Z-1.799
X10.85 Y23.806 Z-1.801
X10.791 Y23.79 Z-1.803
X10.735 Y23.769 Z-1.805
X10.68 Y23.744 Z-1.807
X10.627 Y23.715 Z-1.809
X10.577 Y23.682 Z-1.811
X10.53 Y23.645 Z-1.813
X10.486 Y23.604 Z-1.815
X10.445 Y23.561 Z-1.817
X10.408 Y23.514 Z-1.819
X10.375 Y23.465 Z-1.821
X10.346 Y23.413 Z-1.823
X10.321 Y23.36 Z-1.825
X10.301 Y23.305 Z-1.827
X10.285 Y23.248 Z-1.829
X10.274 Y23.191 Z-1.831
X10.267 Y23.133 Z-1.833
X10.265 Y23.075 Z-1.835
X10.267 Y23.017 Z-1.837
X10.274 Y22.959 Z-1.839
X10.285 Y22.903 Z-1.841
X10.301 Y22.847 Z-1.843
X10.321 Y22.794 Z-1.845
X10.345 Y22.742 Z-1.847
X10.373 Y22.692 Z-1.849
X10.405 Y22.645 Z-1.851
X10.44 Y22.6 Z-1.853
X10.479 Y22.559 Z-1.855
X10.52 Y22.521 Z-1.857
X10.565 Y22.486 Z-1.859
X10.612 Y22.455 Z-1.861
X10.661 Y22.428 Z-1.863
X10.712 Y22.405 Z-1.865
X10.764 Y22.387 Z-1.867
X10.817 Y22.372 Z-1.869
X10.872 Y22.361 Z-1.871
X10.927 Y22.355 Z-1.873
X10.982 Y22.354 Z-1.875
X11.036 Y22.356 Z-1.877
X11.091 Y22.363 Z-1.879
X11.144 Y22.375 Z-1.881
X11.196 Y22.39 Z-1.883
X11.247 Y22.409 Z-1.885
X11.296 Y22.432 Z-1.887
X11.342 Y22.459 Z-1.889
X11.387 Y22.49 Z-1.891
X11.428 Y22.523 Z-1.893
X11.467 Y22.56 Z-1.895
X11.503 Y22.6 Z-1.897
X11.535 Y22.642 Z-1.899
X11.564 Y22.686 Z-1.901
X11.589 Y22.733 Z-1.903
X11.61 Y22.781 Z-1.905
X11.628 Y22.83 Z-1.907
X11.641 Y22.881 Z-1.909
X11.651 Y22.932 Z-1.911
X11.656 Y22.984 Z-1.913
X11.657 Y23.036 Z-1.915
X11.654 Y23.088 Z-1.917
X11.647 Y23.139 Z-1.919
X11.636 Y23.189 Z-1.921
X11.621 Y23.238 Z-1.923
X11.603 Y23.285 Z-1.925
X11.58 Y23.331 Z-1.927
X11.555 Y23.375 Z-1.929
X11.526 Y23.417 Z-1.931
X11.494 Y23.456 Z-1.933
X11.459 Y23.492 Z-1.935
X11.421 Y23.525 Z-1.937
X11.381 Y23.555 Z-1.939
X11.339 Y23.582 Z-1.941
X11.295 Y23.605 Z-1.943
X11.25 Y23.625 Z-1.945
X11.203 Y23.641 Z-1.947
X11.156 Y23.653 Z-1.949
X11.107 Y23.661 Z-1.951
X11.059 Y23.666 Z-1.953
X11.01 Z-1.955
X10.962 Y23.663 Z-1.957
X10.914 Y23.656 Z-1.959
X10.867 Y23.645 Z-1.961
X10.821 Y23.631 Z-1.963
X10.776 Y23.613 Z-1.965
X10.734 Y23.592 Z-1.967
X10.693 Y23.568 Z-1.969
X10.654 Y23.54 Z-1.971
X10.618 Y23.51 Z-1.973
X10.584 Y23.477 Z-1.975
X10.553 Y23.441 Z-1.977
X10.526 Y23.404 Z-1.979
X10.501 Y23.364 Z-1.981
X10.479 Y23.323 Z-1.983
X10.461 Y23.28 Z-1.985
X10.447 Y23.236 Z-1.987
X10.436 Y23.192 Z-1.989
X10.428 Y23.146 Z-1.991
X10.425 Y23.101 Z-1.993
X10.424 Y23.055 Z-1.995
X10.428 Y23.01 Z-1.997
X10.435 Y22.965 Z-1.999
X10.445 Y22.921 Z-2.001
X10.459 Y22.879 Z-2.003
X10.476 Y22.837 Z-2.005
X10.496 Y22.797 Z-2.007
X10.519 Y22.76 Z-2.009
X10.545 Y22.724 Z-2.011
X10.574 Y22.69 Z-2.013
X10.605 Y22.659 Z-2.015
X10.638 Y22.631 Z-2.017
X10.674 Y22.605 Z-2.019
X10.711 Y22.582 Z-2.021
X10.749 Y22.563 Z-2.023
X10.789 Y22.546 Z-2.025
X10.83 Y22.533 Z-2.027
X10.872 Y22.523 Z-2.029
X10.914 Y22.517 Z-2.031
X10.957 Y22.514 Z-2.033
X10.999 Z-2.035
X11.041 Y22.517 Z-2.037
X11.083 Y22.524 Z-2.039
X11.123 Y22.534 Z-2.041
X11.163 Y22.547 Z-2.043
X11.201 Y22.564 Z-2.045
X11.238 Y22.583 Z-2.047
X11.273 Y22.605 Z-2.049
X11.306 Y22.629 Z-2.051
X11.337 Y22.656 Z-2.053
X11.366 Y22.685 Z-2.055
X11.392 Y22.716 Z-2.057
X11.415 Y22.749 Z-2.059
X11.436 Y22.784 Z-2.061
X11.454 Y22.82 Z-2.063
X11.469 Y22.857 Z-2.065
X11.48 Y22.895 Z-2.067
X11.489 Y22.934 Z-2.069
X11.495 Y22.973 Z-2.071
X11.497 Y23.012 Z-2.073
Y23.052 Z-2.075
X11.493 Y23.09 Z-2.077
X11.486 Y23.129 Z-2.079
X11.477 Y23.166 Z-2.081
X11.464 Y23.203 Z-2.083
X11.449 Y23.238 Z-2.085
X11.431 Y23.272 Z-2.087
X11.41 Y23.304 Z-2.089
X11.387 Y23.334 Z-2.091
X11.362 Y23.363 Z-2.093
X11.335 Y23.389 Z-2.095
X11.306 Y23.413 Z-2.097
X11.276 Y23.434 Z-2.099
X11.243 Y23.453 Z-2.101
X11.21 Y23.469 Z-2.103
X11.176 Y23.482 Z-2.105
X11.141 Y23.493 Z-2.107
X11.105 Y23.5 Z-2.109
X11.069 Y23.505 Z-2.111
X11.033 Y23.507 Z-2.114
X10.996 Y23.506 Z-2.116
X10.961 Y23.502 Z-2.118
X10.926 Y23.496 Z-2.12
X10.891 Y23.487 Z-2.122
X10.858 Y23.475 Z-2.124
X10.826 Y23.46 Z-2.126
X10.795 Y23.443 Z-2.128
X10.765 Y23.424 Z-2.13
X10.738 Y23.403 Z-2.132
X10.712 Y23.38 Z-2.134
X10.689 Y23.354 Z-2.136
X10.667 Y23.328 Z-2.138
X10.648 Y23.299 Z-2.14
X10.631 Y23.27 Z-2.142
X10.617 Y23.239 Z-2.144
X10.605 Y23.208 Z-2.146
X10.596 Y23.175 Z-2.148
X10.589 Y23.143 Z-2.15
X10.585 Y23.11 Z-2.152
X10.584 Y23.076 Z-2.154
X10.585 Y23.044 Z-2.156
X10.589 Y23.011 Z-2.158
X10.595 Y22.979 Z-2.16
X10.604 Y22.948 Z-2.162
X10.615 Y22.917 Z-2.164
X10.628 Y22.888 Z-2.166
X10.644 Y22.86 Z-2.168
X10.662 Y22.834 Z-2.17
X10.681 Y22.809 Z-2.172
X10.703 Y22.786 Z-2.174
X10.726 Y22.765 Z-2.176
X10.75 Y22.746 Z-2.178
X10.776 Y22.729 Z-2.18
X10.803 Y22.714 Z-2.182
X10.831 Y22.701 Z-2.184
X10.86 Y22.691 Z-2.186
X10.889 Y22.683 Z-2.188
X10.919 Y22.677 Z-2.19
X10.949 Y22.674 Z-2.192
X10.979 Y22.673 Z-2.194
X11.009 Y22.674 Z-2.196
X11.038 Y22.678 Z-2.198
X11.067 Y22.684 Z-2.2
X11.095 Y22.692 Z-2.202
X11.122 Y22.703 Z-2.204
X11.148 Y22.715 Z-2.206
X11.173 Y22.73 Z-2.208
X11.197 Y22.746 Z-2.21
X11.219 Y22.764 Z-2.212
X11.24 Y22.784 Z-2.214
X11.258 Y22.805 Z-2.216
X11.275 Y22.827 Z-2.218
X11.29 Y22.85 Z-2.22
X11.304 Y22.875 Z-2.222
X11.315 Y22.9 Z-2.224
X11.324 Y22.926 Z-2.226
X11.33 Y22.952 Z-2.228
X11.335 Y22.979 Z-2.23
X11.338 Y23.006 Z-2.232
Y23.033 Z-2.234
X11.336 Y23.059 Z-2.236
X11.333 Y23.086 Z-2.238
X11.327 Y23.111 Z-2.24
X11.319 Y23.136 Z-2.242
X11.309 Y23.16 Z-2.244
X11.298 Y23.183 Z-2.246
X11.285 Y23.205 Z-2.248
X11.27 Y23.226 Z-2.25
X11.254 Y23.246 Z-2.252
X11.236 Y23.264 Z-2.254
X11.217 Y23.28 Z-2.256
X11.197 Y23.295 Z-2.258
X11.176 Y23.308 Z-2.26
X11.154 Y23.319 Z-2.262
X11.132 Y23.329 Z-2.264
X11.109 Y23.336 Z-2.266
X11.085 Y23.342 Z-2.268
X11.061 Y23.346 Z-2.27
X11.038 Y23.348 Z-2.272
X11.014 Z-2.274
X10.991 Y23.346 Z-2.276
X10.968 Y23.342 Z-2.278
X10.945 Y23.336 Z-2.28
X10.923 Y23.329 Z-2.282
X10.902 Y23.32 Z-2.284
X10.882 Y23.31 Z-2.286
G17 G3 X11.119 Y22.79 I0.119 J-0.26
X10.882 Y23.31 I-0.119 J0.26
G1 X10.845 Y23.285
X10.817 Y23.25
X10.801 Y23.208
X10.799 Y23.164
X10.811 Y23.121
X10.894 Y22.939
G0 Z5.
X20.329 Y31.307
Z2.
G1 Z0.4 F1300.
G18 G2 X20.729 Z0. I0.4 K0.
G1 X20.929
X20.974 Y31.314
X21.013 Y31.334
X21.045 Y31.366
X21.065 Y31.406
X21.072 Y31.45
X21.062 Y31.652 Z-0.002
X21.036 Y31.853 Z-0.004
X20.995 Y32.051 Z-0.006
X20.938 Y32.245 Z-0.008
X20.866 Y32.434 Z-0.01
X20.779 Y32.616 Z-0.012
X20.678 Y32.791 Z-0.014
X20.564 Y32.957 Z-0.016
X20.438 Y33.114 Z-0.018
X20.299 Y33.26 Z-0.02
X20.15 Y33.394 Z-0.022
X19.99 Y33.516 Z-0.024
X19.822 Y33.626 Z-0.026
X19.646 Y33.721 Z-0.028
X19.462 Y33.803 Z-0.03
X19.274 Y33.869 Z-0.032
X19.08 Y33.92 Z-0.034
X18.884 Y33.956 Z-0.036
X18.685 Y33.977 Z-0.038
X18.485 Y33.981 Z-0.04
X18.286 Y33.97 Z-0.042
X18.088 Y33.944 Z-0.044
X17.894 Y33.902 Z-0.046
X17.703 Y33.844 Z-0.048
X17.518 Y33.772 Z-0.05
X17.339 Y33.686 Z-0.052
X17.168 Y33.586 Z-0.054
X17.005 Y33.472 Z-0.056
X16.851 Y33.347 Z-0.058
X16.709 Y33.209 Z-0.06
X16.577 Y33.062 Z-0.062
X16.458 Y32.904 Z-0.064
X16.351 Y32.737 Z-0.066
X16.258 Y32.563 Z-0.068
X16.18 Y32.382 Z-0.07
X16.115 Y32.196 Z-0.072
X16.066 Y32.005 Z-0.074
X16.032 Y31.812 Z-0.076
X16.013 Y31.616 Z-0.078
X16.009 Y31.419 Z-0.08
X16.022 Y31.224 Z-0.082
X16.049 Y31.029 Z-0.084
X16.092 Y30.838 Z-0.086
X16.149 Y30.651 Z-0.088
X16.221 Y30.469 Z-0.09
X16.308 Y30.293 Z-0.092
X16.407 Y30.125 Z-0.094
X16.52 Y29.966 Z-0.096
X16.644 Y29.816 Z-0.098
X16.78 Y29.676 Z-0.1
X16.926 Y29.547 Z-0.102
X17.082 Y29.431 Z-0.104
X17.247 Y29.327 Z-0.106
X17.419 Y29.237 Z-0.108
X17.597 Y29.16 Z-0.11
X17.781 Y29.098 Z-0.112
X17.969 Y29.051 Z-0.114
X18.16 Y29.018 Z-0.116
X18.352 Y29.001 Z-0.118
X18.546 Y28.999 Z-0.12
X18.738 Y29.012 Z-0.122
X18.929 Y29.04 Z-0.124
X19.117 Y29.084 Z-0.126
X19.301 Y29.141 Z-0.128
X19.48 Y29.214 Z-0.13
X19.652 Y29.299 Z-0.132
X19.817 Y29.398 Z-0.134
X19.973 Y29.51 Z-0.136
X20.12 Y29.633 Z-0.138
X20.256 Y29.768 Z-0.14
X20.382 Y29.913 Z-0.142
X20.495 Y30.067 Z-0.144
X20.596 Y30.229 Z-0.146
X20.684 Y30.399 Z-0.148
X20.758 Y30.575 Z-0.15
X20.818 Y30.756 Z-0.152
X20.864 Y30.941 Z-0.154
X20.895 Y31.129 Z-0.156
X20.91 Y31.319 Z-0.158
X20.911 Y31.509 Z-0.16
X20.897 Y31.699 Z-0.162
X20.868 Y31.886 Z-0.164
X20.824 Y32.071 Z-0.166
X20.766 Y32.251 Z-0.168
X20.695 Y32.426 Z-0.17
X20.609 Y32.595 Z-0.172
X20.511 Y32.757 Z-0.174
X20.4 Y32.91 Z-0.176
X20.277 Y33.053 Z-0.178
X20.144 Y33.187 Z-0.18
X20.001 Y33.309 Z-0.182
X19.849 Y33.42 Z-0.184
X19.689 Y33.518 Z-0.186
X19.521 Y33.604 Z-0.188
X19.348 Y33.676 Z-0.19
X19.169 Y33.733 Z-0.192
X18.987 Y33.777 Z-0.194
X18.802 Y33.806 Z-0.196
X18.615 Y33.82 Z-0.198
X18.428 Z-0.2
X18.242 Y33.805 Z-0.202
X18.058 Y33.775 Z-0.204
X17.876 Y33.731 Z-0.206
X17.699 Y33.673 Z-0.208
X17.527 Y33.601 Z-0.21
X17.362 Y33.516 Z-0.212
X17.204 Y33.418 Z-0.214
X17.054 Y33.309 Z-0.216
X16.914 Y33.187 Z-0.218
X16.783 Y33.056 Z-0.22
X16.663 Y32.914 Z-0.222
X16.556 Y32.764 Z-0.224
X16.46 Y32.605 Z-0.226
X16.377 Y32.44 Z-0.228
X16.307 Y32.269 Z-0.23
X16.252 Y32.093 Z-0.232
X16.21 Y31.914 Z-0.234
X16.183 Y31.732 Z-0.236
X16.17 Y31.548 Z-0.238
X16.171 Y31.364 Z-0.24
X16.187 Y31.181 Z-0.242
X16.217 Y31. Z-0.244
X16.262 Y30.822 Z-0.246
X16.32 Y30.649 Z-0.248
X16.392 Y30.48 Z-0.25
X16.476 Y30.318 Z-0.252
X16.574 Y30.163 Z-0.254
X16.682 Y30.017 Z-0.256
X16.802 Y29.879 Z-0.258
X16.933 Y29.752 Z-0.26
X17.073 Y29.635 Z-0.262
X17.221 Y29.53 Z-0.264
X17.377 Y29.437 Z-0.266
X17.54 Y29.357 Z-0.268
X17.709 Y29.289 Z-0.27
X17.882 Y29.236 Z-0.272
X18.059 Y29.196 Z-0.274
X18.238 Y29.17 Z-0.276
X18.418 Y29.158 Z-0.278
X18.599 Y29.161 Z-0.28
X18.779 Y29.178 Z-0.282
X18.956 Y29.209 Z-0.284
X19.131 Y29.254 Z-0.286
X19.301 Y29.312 Z-0.288
X19.466 Y29.383 Z-0.29
X19.625 Y29.468 Z-0.292
X19.777 Y29.564 Z-0.294
X19.92 Y29.672 Z-0.296
X20.054 Y29.791 Z-0.298
X20.179 Y29.92 Z-0.3
X20.292 Y30.058 Z-0.303
X20.395 Y30.204 Z-0.305
X20.485 Y30.358 Z-0.307
X20.563 Y30.519 Z-0.309
X20.628 Y30.685 Z-0.311
X20.68 Y30.855 Z-0.313
X20.718 Y31.029 Z-0.315
X20.742 Y31.205 Z-0.317
X20.753 Y31.383 Z-0.319
X20.749 Y31.56 Z-0.321
X20.731 Y31.737 Z-0.323
X20.7 Y31.911 Z-0.325
X20.655 Y32.082 Z-0.327
X20.596 Y32.249 Z-0.329
X20.525 Y32.411 Z-0.331
X20.441 Y32.567 Z-0.333
X20.346 Y32.715 Z-0.335
X20.239 Y32.855 Z-0.337
X20.121 Y32.986 Z-0.339
X19.994 Y33.108 Z-0.341
X19.858 Y33.218 Z-0.343
X19.713 Y33.318 Z-0.345
X19.561 Y33.406 Z-0.347
X19.403 Y33.482 Z-0.349
X19.239 Y33.545 Z-0.351
X19.072 Y33.594 Z-0.353
X18.901 Y33.631 Z-0.355
X18.727 Y33.653 Z-0.357
X18.553 Y33.662 Z-0.359
X18.379 Y33.658 Z-0.361
X18.206 Y33.639 Z-0.363
X18.035 Y33.607 Z-0.365
X17.867 Y33.562 Z-0.367
X17.703 Y33.503 Z-0.369
X17.545 Y33.432 Z-0.371
X17.392 Y33.349 Z-0.373
X17.247 Y33.254 Z-0.375
X17.11 Y33.149 Z-0.377
X16.982 Y33.032 Z-0.379
X16.864 Y32.906 Z-0.381
X16.756 Y32.772 Z-0.383
X16.659 Y32.629 Z-0.385
X16.574 Y32.48 Z-0.387
X16.5 Y32.324 Z-0.389
X16.44 Y32.163 Z-0.391
X16.392 Y31.998 Z-0.393
X16.357 Y31.83 Z-0.395
X16.336 Y31.659 Z-0.397
X16.328 Y31.488 Z-0.399
X16.334 Y31.317 Z-0.401
X16.353 Y31.147 Z-0.403
X16.386 Y30.979 Z-0.405
X16.431 Y30.815 Z-0.407
X16.489 Y30.654 Z-0.409
X16.56 Y30.499 Z-0.411
X16.643 Y30.351 Z-0.413
X16.737 Y30.209 Z-0.415
X16.842 Y30.075 Z-0.417
X16.956 Y29.95 Z-0.419
X17.081 Y29.834 Z-0.421
X17.214 Y29.729 Z-0.423
X17.354 Y29.635 Z-0.425
X17.502 Y29.552 Z-0.427
X17.655 Y29.481 Z-0.429
X17.813 Y29.422 Z-0.431
X17.976 Y29.377 Z-0.433
X18.141 Y29.344 Z-0.435
X18.308 Y29.324 Z-0.437
X18.476 Y29.317 Z-0.439
X18.644 Y29.324 Z-0.441
X18.811 Y29.344 Z-0.443
X18.975 Y29.377 Z-0.445
X19.137 Y29.423 Z-0.447
X19.294 Y29.481 Z-0.449
X19.445 Y29.551 Z-0.451
X19.591 Y29.633 Z-0.453
X19.729 Y29.726 Z-0.455
X19.86 Y29.83 Z-0.457
X19.982 Y29.944 Z-0.459
X20.095 Y30.066 Z-0.461
X20.197 Y30.197 Z-0.463
X20.289 Y30.336 Z-0.465
X20.369 Y30.481 Z-0.467
X20.438 Y30.632 Z-0.469
X20.494 Y30.788 Z-0.471
X20.538 Y30.947 Z-0.473
X20.57 Y31.11 Z-0.475
X20.588 Y31.274 Z-0.477
X20.593 Y31.439 Z-0.479
X20.586 Y31.604 Z-0.481
X20.565 Y31.767 Z-0.483
X20.532 Y31.928 Z-0.485
X20.486 Y32.086 Z-0.487
X20.428 Y32.24 Z-0.489
X20.358 Y32.388 Z-0.491
X20.277 Y32.53 Z-0.493
X20.184 Y32.666 Z-0.495
X20.082 Y32.793 Z-0.497
X19.97 Y32.912 Z-0.499
X19.849 Y33.022 Z-0.501
X19.719 Y33.122 Z-0.503
X19.583 Y33.211 Z-0.505
X19.44 Y33.289 Z-0.507
X19.291 Y33.355 Z-0.509
X19.138 Y33.41 Z-0.511
X18.982 Y33.452 Z-0.513
X18.822 Y33.481 Z-0.515
X18.661 Y33.498 Z-0.517
X18.499 Y33.503 Z-0.519
X18.338 Y33.494 Z-0.521
X18.177 Y33.473 Z-0.523
X18.019 Y33.439 Z-0.525
X17.865 Y33.393 Z-0.527
X17.715 Y33.335 Z-0.529
X17.569 Y33.266 Z-0.531
X17.43 Y33.185 Z-0.533
X17.298 Y33.094 Z-0.535
X17.174 Y32.992 Z-0.537
X17.058 Y32.882 Z-0.539
X16.951 Y32.762 Z-0.541
X16.854 Y32.635 Z-0.543
X16.768 Y32.501 Z-0.545
X16.692 Y32.36 Z-0.547
X16.628 Y32.214 Z-0.549
X16.575 Y32.063 Z-0.551
X16.535 Y31.909 Z-0.553
X16.507 Y31.753 Z-0.555
X16.491 Y31.595 Z-0.557
X16.488 Y31.436 Z-0.559
X16.497 Y31.278 Z-0.561
X16.519 Y31.121 Z-0.563
X16.553 Y30.966 Z-0.565
X16.599 Y30.815 Z-0.567
X16.657 Y30.668 Z-0.569
X16.726 Y30.526 Z-0.571
X16.806 Y30.39 Z-0.573
X16.896 Y30.261 Z-0.575
X16.997 Y30.14 Z-0.577
X17.106 Y30.027 Z-0.579
X17.224 Y29.923 Z-0.581
X17.349 Y29.829 Z-0.583
X17.481 Y29.745 Z-0.585
X17.62 Y29.672 Z-0.587
X17.763 Y29.61 Z-0.589
X17.911 Y29.559 Z-0.591
X18.062 Y29.521 Z-0.593
X18.216 Y29.494 Z-0.595
X18.371 Y29.48 Z-0.597
X18.526 Y29.478 Z-0.599
X18.682 Y29.488 Z-0.601
X18.835 Y29.51 Z-0.603
X18.986 Y29.544 Z-0.605
X19.134 Y29.59 Z-0.607
X19.278 Y29.648 Z-0.609
X19.417 Y29.717 Z-0.611
X19.549 Y29.796 Z-0.613
X19.675 Y29.885 Z-0.615
X19.793 Y29.984 Z-0.617
X19.903 Y30.092 Z-0.619
X20.004 Y30.208 Z-0.621
X20.096 Y30.331 Z-0.623
X20.177 Y30.461 Z-0.625
X20.248 Y30.597 Z-0.627
X20.308 Y30.738 Z-0.629
X20.357 Y30.884 Z-0.631
X20.394 Y31.032 Z-0.633
X20.419 Y31.183 Z-0.635
X20.432 Y31.335 Z-0.637
X20.433 Y31.487 Z-0.639
X20.422 Y31.639 Z-0.641
X20.399 Y31.789 Z-0.643
X20.365 Y31.937 Z-0.645
X20.318 Y32.082 Z-0.647
X20.261 Y32.222 Z-0.649
X20.193 Y32.358 Z-0.651
X20.115 Y32.487 Z-0.653
X20.026 Y32.61 Z-0.655
X19.929 Y32.725 Z-0.657
X19.823 Y32.832 Z-0.659
X19.708 Y32.93 Z-0.661
X19.587 Y33.019 Z-0.663
X19.459 Y33.098 Z-0.665
X19.325 Y33.167 Z-0.667
X19.187 Y33.224 Z-0.669
X19.044 Y33.271 Z-0.671
X18.899 Y33.306 Z-0.673
X18.751 Y33.33 Z-0.675
X18.602 Y33.342 Z-0.677
X18.453 Z-0.679
X18.304 Y33.33 Z-0.681
X18.157 Y33.307 Z-0.683
X18.012 Y33.272 Z-0.685
X17.871 Y33.226 Z-0.687
X17.734 Y33.169 Z-0.689
X17.602 Y33.102 Z-0.691
X17.476 Y33.024 Z-0.693
X17.356 Y32.937 Z-0.695
X17.244 Y32.841 Z-0.697
X17.14 Y32.736 Z-0.699
X17.044 Y32.623 Z-0.701
X16.958 Y32.504 Z-0.703
X16.881 Y32.378 Z-0.705
X16.815 Y32.247 Z-0.707
X16.76 Y32.111 Z-0.709
X16.715 Y31.971 Z-0.711
X16.681 Y31.829 Z-0.713
X16.659 Y31.684 Z-0.715
X16.648 Y31.538 Z-0.717
X16.649 Y31.392 Z-0.719
X16.662 Y31.246 Z-0.721
X16.685 Y31.103 Z-0.723
X16.72 Y30.961 Z-0.725
X16.766 Y30.823 Z-0.727
X16.823 Y30.689 Z-0.729
X16.89 Y30.56 Z-0.731
X16.966 Y30.437 Z-0.733
X17.052 Y30.321 Z-0.735
X17.147 Y30.212 Z-0.737
X17.25 Y30.11 Z-0.739
X17.361 Y30.018 Z-0.741
X17.479 Y29.934 Z-0.743
X17.602 Y29.86 Z-0.745
X17.731 Y29.796 Z-0.747
X17.864 Y29.742 Z-0.749
X18.001 Y29.699 Z-0.751
X18.141 Y29.668 Z-0.753
X18.283 Y29.647 Z-0.755
X18.426 Y29.637 Z-0.757
X18.569 Y29.639 Z-0.759
X18.711 Y29.652 Z-0.761
X18.852 Y29.676 Z-0.763
X18.99 Y29.711 Z-0.765
X19.124 Y29.757 Z-0.767
X19.255 Y29.813 Z-0.769
X19.381 Y29.879 Z-0.771
X19.5 Y29.955 Z-0.773
X19.614 Y30.04 Z-0.775
X19.72 Y30.134 Z-0.777
X19.818 Y30.235 Z-0.779
X19.908 Y30.344 Z-0.781
X19.99 Y30.459 Z-0.783
X20.061 Y30.581 Z-0.785
X20.123 Y30.707 Z-0.787
X20.175 Y30.838 Z-0.789
X20.216 Y30.972 Z-0.791
X20.246 Y31.109 Z-0.793
X20.265 Y31.248 Z-0.795
X20.274 Y31.388 Z-0.797
X20.271 Y31.527 Z-0.799
X20.258 Y31.666 Z-0.801
X20.233 Y31.804 Z-0.803
X20.198 Y31.938 Z-0.805
X20.152 Y32.07 Z-0.807
X20.097 Y32.197 Z-0.809
X20.031 Y32.32 Z-0.811
X19.956 Y32.436 Z-0.813
X19.872 Y32.547 Z-0.815
X19.78 Y32.65 Z-0.817
X19.68 Y32.746 Z-0.819
X19.573 Y32.833 Z-0.821
X19.46 Y32.911 Z-0.823
X19.341 Y32.981 Z-0.825
X19.217 Y33.04 Z-0.827
X19.089 Y33.09 Z-0.829
X18.957 Y33.129 Z-0.831
X18.823 Y33.158 Z-0.833
X18.688 Y33.176 Z-0.835
X18.551 Y33.183 Z-0.837
X18.414 Y33.18 Z-0.839
X18.279 Y33.166 Z-0.841
X18.145 Y33.141 Z-0.843
X18.013 Y33.106 Z-0.845
X17.885 Y33.06 Z-0.847
X17.761 Y33.005 Z-0.849
X17.642 Y32.94 Z-0.851
X17.528 Y32.866 Z-0.853
X17.421 Y32.784 Z-0.855
X17.32 Y32.693 Z-0.857
X17.228 Y32.595 Z-0.859
X17.143 Y32.49 Z-0.861
X17.067 Y32.379 Z-0.863
X17. Y32.262 Z-0.865
X16.943 Y32.14 Z-0.867
X16.895 Y32.015 Z-0.869
X16.857 Y31.886 Z-0.871
X16.83 Y31.755 Z-0.873
X16.813 Y31.622 Z-0.875
X16.807 Y31.489 Z-0.877
X16.811 Y31.355 Z-0.879
X16.826 Y31.223 Z-0.881
X16.851 Y31.092 Z-0.883
X16.886 Y30.964 Z-0.885
X16.931 Y30.839 Z-0.887
X16.986 Y30.718 Z-0.889
X17.05 Y30.602 Z-0.891
X17.123 Y30.492 Z-0.893
X17.204 Y30.387 Z-0.895
X17.294 Y30.29 Z-0.897
X17.39 Y30.2 Z-0.899
X17.493 Y30.118 Z-0.901
X17.602 Y30.044 Z-0.903
X17.717 Y29.98 Z-0.905
X17.836 Y29.925 Z-0.908
X17.959 Y29.879 Z-0.91
X18.085 Y29.843 Z-0.912
X18.213 Y29.817 Z-0.914
X18.343 Y29.802 Z-0.916
X18.473 Y29.796 Z-0.918
X18.603 Y29.801 Z-0.92
X18.732 Y29.816 Z-0.922
X18.86 Y29.842 Z-0.924
X18.985 Y29.877 Z-0.926
X19.107 Y29.922 Z-0.928
X19.224 Y29.976 Z-0.93
X19.337 Y30.039 Z-0.932
X19.444 Y30.111 Z-0.934
X19.546 Y30.191 Z-0.936
X19.64 Y30.279 Z-0.938
X19.727 Y30.374 Z-0.94
X19.807 Y30.475 Z-0.942
X19.878 Y30.582 Z-0.944
X19.94 Y30.694 Z-0.946
X19.993 Y30.81 Z-0.948
X20.037 Y30.93 Z-0.95
X20.071 Y31.054 Z-0.952
X20.096 Y31.179 Z-0.954
X20.11 Y31.306 Z-0.956
X20.115 Y31.433 Z-0.958
X20.109 Y31.56 Z-0.96
X20.093 Y31.686 Z-0.962
X20.068 Y31.81 Z-0.964
X20.033 Y31.932 Z-0.966
X19.988 Y32.05 Z-0.968
X19.934 Y32.165 Z-0.97
X19.872 Y32.274 Z-0.972
X19.801 Y32.379 Z-0.974
X19.722 Y32.477 Z-0.976
X19.636 Y32.569 Z-0.978
X19.543 Y32.653 Z-0.98
X19.444 Y32.73 Z-0.982
X19.339 Y32.798 Z-0.984
X19.23 Y32.858 Z-0.986
X19.116 Y32.91 Z-0.988
X18.998 Y32.952 Z-0.99
X18.878 Y32.984 Z-0.992
X18.756 Y33.007 Z-0.994
X18.632 Y33.02 Z-0.996
X18.508 Y33.024 Z-0.998
X18.384 Y33.018 Z-1.
X18.261 Y33.002 Z-1.002
X18.14 Y32.976 Z-1.004
X18.022 Y32.941 Z-1.006
X17.907 Y32.897 Z-1.008
X17.795 Y32.844 Z-1.01
X17.689 Y32.782 Z-1.012
X17.588 Y32.712 Z-1.014
X17.492 Y32.635 Z-1.016
X17.404 Y32.55 Z-1.018
X17.322 Y32.459 Z-1.02
X17.248 Y32.362 Z-1.022
X17.181 Y32.259 Z-1.024
X17.123 Y32.152 Z-1.026
X17.074 Y32.041 Z-1.028
X17.034 Y31.926 Z-1.03
X17.003 Y31.808 Z-1.032
X16.982 Y31.689 Z-1.034
X16.969 Y31.569 Z-1.036
X16.967 Y31.448 Z-1.038
X16.974 Y31.327 Z-1.04
X16.99 Y31.207 Z-1.042
X17.016 Y31.09 Z-1.044
X17.051 Y30.974 Z-1.046
X17.095 Y30.862 Z-1.048
X17.147 Y30.754 Z-1.05
X17.208 Y30.651 Z-1.052
X17.276 Y30.553 Z-1.054
X17.352 Y30.461 Z-1.056
X17.435 Y30.375 Z-1.058
X17.525 Y30.296 Z-1.06
X17.62 Y30.224 Z-1.062
X17.72 Y30.16 Z-1.064
X17.825 Y30.104 Z-1.066
X17.934 Y30.057 Z-1.068
X18.046 Y30.019 Z-1.07
X18.16 Y29.989 Z-1.072
X18.277 Y29.969 Z-1.074
X18.394 Y29.958 Z-1.076
X18.512 Y29.956 Z-1.078
X18.63 Y29.964 Z-1.08
X18.746 Y29.981 Z-1.082
X18.86 Y30.006 Z-1.084
X18.972 Y30.041 Z-1.086
X19.081 Y30.084 Z-1.088
X19.186 Y30.136 Z-1.09
X19.286 Y30.196 Z-1.092
X19.381 Y30.263 Z-1.094
X19.471 Y30.338 Z-1.096
X19.554 Y30.419 Z-1.098
X19.63 Y30.507 Z-1.1
X19.7 Y30.6 Z-1.102
X19.761 Y30.698 Z-1.104
X19.815 Y30.8 Z-1.106
X19.86 Y30.907 Z-1.108
X19.896 Y31.016 Z-1.11
X19.924 Y31.128 Z-1.112
X19.943 Y31.241 Z-1.114
X19.953 Y31.355 Z-1.116
X19.954 Y31.47 Z-1.118
X19.946 Y31.584 Z-1.12
X19.929 Y31.697 Z-1.122
X19.903 Y31.809 Z-1.124
X19.869 Y31.917 Z-1.126
X19.826 Y32.023 Z-1.128
X19.775 Y32.125 Z-1.13
X19.716 Y32.222 Z-1.132
X19.65 Y32.314 Z-1.134
X19.577 Y32.4 Z-1.136
X19.497 Y32.481 Z-1.138
X19.412 Y32.555 Z-1.14
X19.321 Y32.621 Z-1.142
X19.225 Y32.68 Z-1.144
X19.125 Y32.732 Z-1.146
X19.021 Y32.775 Z-1.148
X18.915 Y32.81 Z-1.15
X18.806 Y32.837 Z-1.152
X18.695 Y32.854 Z-1.154
X18.584 Y32.863 Z-1.156
X18.472 Z-1.158
X18.361 Y32.855 Z-1.16
X18.252 Y32.837 Z-1.162
X18.144 Y32.812 Z-1.164
X18.038 Y32.777 Z-1.166
X17.936 Y32.735 Z-1.168
X17.837 Y32.685 Z-1.17
X17.743 Y32.627 Z-1.172
X17.654 Y32.562 Z-1.174
X17.57 Y32.49 Z-1.176
X17.493 Y32.412 Z-1.178
X17.422 Y32.329 Z-1.18
X17.357 Y32.24 Z-1.182
X17.301 Y32.146 Z-1.184
X17.251 Y32.049 Z-1.186
X17.21 Y31.948 Z-1.188
X17.176 Y31.844 Z-1.19
X17.152 Y31.738 Z-1.192
X17.135 Y31.631 Z-1.194
X17.127 Y31.523 Z-1.196
X17.128 Y31.414 Z-1.198
X17.137 Y31.306 Z-1.2
X17.154 Y31.2 Z-1.202
X17.18 Y31.095 Z-1.204
X17.214 Y30.993 Z-1.206
X17.256 Y30.894 Z-1.208
X17.305 Y30.798 Z-1.21
X17.362 Y30.707 Z-1.212
X17.426 Y30.621 Z-1.214
X17.496 Y30.54 Z-1.216
X17.572 Y30.465 Z-1.218
X17.654 Y30.397 Z-1.22
X17.74 Y30.335 Z-1.222
X17.831 Y30.28 Z-1.224
X17.927 Y30.233 Z-1.226
X18.025 Y30.194 Z-1.228
X18.126 Y30.162 Z-1.23
X18.229 Y30.138 Z-1.232
X18.333 Y30.123 Z-1.234
X18.438 Y30.116 Z-1.236
X18.544 Y30.117 Z-1.238
X18.648 Y30.127 Z-1.24
X18.752 Y30.144 Z-1.242
X18.853 Y30.17 Z-1.244
X18.952 Y30.204 Z-1.246
X19.048 Y30.245 Z-1.248
X19.14 Y30.294 Z-1.25
X19.228 Y30.349 Z-1.252
X19.312 Y30.412 Z-1.254
X19.389 Y30.48 Z-1.256
X19.462 Y30.555 Z-1.258
X19.528 Y30.634 Z-1.26
X19.587 Y30.719 Z-1.262
X19.639 Y30.808 Z-1.264
X19.685 Y30.9 Z-1.266
X19.722 Y30.996 Z-1.268
X19.753 Y31.094 Z-1.27
X19.775 Y31.194 Z-1.272
X19.789 Y31.296 Z-1.274
X19.795 Y31.398 Z-1.276
X19.793 Y31.5 Z-1.278
X19.783 Y31.601 Z-1.28
X19.765 Y31.701 Z-1.282
X19.74 Y31.799 Z-1.284
X19.707 Y31.895 Z-1.286
X19.666 Y31.988 Z-1.288
X19.618 Y32.077 Z-1.29
X19.564 Y32.162 Z-1.292
X19.503 Y32.242 Z-1.294
X19.436 Y32.317 Z-1.296
X19.363 Y32.387 Z-1.298
X19.285 Y32.45 Z-1.3
X19.203 Y32.507 Z-1.302
X19.117 Y32.558 Z-1.304
X19.027 Y32.601 Z-1.306
X18.934 Y32.637 Z-1.308
X18.838 Y32.665 Z-1.31
X18.741 Y32.686 Z-1.312
X18.643 Y32.699 Z-1.314
X18.544 Y32.705 Z-1.316
X18.445 Y32.702 Z-1.318
X18.347 Y32.692 Z-1.32
X18.25 Y32.674 Z-1.322
X18.155 Y32.648 Z-1.324
X18.062 Y32.616 Z-1.326
X17.973 Y32.576 Z-1.328
X17.886 Y32.529 Z-1.33
X17.805 Y32.475 Z-1.332
X17.727 Y32.416 Z-1.334
X17.655 Y32.35 Z-1.336
X17.588 Y32.28 Z-1.338
X17.527 Y32.204 Z-1.34
X17.472 Y32.124 Z-1.342
X17.424 Y32.04 Z-1.344
X17.383 Y31.952 Z-1.346
X17.349 Y31.862 Z-1.348
X17.322 Y31.77 Z-1.35
X17.302 Y31.675 Z-1.352
X17.29 Y31.58 Z-1.354
X17.286 Y31.484 Z-1.356
X17.289 Y31.389 Z-1.358
X17.299 Y31.294 Z-1.36
X17.318 Y31.2 Z-1.362
X17.343 Y31.108 Z-1.364
X17.375 Y31.019 Z-1.366
X17.414 Y30.932 Z-1.368
X17.46 Y30.849 Z-1.37
X17.513 Y30.77 Z-1.372
X17.571 Y30.696 Z-1.374
X17.634 Y30.626 Z-1.376
X17.703 Y30.562 Z-1.378
X17.777 Y30.504 Z-1.38
X17.855 Y30.451 Z-1.382
X17.936 Y30.405 Z-1.384
X18.021 Y30.366 Z-1.386
X18.109 Y30.333 Z-1.388
X18.199 Y30.308 Z-1.39
X18.29 Y30.29 Z-1.392
X18.382 Y30.279 Z-1.394
X18.475 Y30.275 Z-1.396
X18.567 Y30.279 Z-1.398
X18.659 Y30.289 Z-1.4
X18.749 Y30.308 Z-1.402
X18.838 Y30.333 Z-1.404
X18.924 Y30.365 Z-1.406
X19.008 Y30.403 Z-1.408
X19.088 Y30.448 Z-1.41
X19.163 Y30.499 Z-1.412
X19.235 Y30.556 Z-1.414
X19.302 Y30.618 Z-1.416
X19.363 Y30.685 Z-1.418
X19.419 Y30.756 Z-1.42
X19.47 Y30.832 Z-1.422
X19.513 Y30.911 Z-1.424
X19.551 Y30.993 Z-1.426
X19.582 Y31.078 Z-1.428
X19.606 Y31.165 Z-1.43
X19.623 Y31.253 Z-1.432
X19.633 Y31.342 Z-1.434
X19.636 Y31.432 Z-1.436
X19.632 Y31.521 Z-1.438
X19.621 Y31.61 Z-1.44
X19.603 Y31.697 Z-1.442
X19.578 Y31.782 Z-1.444
X19.546 Y31.866 Z-1.446
X19.509 Y31.946 Z-1.448
X19.465 Y32.023 Z-1.45
X19.415 Y32.096 Z-1.452
X19.36 Y32.164 Z-1.454
X19.299 Y32.228 Z-1.456
X19.234 Y32.287 Z-1.458
X19.165 Y32.341 Z-1.46
X19.092 Y32.389 Z-1.462
X19.015 Y32.431 Z-1.464
X18.935 Y32.466 Z-1.466
X18.853 Y32.495 Z-1.468
X18.769 Y32.518 Z-1.47
X18.684 Y32.534 Z-1.472
X18.598 Y32.543 Z-1.474
X18.511 Y32.545 Z-1.476
X18.425 Y32.541 Z-1.478
X18.34 Y32.529 Z-1.48
X18.256 Y32.511 Z-1.482
X18.174 Y32.487 Z-1.484
X18.094 Y32.456 Z-1.486
X18.017 Y32.419 Z-1.488
X17.943 Y32.376 Z-1.49
X17.873 Y32.328 Z-1.492
X17.807 Y32.274 Z-1.494
X17.746 Y32.215 Z-1.496
X17.689 Y32.152 Z-1.498
X17.638 Y32.085 Z-1.5
X17.592 Y32.014 Z-1.502
X17.553 Y31.94 Z-1.504
X17.519 Y31.863 Z-1.506
X17.491 Y31.784 Z-1.508
X17.47 Y31.702 Z-1.511
X17.455 Y31.62 Z-1.513
X17.447 Y31.537 Z-1.515
X17.446 Y31.454 Z-1.517
X17.451 Y31.371 Z-1.519
X17.462 Y31.289 Z-1.521
X17.48 Y31.208 Z-1.523
X17.504 Y31.129 Z-1.525
X17.534 Y31.052 Z-1.527
X17.57 Y30.978 Z-1.529
X17.612 Y30.907 Z-1.531
X17.659 Y30.84 Z-1.533
X17.711 Y30.777 Z-1.535
X17.768 Y30.719 Z-1.537
X17.83 Y30.665 Z-1.539
X17.895 Y30.616 Z-1.541
X17.963 Y30.572 Z-1.543
X18.035 Y30.535 Z-1.545
X18.109 Y30.503 Z-1.547
X18.186 Y30.477 Z-1.549
X18.264 Y30.457 Z-1.551
X18.343 Y30.443 Z-1.553
X18.423 Y30.436 Z-1.555
X18.503 Y30.435 Z-1.557
X18.583 Y30.44 Z-1.559
X18.662 Y30.452 Z-1.561
X18.739 Y30.47 Z-1.563
X18.815 Y30.493 Z-1.565
X18.889 Y30.523 Z-1.567
X18.96 Y30.558 Z-1.569
X19.028 Y30.599 Z-1.571
X19.092 Y30.645 Z-1.573
X19.152 Y30.695 Z-1.575
X19.208 Y30.75 Z-1.577
X19.259 Y30.809 Z-1.579
X19.306 Y30.872 Z-1.581
X19.347 Y30.939 Z-1.583
X19.383 Y31.008 Z-1.585
X19.413 Y31.079 Z-1.587
X19.438 Y31.153 Z-1.589
X19.456 Y31.228 Z-1.591
X19.469 Y31.305 Z-1.593
X19.475 Y31.381 Z-1.595
X19.476 Y31.458 Z-1.597
X19.47 Y31.535 Z-1.599
X19.458 Y31.611 Z-1.601
X19.441 Y31.685 Z-1.603
X19.417 Y31.758 Z-1.605
X19.388 Y31.828 Z-1.607
X19.354 Y31.896 Z-1.609
X19.315 Y31.961 Z-1.611
X19.27 Y32.022 Z-1.613
X19.221 Y32.08 Z-1.615
X19.168 Y32.133 Z-1.617
X19.111 Y32.182 Z-1.619
X19.05 Y32.226 Z-1.621
X18.986 Y32.265 Z-1.623
X18.92 Y32.299 Z-1.625
X18.851 Y32.328 Z-1.627
X18.78 Y32.351 Z-1.629
X18.708 Y32.368 Z-1.631
X18.635 Y32.379 Z-1.633
X18.561 Y32.385 Z-1.635
X18.487 Z-1.637
X18.414 Y32.379 Z-1.639
X18.341 Y32.367 Z-1.641
X18.27 Y32.35 Z-1.643
X18.2 Y32.327 Z-1.645
X18.133 Y32.299 Z-1.647
X18.068 Y32.265 Z-1.649
X18.006 Y32.227 Z-1.651
X17.948 Y32.184 Z-1.653
X17.893 Y32.137 Z-1.655
X17.842 Y32.085 Z-1.657
X17.796 Y32.03 Z-1.659
X17.754 Y31.972 Z-1.661
X17.717 Y31.91 Z-1.663
X17.685 Y31.846 Z-1.665
X17.658 Y31.78 Z-1.667
X17.637 Y31.712 Z-1.669
X17.621 Y31.643 Z-1.671
X17.61 Y31.573 Z-1.673
X17.605 Y31.502 Z-1.675
X17.606 Y31.431 Z-1.677
X17.612 Y31.361 Z-1.679
X17.624 Y31.292 Z-1.681
X17.641 Y31.224 Z-1.683
X17.664 Y31.157 Z-1.685
X17.691 Y31.093 Z-1.687
X17.723 Y31.032 Z-1.689
X17.76 Y30.973 Z-1.691
X17.802 Y30.917 Z-1.693
X17.848 Y30.865 Z-1.695
X17.897 Y30.817 Z-1.697
X17.95 Y30.773 Z-1.699
X18.006 Y30.733 Z-1.701
X18.065 Y30.698 Z-1.703
X18.127 Y30.668 Z-1.705
X18.19 Y30.643 Z-1.707
X18.255 Y30.623 Z-1.709
X18.322 Y30.608 Z-1.711
X18.389 Y30.599 Z-1.713
X18.456 Y30.594 Z-1.715
X18.524 Y30.596 Z-1.717
X18.591 Y30.602 Z-1.719
X18.657 Y30.614 Z-1.721
X18.722 Y30.631 Z-1.723
X18.785 Y30.652 Z-1.725
X18.846 Y30.679 Z-1.727
X18.905 Y30.71 Z-1.729
X18.961 Y30.746 Z-1.731
X19.013 Y30.786 Z-1.733
X19.063 Y30.83 Z-1.735
X19.108 Y30.878 Z-1.737
X19.15 Y30.929 Z-1.739
X19.187 Y30.983 Z-1.741
X19.22 Y31.039 Z-1.743
X19.249 Y31.098 Z-1.745
X19.272 Y31.159 Z-1.747
X19.291 Y31.221 Z-1.749
X19.304 Y31.284 Z-1.751
X19.313 Y31.348 Z-1.753
X19.316 Y31.413 Z-1.755
X19.315 Y31.477 Z-1.757
X19.308 Y31.541 Z-1.759
X19.297 Y31.604 Z-1.761
X19.28 Y31.665 Z-1.763
X19.259 Y31.725 Z-1.765
X19.233 Y31.783 Z-1.767
X19.203 Y31.839 Z-1.769
X19.168 Y31.892 Z-1.771
X19.13 Y31.942 Z-1.773
X19.088 Y31.989 Z-1.775
X19.042 Y32.032 Z-1.777
X18.993 Y32.071 Z-1.779
X18.942 Y32.106 Z-1.781
X18.888 Y32.137 Z-1.783
X18.831 Y32.164 Z-1.785
X18.773 Y32.186 Z-1.787
X18.714 Y32.203 Z-1.789
X18.654 Y32.215 Z-1.791
X18.593 Y32.223 Z-1.793
X18.531 Y32.226 Z-1.795
X18.47 Y32.224 Z-1.797
X18.41 Y32.217 Z-1.799
X18.35 Y32.206 Z-1.801
X18.291 Y32.19 Z-1.803
X18.235 Y32.169 Z-1.805
X18.18 Y32.144 Z-1.807
X18.127 Y32.115 Z-1.809
X18.077 Y32.082 Z-1.811
X18.03 Y32.045 Z-1.813
X17.986 Y32.004 Z-1.815
X17.945 Y31.961 Z-1.817
X17.908 Y31.914 Z-1.819
X17.875 Y31.865 Z-1.821
X17.846 Y31.813 Z-1.823
X17.821 Y31.76 Z-1.825
X17.801 Y31.705 Z-1.827
X17.785 Y31.648 Z-1.829
X17.774 Y31.591 Z-1.831
X17.767 Y31.533 Z-1.833
X17.765 Y31.475 Z-1.835
X17.767 Y31.417 Z-1.837
X17.774 Y31.359 Z-1.839
X17.785 Y31.303 Z-1.841
X17.801 Y31.247 Z-1.843
X17.821 Y31.194 Z-1.845
X17.845 Y31.142 Z-1.847
X17.873 Y31.092 Z-1.849
X17.905 Y31.045 Z-1.851
X17.94 Y31. Z-1.853
X17.979 Y30.959 Z-1.855
X18.02 Y30.921 Z-1.857
X18.065 Y30.886 Z-1.859
X18.112 Y30.855 Z-1.861
X18.161 Y30.828 Z-1.863
X18.212 Y30.805 Z-1.865
X18.264 Y30.787 Z-1.867
X18.317 Y30.772 Z-1.869
X18.372 Y30.761 Z-1.871
X18.427 Y30.755 Z-1.873
X18.482 Y30.754 Z-1.875
X18.536 Y30.756 Z-1.877
X18.591 Y30.763 Z-1.879
X18.644 Y30.775 Z-1.881
X18.696 Y30.79 Z-1.883
X18.747 Y30.809 Z-1.885
X18.796 Y30.832 Z-1.887
X18.842 Y30.859 Z-1.889
X18.887 Y30.89 Z-1.891
X18.928 Y30.923 Z-1.893
X18.967 Y30.96 Z-1.895
X19.003 Y31. Z-1.897
X19.035 Y31.042 Z-1.899
X19.064 Y31.086 Z-1.901
X19.089 Y31.133 Z-1.903
X19.11 Y31.181 Z-1.905
X19.128 Y31.23 Z-1.907
X19.141 Y31.281 Z-1.909
X19.151 Y31.332 Z-1.911
X19.156 Y31.384 Z-1.913
X19.157 Y31.436 Z-1.915
X19.154 Y31.488 Z-1.917
X19.147 Y31.539 Z-1.919
X19.136 Y31.589 Z-1.921
X19.121 Y31.638 Z-1.923
X19.103 Y31.686 Z-1.925
X19.08 Y31.731 Z-1.927
X19.055 Y31.775 Z-1.929
X19.026 Y31.817 Z-1.931
X18.994 Y31.856 Z-1.933
X18.959 Y31.892 Z-1.935
X18.921 Y31.925 Z-1.937
X18.881 Y31.955 Z-1.939
X18.839 Y31.982 Z-1.941
X18.795 Y32.005 Z-1.943
X18.75 Y32.025 Z-1.945
X18.703 Y32.041 Z-1.947
X18.656 Y32.053 Z-1.949
X18.607 Y32.061 Z-1.951
X18.559 Y32.066 Z-1.953
X18.51 Z-1.955
X18.462 Y32.063 Z-1.957
X18.414 Y32.056 Z-1.959
X18.367 Y32.045 Z-1.961
X18.321 Y32.031 Z-1.963
X18.276 Y32.013 Z-1.965
X18.234 Y31.992 Z-1.967
X18.193 Y31.968 Z-1.969
X18.154 Y31.94 Z-1.971
X18.118 Y31.91 Z-1.973
X18.084 Y31.877 Z-1.975
X18.053 Y31.841 Z-1.977
X18.026 Y31.804 Z-1.979
X18.001 Y31.764 Z-1.981
X17.979 Y31.723 Z-1.983
X17.961 Y31.68 Z-1.985
X17.947 Y31.636 Z-1.987
X17.936 Y31.592 Z-1.989
X17.928 Y31.546 Z-1.991
X17.925 Y31.501 Z-1.993
X17.924 Y31.455 Z-1.995
X17.928 Y31.41 Z-1.997
X17.935 Y31.365 Z-1.999
X17.945 Y31.321 Z-2.001
X17.959 Y31.279 Z-2.003
X17.976 Y31.237 Z-2.005
X17.996 Y31.197 Z-2.007
X18.019 Y31.16 Z-2.009
X18.045 Y31.124 Z-2.011
X18.074 Y31.09 Z-2.013
X18.105 Y31.059 Z-2.015
X18.138 Y31.031 Z-2.017
X18.174 Y31.005 Z-2.019
X18.211 Y30.982 Z-2.021
X18.249 Y30.963 Z-2.023
X18.289 Y30.946 Z-2.025
X18.33 Y30.933 Z-2.027
X18.372 Y30.923 Z-2.029
X18.414 Y30.917 Z-2.031
X18.457 Y30.914 Z-2.033
X18.499 Z-2.035
X18.541 Y30.917 Z-2.037
X18.583 Y30.924 Z-2.039
X18.623 Y30.934 Z-2.041
X18.663 Y30.947 Z-2.043
X18.701 Y30.964 Z-2.045
X18.738 Y30.983 Z-2.047
X18.773 Y31.005 Z-2.049
X18.806 Y31.029 Z-2.051
X18.837 Y31.056 Z-2.053
X18.866 Y31.085 Z-2.055
X18.892 Y31.116 Z-2.057
X18.915 Y31.149 Z-2.059
X18.936 Y31.184 Z-2.061
X18.954 Y31.22 Z-2.063
X18.969 Y31.257 Z-2.065
X18.98 Y31.295 Z-2.067
X18.989 Y31.334 Z-2.069
X18.995 Y31.373 Z-2.071
X18.997 Y31.412 Z-2.073
Y31.452 Z-2.075
X18.993 Y31.49 Z-2.077
X18.986 Y31.529 Z-2.079
X18.977 Y31.566 Z-2.081
X18.964 Y31.603 Z-2.083
X18.949 Y31.638 Z-2.085
X18.931 Y31.672 Z-2.087
X18.91 Y31.704 Z-2.089
X18.887 Y31.734 Z-2.091
X18.862 Y31.763 Z-2.093
X18.835 Y31.789 Z-2.095
X18.806 Y31.813 Z-2.097
X18.776 Y31.834 Z-2.099
X18.743 Y31.853 Z-2.101
X18.71 Y31.869 Z-2.103
X18.676 Y31.882 Z-2.105
X18.641 Y31.893 Z-2.107
X18.605 Y31.9 Z-2.109
X18.569 Y31.905 Z-2.111
X18.533 Y31.907 Z-2.114
X18.496 Y31.906 Z-2.116
X18.461 Y31.902 Z-2.118
X18.426 Y31.896 Z-2.12
X18.391 Y31.887 Z-2.122
X18.358 Y31.875 Z-2.124
X18.326 Y31.86 Z-2.126
X18.295 Y31.843 Z-2.128
X18.265 Y31.824 Z-2.13
X18.238 Y31.803 Z-2.132
X18.212 Y31.78 Z-2.134
X18.189 Y31.754 Z-2.136
X18.167 Y31.728 Z-2.138
X18.148 Y31.699 Z-2.14
X18.131 Y31.67 Z-2.142
X18.117 Y31.639 Z-2.144
X18.105 Y31.608 Z-2.146
X18.096 Y31.575 Z-2.148
X18.089 Y31.543 Z-2.15
X18.085 Y31.51 Z-2.152
X18.084 Y31.476 Z-2.154
X18.085 Y31.444 Z-2.156
X18.089 Y31.411 Z-2.158
X18.095 Y31.379 Z-2.16
X18.104 Y31.348 Z-2.162
X18.115 Y31.317 Z-2.164
X18.128 Y31.288 Z-2.166
X18.144 Y31.26 Z-2.168
X18.162 Y31.234 Z-2.17
X18.181 Y31.209 Z-2.172
X18.203 Y31.186 Z-2.174
X18.226 Y31.165 Z-2.176
X18.251 Y31.146 Z-2.178
X18.276 Y31.129 Z-2.18
X18.303 Y31.114 Z-2.182
X18.331 Y31.101 Z-2.184
X18.36 Y31.091 Z-2.186
X18.389 Y31.083 Z-2.188
X18.419 Y31.077 Z-2.19
X18.449 Y31.074 Z-2.192
X18.479 Y31.073 Z-2.194
X18.509 Y31.074 Z-2.196
X18.538 Y31.078 Z-2.198
X18.567 Y31.084 Z-2.2
X18.595 Y31.092 Z-2.202
X18.622 Y31.103 Z-2.204
X18.648 Y31.115 Z-2.206
X18.673 Y31.13 Z-2.208
X18.697 Y31.146 Z-2.21
X18.719 Y31.164 Z-2.212
X18.74 Y31.184 Z-2.214
X18.758 Y31.205 Z-2.216
X18.775 Y31.227 Z-2.218
X18.791 Y31.25 Z-2.22
X18.804 Y31.275 Z-2.222
X18.815 Y31.3 Z-2.224
X18.824 Y31.326 Z-2.226
X18.83 Y31.352 Z-2.228
X18.835 Y31.379 Z-2.23
X18.838 Y31.406 Z-2.232
Y31.433 Z-2.234
X18.836 Y31.459 Z-2.236
X18.833 Y31.486 Z-2.238
X18.827 Y31.511 Z-2.24
X18.819 Y31.536 Z-2.242
X18.809 Y31.56 Z-2.244
X18.798 Y31.583 Z-2.246
X18.785 Y31.605 Z-2.248
X18.77 Y31.626 Z-2.25
X18.754 Y31.646 Z-2.252
X18.736 Y31.664 Z-2.254
X18.717 Y31.68 Z-2.256
X18.697 Y31.695 Z-2.258
X18.676 Y31.708 Z-2.26
X18.654 Y31.719 Z-2.262
X18.632 Y31.729 Z-2.264
X18.609 Y31.736 Z-2.266
X18.585 Y31.742 Z-2.268
X18.561 Y31.746 Z-2.27
X18.538 Y31.748 Z-2.272
X18.514 Z-2.274
X18.491 Y31.746 Z-2.276
X18.468 Y31.742 Z-2.278
X18.445 Y31.736 Z-2.28
X18.423 Y31.729 Z-2.282
X18.402 Y31.72 Z-2.284
X18.382 Y31.71 Z-2.286
G17 G3 X18.619 Y31.19 I0.119 J-0.26
X18.382 Y31.71 I-0.119 J0.26
G1 X18.345 Y31.685
X18.317 Y31.65
X18.301 Y31.608
X18.299 Y31.564
X18.311 Y31.521
X18.394 Y31.339
G0 Z5.
X35.329 Y31.307
Z2.
G1 Z0.4 F1300.
G18 G2 X35.729 Z0. I0.4 K0.
G1 X35.929
X35.974 Y31.314
X36.013 Y31.334
X36.045 Y31.366
X36.065 Y31.406
X36.072 Y31.45
X36.062 Y31.652 Z-0.002
X36.036 Y31.853 Z-0.004
X35.995 Y32.051 Z-0.006
X35.938 Y32.245 Z-0.008
X35.866 Y32.434 Z-0.01
X35.779 Y32.616 Z-0.012
X35.678 Y32.791 Z-0.014
X35.564 Y32.957 Z-0.016
X35.438 Y33.114 Z-0.018
X35.299 Y33.26 Z-0.02
X35.15 Y33.394 Z-0.022
X34.99 Y33.516 Z-0.024
X34.822 Y33.626 Z-0.026
X34.646 Y33.721 Z-0.028
X34.462 Y33.803 Z-0.03
X34.274 Y33.869 Z-0.032
X34.08 Y33.92 Z-0.034
X33.884 Y33.956 Z-0.036
X33.685 Y33.977 Z-0.038
X33.485 Y33.981 Z-0.04
X33.286 Y33.97 Z-0.042
X33.088 Y33.944 Z-0.044
X32.894 Y33.902 Z-0.046
X32.703 Y33.844 Z-0.048
X32.518 Y33.772 Z-0.05
X32.339 Y33.686 Z-0.052
X32.168 Y33.586 Z-0.054
X32.005 Y33.472 Z-0.056
X31.851 Y33.347 Z-0.058
X31.709 Y33.209 Z-0.06
X31.577 Y33.062 Z-0.062
X31.458 Y32.904 Z-0.064
X31.351 Y32.737 Z-0.066
X31.258 Y32.563 Z-0.068
X31.18 Y32.382 Z-0.07
X31.115 Y32.196 Z-0.072
X31.066 Y32.005 Z-0.074
X31.032 Y31.812 Z-0.076
X31.013 Y31.616 Z-0.078
X31.009 Y31.419 Z-0.08
X31.022 Y31.224 Z-0.082
X31.049 Y31.029 Z-0.084
X31.092 Y30.838 Z-0.086
X31.149 Y30.651 Z-0.088
X31.221 Y30.469 Z-0.09
X31.308 Y30.293 Z-0.092
X31.407 Y30.125 Z-0.094
X31.52 Y29.966 Z-0.096
X31.644 Y29.816 Z-0.098
X31.78 Y29.676 Z-0.1
X31.926 Y29.547 Z-0.102
X32.082 Y29.431 Z-0.104
X32.247 Y29.327 Z-0.106
X32.419 Y29.237 Z-0.108
X32.597 Y29.16 Z-0.11
X32.781 Y29.098 Z-0.112
X32.969 Y29.051 Z-0.114
X33.16 Y29.018 Z-0.116
X33.352 Y29.001 Z-0.118
X33.546 Y28.999 Z-0.12
X33.738 Y29.012 Z-0.122
X33.929 Y29.04 Z-0.124
X34.117 Y29.084 Z-0.126
X34.301 Y29.141 Z-0.128
X34.48 Y29.214 Z-0.13
X34.652 Y29.299 Z-0.132
X34.817 Y29.398 Z-0.134
X34.973 Y29.51 Z-0.136
X35.12 Y29.633 Z-0.138
X35.256 Y29.768 Z-0.14
X35.382 Y29.913 Z-0.142
X35.495 Y30.067 Z-0.144
X35.596 Y30.229 Z-0.146
X35.684 Y30.399 Z-0.148
X35.758 Y30.575 Z-0.15
X35.818 Y30.756 Z-0.152
X35.864 Y30.941 Z-0.154
X35.895 Y31.129 Z-0.156
X35.91 Y31.319 Z-0.158
X35.911 Y31.509 Z-0.16
X35.897 Y31.699 Z-0.162
X35.868 Y31.886 Z-0.164
X35.824 Y32.071 Z-0.166
X35.766 Y32.251 Z-0.168
X35.695 Y32.426 Z-0.17
X35.609 Y32.595 Z-0.172
X35.511 Y32.757 Z-0.174
X35.4 Y32.91 Z-0.176
X35.277 Y33.053 Z-0.178
X35.144 Y33.187 Z-0.18
X35.001 Y33.309 Z-0.182
X34.849 Y33.42 Z-0.184
X34.689 Y33.518 Z-0.186
X34.521 Y33.604 Z-0.188
X34.348 Y33.676 Z-0.19
X34.169 Y33.733 Z-0.192
X33.987 Y33.777 Z-0.194
X33.802 Y33.806 Z-0.196
X33.615 Y33.82 Z-0.198
X33.428 Z-0.2
X33.242 Y33.805 Z-0.202
X33.058 Y33.775 Z-0.204
X32.876 Y33.731 Z-0.206
X32.699 Y33.673 Z-0.208
X32.527 Y33.601 Z-0.21
X32.362 Y33.516 Z-0.212
X32.204 Y33.418 Z-0.214
X32.054 Y33.309 Z-0.216
X31.914 Y33.187 Z-0.218
X31.783 Y33.056 Z-0.22
X31.663 Y32.914 Z-0.222
X31.556 Y32.764 Z-0.224
X31.46 Y32.605 Z-0.226
X31.377 Y32.44 Z-0.228
X31.307 Y32.269 Z-0.23
X31.252 Y32.093 Z-0.232
X31.21 Y31.914 Z-0.234
X31.183 Y31.732 Z-0.236
X31.17 Y31.548 Z-0.238
X31.171 Y31.364 Z-0.24
X31.187 Y31.181 Z-0.242
X31.217 Y31. Z-0.244
X31.262 Y30.822 Z-0.246
X31.32 Y30.649 Z-0.248
X31.392 Y30.48 Z-0.25
X31.476 Y30.318 Z-0.252
X31.574 Y30.163 Z-0.254
X31.682 Y30.017 Z-0.256
X31.802 Y29.879 Z-0.258
X31.933 Y29.752 Z-0.26
X32.073 Y29.635 Z-0.262
X32.221 Y29.53 Z-0.264
X32.377 Y29.437 Z-0.266
X32.54 Y29.357 Z-0.268
X32.709 Y29.289 Z-0.27
X32.882 Y29.236 Z-0.272
X33.059 Y29.196 Z-0.274
X33.238 Y29.17 Z-0.276
X33.418 Y29.158 Z-0.278
X33.599 Y29.161 Z-0.28
X33.779 Y29.178 Z-0.282
X33.956 Y29.209 Z-0.284
X34.131 Y29.254 Z-0.286
X34.301 Y29.312 Z-0.288
X34.466 Y29.383 Z-0.29
X34.625 Y29.468 Z-0.292
X34.777 Y29.564 Z-0.294
X34.92 Y29.672 Z-0.296
X35.054 Y29.791 Z-0.298
X35.179 Y29.92 Z-0.3
X35.292 Y30.058 Z-0.303
X35.395 Y30.204 Z-0.305
X35.485 Y30.358 Z-0.307
X35.563 Y30.519 Z-0.309
X35.628 Y30.685 Z-0.311
X35.68 Y30.855 Z-0.313
X35.718 Y31.029 Z-0.315
X35.742 Y31.205 Z-0.317
X35.753 Y31.383 Z-0.319
X35.749 Y31.56 Z-0.321
X35.731 Y31.737 Z-0.323
X35.7 Y31.911 Z-0.325
X35.655 Y32.082 Z-0.327
X35.596 Y32.249 Z-0.329
X35.525 Y32.411 Z-0.331
X35.441 Y32.567 Z-0.333
X35.346 Y32.715 Z-0.335
X35.239 Y32.855 Z-0.337
X35.121 Y32.986 Z-0.339
X34.994 Y33.108 Z-0.341
X34.858 Y33.218 Z-0.343
X34.713 Y33.318 Z-0.345
X34.561 Y33.406 Z-0.347
X34.403 Y33.482 Z-0.349
X34.239 Y33.545 Z-0.351
X34.072 Y33.594 Z-0.353
X33.901 Y33.631 Z-0.355
X33.727 Y33.653 Z-0.357
X33.553 Y33.662 Z-0.359
X33.379 Y33.658 Z-0.361
X33.206 Y33.639 Z-0.363
X33.035 Y33.607 Z-0.365
X32.867 Y33.562 Z-0.367
X32.703 Y33.503 Z-0.369
X32.545 Y33.432 Z-0.371
X32.392 Y33.349 Z-0.373
X32.247 Y33.254 Z-0.375
X32.11 Y33.149 Z-0.377
X31.982 Y33.032 Z-0.379
X31.864 Y32.906 Z-0.381
X31.756 Y32.772 Z-0.383
X31.659 Y32.629 Z-0.385
X31.574 Y32.48 Z-0.387
X31.5 Y32.324 Z-0.389
X31.44 Y32.163 Z-0.391
X31.392 Y31.998 Z-0.393
X31.357 Y31.83 Z-0.395
X31.336 Y31.659 Z-0.397
X31.328 Y31.488 Z-0.399
X31.334 Y31.317 Z-0.401
X31.353 Y31.147 Z-0.403
X31.386 Y30.979 Z-0.405
X31.431 Y30.815 Z-0.407
X31.489 Y30.654 Z-0.409
X31.56 Y30.499 Z-0.411
X31.643 Y30.351 Z-0.413
X31.737 Y30.209 Z-0.415
X31.842 Y30.075 Z-0.417
X31.956 Y29.95 Z-0.419
X32.081 Y29.834 Z-0.421
X32.214 Y29.729 Z-0.423
X32.354 Y29.635 Z-0.425
X32.502 Y29.552 Z-0.427
X32.655 Y29.481 Z-0.429
X32.813 Y29.422 Z-0.431
X32.976 Y29.377 Z-0.433
X33.141 Y29.344 Z-0.435
X33.308 Y29.324 Z-0.437
X33.476 Y29.317 Z-0.439
X33.644 Y29.324 Z-0.441
X33.811 Y29.344 Z-0.443
X33.975 Y29.377 Z-0.445
X34.137 Y29.423 Z-0.447
X34.294 Y29.481 Z-0.449
X34.445 Y29.551 Z-0.451
X34.591 Y29.633 Z-0.453
X34.729 Y29.726 Z-0.455
X34.86 Y29.83 Z-0.457
X34.982 Y29.944 Z-0.459
X35.095 Y30.066 Z-0.461
X35.197 Y30.197 Z-0.463
X35.289 Y30.336 Z-0.465
X35.369 Y30.481 Z-0.467
X35.438 Y30.632 Z-0.469
X35.494 Y30.788 Z-0.471
X35.538 Y30.947 Z-0.473
X35.57 Y31.11 Z-0.475
X35.588 Y31.274 Z-0.477
X35.593 Y31.439 Z-0.479
X35.586 Y31.604 Z-0.481
X35.565 Y31.767 Z-0.483
X35.532 Y31.928 Z-0.485
X35.486 Y32.086 Z-0.487
X35.428 Y32.24 Z-0.489
X35.358 Y32.388 Z-0.491
X35.277 Y32.53 Z-0.493
X35.184 Y32.666 Z-0.495
X35.082 Y32.793 Z-0.497
X34.97 Y32.912 Z-0.499
X34.849 Y33.022 Z-0.501
X34.719 Y33.122 Z-0.503
X34.583 Y33.211 Z-0.505
X34.44 Y33.289 Z-0.507
X34.291 Y33.355 Z-0.509
X34.138 Y33.41 Z-0.511
X33.982 Y33.452 Z-0.513
X33.822 Y33.481 Z-0.515
X33.661 Y33.498 Z-0.517
X33.499 Y33.503 Z-0.519
X33.338 Y33.494 Z-0.521
X33.177 Y33.473 Z-0.523
X33.019 Y33.439 Z-0.525
X32.865 Y33.393 Z-0.527
X32.715 Y33.335 Z-0.529
X32.569 Y33.266 Z-0.531
X32.43 Y33.185 Z-0.533
X32.298 Y33.094 Z-0.535
X32.174 Y32.992 Z-0.537
X32.058 Y32.882 Z-0.539
X31.951 Y32.762 Z-0.541
X31.854 Y32.635 Z-0.543
X31.768 Y32.501 Z-0.545
X31.692 Y32.36 Z-0.547
X31.628 Y32.214 Z-0.549
X31.575 Y32.063 Z-0.551
X31.535 Y31.909 Z-0.553
X31.507 Y31.753 Z-0.555
X31.491 Y31.595 Z-0.557
X31.488 Y31.436 Z-0.559
X31.497 Y31.278 Z-0.561
X31.519 Y31.121 Z-0.563
X31.553 Y30.966 Z-0.565
X31.599 Y30.815 Z-0.567
X31.657 Y30.668 Z-0.569
X31.726 Y30.526 Z-0.571
X31.806 Y30.39 Z-0.573
X31.896 Y30.261 Z-0.575
X31.997 Y30.14 Z-0.577
X32.106 Y30.027 Z-0.579
X32.224 Y29.923 Z-0.581
X32.349 Y29.829 Z-0.583
X32.481 Y29.745 Z-0.585
X32.62 Y29.672 Z-0.587
X32.763 Y29.61 Z-0.589
X32.911 Y29.559 Z-0.591
X33.062 Y29.521 Z-0.593
X33.216 Y29.494 Z-0.595
X33.371 Y29.48 Z-0.597
X33.526 Y29.478 Z-0.599
X33.682 Y29.488 Z-0.601
X33.835 Y29.51 Z-0.603
X33.986 Y29.544 Z-0.605
X34.134 Y29.59 Z-0.607
X34.278 Y29.648 Z-0.609
X34.417 Y29.717 Z-0.611
X34.549 Y29.796 Z-0.613
X34.675 Y29.885 Z-0.615
X34.793 Y29.984 Z-0.617
X34.903 Y30.092 Z-0.619
X35.004 Y30.208 Z-0.621
X35.096 Y30.331 Z-0.623
X35.177 Y30.461 Z-0.625
X35.248 Y30.597 Z-0.627
X35.308 Y30.738 Z-0.629
X35.357 Y30.884 Z-0.631
X35.394 Y31.032 Z-0.633
X35.419 Y31.183 Z-0.635
X35.432 Y31.335 Z-0.637
X35.433 Y31.487 Z-0.639
X35.422 Y31.639 Z-0.641
X35.399 Y31.789 Z-0.643
X35.365 Y31.937 Z-0.645
X35.318 Y32.082 Z-0.647
X35.261 Y32.222 Z-0.649
X35.193 Y32.358 Z-0.651
X35.115 Y32.487 Z-0.653
X35.026 Y32.61 Z-0.655
X34.929 Y32.725 Z-0.657
X34.823 Y32.832 Z-0.659
X34.708 Y32.93 Z-0.661
X34.587 Y33.019 Z-0.663
X34.459 Y33.098 Z-0.665
X34.325 Y33.167 Z-0.667
X34.187 Y33.224 Z-0.669
X34.044 Y33.271 Z-0.671
X33.899 Y33.306 Z-0.673
X33.751 Y33.33 Z-0.675
X33.602 Y33.342 Z-0.677
X33.453 Z-0.679
X33.304 Y33.33 Z-0.681
X33.157 Y33.307 Z-0.683
X33.012 Y33.272 Z-0.685
X32.871 Y33.226 Z-0.687
X32.734 Y33.169 Z-0.689
X32.602 Y33.102 Z-0.691
X32.476 Y33.024 Z-0.693
X32.356 Y32.937 Z-0.695
X32.244 Y32.841 Z-0.697
X32.14 Y32.736 Z-0.699
X32.044 Y32.623 Z-0.701
X31.958 Y32.504 Z-0.703
X31.881 Y32.378 Z-0.705
X31.815 Y32.247 Z-0.707
X31.76 Y32.111 Z-0.709
X31.715 Y31.971 Z-0.711
X31.681 Y31.829 Z-0.713
X31.659 Y31.684 Z-0.715
X31.648 Y31.538 Z-0.717
X31.649 Y31.392 Z-0.719
X31.662 Y31.246 Z-0.721
X31.685 Y31.103 Z-0.723
X31.72 Y30.961 Z-0.725
X31.766 Y30.823 Z-0.727
X31.823 Y30.689 Z-0.729
X31.89 Y30.56 Z-0.731
X31.966 Y30.437 Z-0.733
X32.052 Y30.321 Z-0.735
X32.147 Y30.212 Z-0.737
X32.25 Y30.11 Z-0.739
X32.361 Y30.018 Z-0.741
X32.479 Y29.934 Z-0.743
X32.602 Y29.86 Z-0.745
X32.731 Y29.796 Z-0.747
X32.864 Y29.742 Z-0.749
X33.001 Y29.699 Z-0.751
X33.141 Y29.668 Z-0.753
X33.283 Y29.647 Z-0.755
X33.426 Y29.637 Z-0.757
X33.569 Y29.639 Z-0.759
X33.711 Y29.652 Z-0.761
X33.852 Y29.676 Z-0.763
X33.99 Y29.711 Z-0.765
X34.124 Y29.757 Z-0.767
X34.255 Y29.813 Z-0.769
X34.381 Y29.879 Z-0.771
X34.5 Y29.955 Z-0.773
X34.614 Y30.04 Z-0.775
X34.72 Y30.134 Z-0.777
X34.818 Y30.235 Z-0.779
X34.908 Y30.344 Z-0.781
X34.99 Y30.459 Z-0.783
X35.061 Y30.581 Z-0.785
X35.123 Y30.707 Z-0.787
X35.175 Y30.838 Z-0.789
X35.216 Y30.972 Z-0.791
X35.246 Y31.109 Z-0.793
X35.265 Y31.248 Z-0.795
X35.274 Y31.388 Z-0.797
X35.271 Y31.527 Z-0.799
X35.258 Y31.666 Z-0.801
X35.233 Y31.804 Z-0.803
X35.198 Y31.938 Z-0.805
X35.152 Y32.07 Z-0.807
X35.097 Y32.197 Z-0.809
X35.031 Y32.32 Z-0.811
X34.956 Y32.436 Z-0.813
X34.872 Y32.547 Z-0.815
X34.78 Y32.65 Z-0.817
X34.68 Y32.746 Z-0.819
X34.573 Y32.833 Z-0.821
X34.46 Y32.911 Z-0.823
X34.341 Y32.981 Z-0.825
X34.217 Y33.04 Z-0.827
X34.089 Y33.09 Z-0.829
X33.957 Y33.129 Z-0.831
X33.823 Y33.158 Z-0.833
X33.688 Y33.176 Z-0.835
X33.551 Y33.183 Z-0.837
X33.414 Y33.18 Z-0.839
X33.279 Y33.166 Z-0.841
X33.145 Y33.141 Z-0.843
X33.013 Y33.106 Z-0.845
X32.885 Y33.06 Z-0.847
X32.761 Y33.005 Z-0.849
X32.642 Y32.94 Z-0.851
X32.528 Y32.866 Z-0.853
X32.421 Y32.784 Z-0.855
X32.32 Y32.693 Z-0.857
X32.228 Y32.595 Z-0.859
X32.143 Y32.49 Z-0.861
X32.067 Y32.379 Z-0.863
X32. Y32.262 Z-0.865
X31.943 Y32.14 Z-0.867
X31.895 Y32.015 Z-0.869
X31.857 Y31.886 Z-0.871
X31.83 Y31.755 Z-0.873
X31.813 Y31.622 Z-0.875
X31.807 Y31.489 Z-0.877
X31.811 Y31.355 Z-0.879
X31.826 Y31.223 Z-0.881
X31.851 Y31.092 Z-0.883
X31.886 Y30.964 Z-0.885
X31.931 Y30.839 Z-0.887
X31.986 Y30.718 Z-0.889
X32.05 Y30.602 Z-0.891
X32.123 Y30.492 Z-0.893
X32.204 Y30.387 Z-0.895
X32.294 Y30.29 Z-0.897
X32.39 Y30.2 Z-0.899
X32.493 Y30.118 Z-0.901
X32.602 Y30.044 Z-0.903
X32.717 Y29.98 Z-0.905
X32.836 Y29.925 Z-0.908
X32.959 Y29.879 Z-0.91
X33.085 Y29.843 Z-0.912
X33.213 Y29.817 Z-0.914
X33.343 Y29.802 Z-0.916
X33.473 Y29.796 Z-0.918
X33.603 Y29.801 Z-0.92
X33.732 Y29.816 Z-0.922
X33.86 Y29.842 Z-0.924
X33.985 Y29.877 Z-0.926
X34.107 Y29.922 Z-0.928
X34.224 Y29.976 Z-0.93
X34.337 Y30.039 Z-0.932
X34.444 Y30.111 Z-0.934
X34.546 Y30.191 Z-0.936
X34.64 Y30.279 Z-0.938
X34.727 Y30.374 Z-0.94
X34.807 Y30.475 Z-0.942
X34.878 Y30.582 Z-0.944
X34.94 Y30.694 Z-0.946
X34.993 Y30.81 Z-0.948
X35.037 Y30.93 Z-0.95
X35.071 Y31.054 Z-0.952
X35.096 Y31.179 Z-0.954
X35.11 Y31.306 Z-0.956
X35.115 Y31.433 Z-0.958
X35.109 Y31.56 Z-0.96
X35.093 Y31.686 Z-0.962
X35.068 Y31.81 Z-0.964
X35.033 Y31.932 Z-0.966
X34.988 Y32.05 Z-0.968
X34.934 Y32.165 Z-0.97
X34.872 Y32.274 Z-0.972
X34.801 Y32.379 Z-0.974
X34.722 Y32.477 Z-0.976
X34.636 Y32.569 Z-0.978
X34.543 Y32.653 Z-0.98
X34.444 Y32.73 Z-0.982
X34.339 Y32.798 Z-0.984
X34.23 Y32.858 Z-0.986
X34.116 Y32.91 Z-0.988
X33.998 Y32.952 Z-0.99
X33.878 Y32.984 Z-0.992
X33.756 Y33.007 Z-0.994
X33.632 Y33.02 Z-0.996
X33.508 Y33.024 Z-0.998
X33.384 Y33.018 Z-1.
X33.261 Y33.002 Z-1.002
X33.14 Y32.976 Z-1.004
X33.022 Y32.941 Z-1.006
X32.907 Y32.897 Z-1.008
X32.795 Y32.844 Z-1.01
X32.689 Y32.782 Z-1.012
X32.588 Y32.712 Z-1.014
X32.492 Y32.635 Z-1.016
X32.404 Y32.55 Z-1.018
X32.322 Y32.459 Z-1.02
X32.248 Y32.362 Z-1.022
X32.181 Y32.259 Z-1.024
X32.123 Y32.152 Z-1.026
X32.074 Y32.041 Z-1.028
X32.034 Y31.926 Z-1.03
X32.003 Y31.808 Z-1.032
X31.982 Y31.689 Z-1.034
X31.969 Y31.569 Z-1.036
X31.967 Y31.448 Z-1.038
X31.974 Y31.327 Z-1.04
X31.99 Y31.207 Z-1.042
X32.016 Y31.09 Z-1.044
X32.051 Y30.974 Z-1.046
X32.095 Y30.862 Z-1.048
X32.147 Y30.754 Z-1.05
X32.208 Y30.651 Z-1.052
X32.276 Y30.553 Z-1.054
X32.352 Y30.461 Z-1.056
X32.435 Y30.375 Z-1.058
X32.525 Y30.296 Z-1.06
X32.62 Y30.224 Z-1.062
X32.72 Y30.16 Z-1.064
X32.825 Y30.104 Z-1.066
X32.934 Y30.057 Z-1.068
X33.046 Y30.019 Z-1.07
X33.16 Y29.989 Z-1.072
X33.277 Y29.969 Z-1.074
X33.394 Y29.958 Z-1.076
X33.512 Y29.956 Z-1.078
X33.63 Y29.964 Z-1.08
X33.746 Y29.981 Z-1.082
X33.86 Y30.006 Z-1.084
X33.972 Y30.041 Z-1.086
X34.081 Y30.084 Z-1.088
X34.186 Y30.136 Z-1.09
X34.286 Y30.196 Z-1.092
X34.381 Y30.263 Z-1.094
X34.471 Y30.338 Z-1.096
X34.554 Y30.419 Z-1.098
X34.63 Y30.507 Z-1.1
X34.699 Y30.6 Z-1.102
X34.761 Y30.698 Z-1.104
X34.815 Y30.8 Z-1.106
X34.86 Y30.907 Z-1.108
X34.896 Y31.016 Z-1.11
X34.924 Y31.128 Z-1.112
X34.943 Y31.241 Z-1.114
X34.953 Y31.355 Z-1.116
X34.954 Y31.47 Z-1.118
X34.946 Y31.584 Z-1.12
X34.929 Y31.697 Z-1.122
X34.903 Y31.809 Z-1.124
X34.869 Y31.917 Z-1.126
X34.826 Y32.023 Z-1.128
X34.775 Y32.125 Z-1.13
X34.716 Y32.222 Z-1.132
X34.65 Y32.314 Z-1.134
X34.577 Y32.4 Z-1.136
X34.497 Y32.481 Z-1.138
X34.412 Y32.555 Z-1.14
X34.321 Y32.621 Z-1.142
X34.225 Y32.68 Z-1.144
X34.125 Y32.732 Z-1.146
X34.021 Y32.775 Z-1.148
X33.915 Y32.81 Z-1.15
X33.806 Y32.837 Z-1.152
X33.695 Y32.854 Z-1.154
X33.584 Y32.863 Z-1.156
X33.472 Z-1.158
X33.361 Y32.855 Z-1.16
X33.252 Y32.837 Z-1.162
X33.144 Y32.812 Z-1.164
X33.038 Y32.777 Z-1.166
X32.936 Y32.735 Z-1.168
X32.837 Y32.685 Z-1.17
X32.743 Y32.627 Z-1.172
X32.654 Y32.562 Z-1.174
X32.57 Y32.49 Z-1.176
X32.493 Y32.412 Z-1.178
X32.422 Y32.329 Z-1.18
X32.357 Y32.24 Z-1.182
X32.301 Y32.146 Z-1.184
X32.251 Y32.049 Z-1.186
X32.21 Y31.948 Z-1.188
X32.176 Y31.844 Z-1.19
X32.152 Y31.738 Z-1.192
X32.135 Y31.631 Z-1.194
X32.127 Y31.523 Z-1.196
X32.128 Y31.414 Z-1.198
X32.137 Y31.306 Z-1.2
X32.154 Y31.2 Z-1.202
X32.18 Y31.095 Z-1.204
X32.214 Y30.993 Z-1.206
X32.256 Y30.894 Z-1.208
X32.305 Y30.798 Z-1.21
X32.362 Y30.707 Z-1.212
X32.426 Y30.621 Z-1.214
X32.496 Y30.54 Z-1.216
X32.572 Y30.465 Z-1.218
X32.654 Y30.397 Z-1.22
X32.74 Y30.335 Z-1.222
X32.831 Y30.28 Z-1.224
X32.927 Y30.233 Z-1.226
X33.025 Y30.194 Z-1.228
X33.126 Y30.162 Z-1.23
X33.229 Y30.138 Z-1.232
X33.333 Y30.123 Z-1.234
X33.438 Y30.116 Z-1.236
X33.544 Y30.117 Z-1.238
X33.648 Y30.127 Z-1.24
X33.752 Y30.144 Z-1.242
X33.853 Y30.17 Z-1.244
X33.952 Y30.204 Z-1.246
X34.048 Y30.245 Z-1.248
X34.14 Y30.294 Z-1.25
X34.228 Y30.349 Z-1.252
X34.312 Y30.412 Z-1.254
X34.389 Y30.48 Z-1.256
X34.462 Y30.555 Z-1.258
X34.528 Y30.634 Z-1.26
X34.587 Y30.719 Z-1.262
X34.639 Y30.808 Z-1.264
X34.685 Y30.9 Z-1.266
X34.722 Y30.996 Z-1.268
X34.753 Y31.094 Z-1.27
X34.775 Y31.194 Z-1.272
X34.789 Y31.296 Z-1.274
X34.795 Y31.398 Z-1.276
X34.793 Y31.5 Z-1.278
X34.783 Y31.601 Z-1.28
X34.765 Y31.701 Z-1.282
X34.74 Y31.799 Z-1.284
X34.707 Y31.895 Z-1.286
X34.666 Y31.988 Z-1.288
X34.618 Y32.077 Z-1.29
X34.564 Y32.162 Z-1.292
X34.503 Y32.242 Z-1.294
X34.436 Y32.317 Z-1.296
X34.363 Y32.387 Z-1.298
X34.285 Y32.45 Z-1.3
X34.203 Y32.507 Z-1.302
X34.117 Y32.558 Z-1.304
X34.027 Y32.601 Z-1.306
X33.934 Y32.637 Z-1.308
X33.838 Y32.665 Z-1.31
X33.741 Y32.686 Z-1.312
X33.643 Y32.699 Z-1.314
X33.544 Y32.705 Z-1.316
X33.445 Y32.702 Z-1.318
X33.347 Y32.692 Z-1.32
X33.25 Y32.674 Z-1.322
X33.155 Y32.648 Z-1.324
X33.062 Y32.616 Z-1.326
X32.973 Y32.576 Z-1.328
X32.887 Y32.529 Z-1.33
X32.805 Y32.475 Z-1.332
X32.727 Y32.416 Z-1.334
X32.655 Y32.35 Z-1.336
X32.588 Y32.28 Z-1.338
X32.527 Y32.204 Z-1.34
X32.472 Y32.124 Z-1.342
X32.424 Y32.04 Z-1.344
X32.383 Y31.952 Z-1.346
X32.349 Y31.862 Z-1.348
X32.322 Y31.77 Z-1.35
X32.302 Y31.675 Z-1.352
X32.29 Y31.58 Z-1.354
X32.286 Y31.484 Z-1.356
X32.289 Y31.389 Z-1.358
X32.299 Y31.294 Z-1.36
X32.318 Y31.2 Z-1.362
X32.343 Y31.108 Z-1.364
X32.375 Y31.019 Z-1.366
X32.414 Y30.932 Z-1.368
X32.46 Y30.849 Z-1.37
X32.513 Y30.77 Z-1.372
X32.571 Y30.696 Z-1.374
X32.634 Y30.626 Z-1.376
X32.703 Y30.562 Z-1.378
X32.777 Y30.504 Z-1.38
X32.855 Y30.451 Z-1.382
X32.936 Y30.405 Z-1.384
X33.021 Y30.366 Z-1.386
X33.109 Y30.333 Z-1.388
X33.199 Y30.308 Z-1.39
X33.29 Y30.29 Z-1.392
X33.382 Y30.279 Z-1.394
X33.475 Y30.275 Z-1.396
X33.567 Y30.279 Z-1.398
X33.659 Y30.289 Z-1.4
X33.749 Y30.308 Z-1.402
X33.838 Y30.333 Z-1.404
X33.924 Y30.365 Z-1.406
X34.008 Y30.403 Z-1.408
X34.088 Y30.448 Z-1.41
X34.163 Y30.499 Z-1.412
X34.235 Y30.556 Z-1.414
X34.302 Y30.618 Z-1.416
X34.363 Y30.685 Z-1.418
X34.419 Y30.756 Z-1.42
X34.469 Y30.832 Z-1.422
X34.513 Y30.911 Z-1.424
X34.551 Y30.993 Z-1.426
X34.582 Y31.078 Z-1.428
X34.606 Y31.165 Z-1.43
X34.623 Y31.253 Z-1.432
X34.633 Y31.342 Z-1.434
X34.636 Y31.432 Z-1.436
X34.632 Y31.521 Z-1.438
X34.621 Y31.61 Z-1.44
X34.603 Y31.697 Z-1.442
X34.578 Y31.782 Z-1.444
X34.546 Y31.866 Z-1.446
X34.509 Y31.946 Z-1.448
X34.465 Y32.023 Z-1.45
X34.415 Y32.096 Z-1.452
X34.36 Y32.164 Z-1.454
X34.299 Y32.228 Z-1.456
X34.234 Y32.287 Z-1.458
X34.165 Y32.341 Z-1.46
X34.092 Y32.389 Z-1.462
X34.015 Y32.431 Z-1.464
X33.935 Y32.466 Z-1.466
X33.853 Y32.495 Z-1.468
X33.769 Y32.518 Z-1.47
X33.684 Y32.534 Z-1.472
X33.598 Y32.543 Z-1.474
X33.511 Y32.545 Z-1.476
X33.425 Y32.541 Z-1.478
X33.34 Y32.529 Z-1.48
X33.256 Y32.511 Z-1.482
X33.174 Y32.487 Z-1.484
X33.094 Y32.456 Z-1.486
X33.017 Y32.419 Z-1.488
X32.943 Y32.376 Z-1.49
X32.873 Y32.328 Z-1.492
X32.807 Y32.274 Z-1.494
X32.746 Y32.215 Z-1.496
X32.689 Y32.152 Z-1.498
X32.638 Y32.085 Z-1.5
X32.592 Y32.014 Z-1.502
X32.553 Y31.94 Z-1.504
X32.519 Y31.863 Z-1.506
X32.491 Y31.784 Z-1.508
X32.47 Y31.703 Z-1.511
X32.455 Y31.62 Z-1.513
X32.447 Y31.537 Z-1.515
X32.446 Y31.454 Z-1.517
X32.451 Y31.371 Z-1.519
X32.462 Y31.289 Z-1.521
X32.48 Y31.208 Z-1.523
X32.504 Y31.129 Z-1.525
X32.534 Y31.052 Z-1.527
X32.57 Y30.978 Z-1.529
X32.612 Y30.907 Z-1.531
X32.659 Y30.84 Z-1.533
X32.711 Y30.777 Z-1.535
X32.768 Y30.719 Z-1.537
X32.829 Y30.665 Z-1.539
X32.895 Y30.616 Z-1.541
X32.963 Y30.572 Z-1.543
X33.035 Y30.535 Z-1.545
X33.109 Y30.503 Z-1.547
X33.186 Y30.477 Z-1.549
X33.264 Y30.457 Z-1.551
X33.343 Y30.443 Z-1.553
X33.423 Y30.436 Z-1.555
X33.503 Y30.435 Z-1.557
X33.583 Y30.44 Z-1.559
X33.662 Y30.452 Z-1.561
X33.739 Y30.47 Z-1.563
X33.815 Y30.493 Z-1.565
X33.889 Y30.523 Z-1.567
X33.96 Y30.558 Z-1.569
X34.028 Y30.599 Z-1.571
X34.092 Y30.645 Z-1.573
X34.152 Y30.695 Z-1.575
X34.208 Y30.75 Z-1.577
X34.259 Y30.809 Z-1.579
X34.306 Y30.872 Z-1.581
X34.347 Y30.939 Z-1.583
X34.383 Y31.008 Z-1.585
X34.413 Y31.079 Z-1.587
X34.438 Y31.153 Z-1.589
X34.456 Y31.228 Z-1.591
X34.469 Y31.305 Z-1.593
X34.475 Y31.381 Z-1.595
X34.476 Y31.458 Z-1.597
X34.47 Y31.535 Z-1.599
X34.458 Y31.611 Z-1.601
X34.441 Y31.685 Z-1.603
X34.417 Y31.758 Z-1.605
X34.388 Y31.828 Z-1.607
X34.354 Y31.896 Z-1.609
X34.315 Y31.961 Z-1.611
X34.27 Y32.022 Z-1.613
X34.221 Y32.08 Z-1.615
X34.168 Y32.133 Z-1.617
X34.111 Y32.182 Z-1.619
X34.05 Y32.226 Z-1.621
X33.986 Y32.265 Z-1.623
X33.92 Y32.299 Z-1.625
X33.851 Y32.328 Z-1.627
X33.78 Y32.351 Z-1.629
X33.708 Y32.368 Z-1.631
X33.635 Y32.379 Z-1.633
X33.561 Y32.385 Z-1.635
X33.487 Z-1.637
X33.414 Y32.379 Z-1.639
X33.341 Y32.367 Z-1.641
X33.27 Y32.35 Z-1.643
X33.2 Y32.327 Z-1.645
X33.133 Y32.299 Z-1.647
X33.068 Y32.265 Z-1.649
X33.006 Y32.227 Z-1.651
X32.948 Y32.184 Z-1.653
X32.893 Y32.137 Z-1.655
X32.842 Y32.085 Z-1.657
X32.796 Y32.03 Z-1.659
X32.754 Y31.972 Z-1.661
X32.717 Y31.91 Z-1.663
X32.685 Y31.846 Z-1.665
X32.658 Y31.78 Z-1.667
X32.637 Y31.712 Z-1.669
X32.621 Y31.643 Z-1.671
X32.61 Y31.573 Z-1.673
X32.605 Y31.502 Z-1.675
X32.606 Y31.431 Z-1.677
X32.612 Y31.361 Z-1.679
X32.624 Y31.292 Z-1.681
X32.641 Y31.224 Z-1.683
X32.664 Y31.157 Z-1.685
X32.691 Y31.093 Z-1.687
X32.723 Y31.032 Z-1.689
X32.76 Y30.973 Z-1.691
X32.802 Y30.917 Z-1.693
X32.848 Y30.865 Z-1.695
X32.897 Y30.817 Z-1.697
X32.95 Y30.773 Z-1.699
X33.006 Y30.733 Z-1.701
X33.065 Y30.698 Z-1.703
X33.127 Y30.668 Z-1.705
X33.19 Y30.643 Z-1.707
X33.255 Y30.623 Z-1.709
X33.322 Y30.608 Z-1.711
X33.389 Y30.599 Z-1.713
X33.456 Y30.594 Z-1.715
X33.524 Y30.596 Z-1.717
X33.591 Y30.602 Z-1.719
X33.657 Y30.614 Z-1.721
X33.722 Y30.631 Z-1.723
X33.785 Y30.652 Z-1.725
X33.846 Y30.679 Z-1.727
X33.905 Y30.71 Z-1.729
X33.961 Y30.746 Z-1.731
X34.013 Y30.786 Z-1.733
X34.063 Y30.83 Z-1.735
X34.108 Y30.878 Z-1.737
X34.15 Y30.929 Z-1.739
X34.187 Y30.983 Z-1.741
X34.22 Y31.039 Z-1.743
X34.249 Y31.098 Z-1.745
X34.272 Y31.159 Z-1.747
X34.291 Y31.221 Z-1.749
X34.304 Y31.284 Z-1.751
X34.313 Y31.348 Z-1.753
X34.316 Y31.413 Z-1.755
X34.315 Y31.477 Z-1.757
X34.308 Y31.541 Z-1.759
X34.297 Y31.604 Z-1.761
X34.28 Y31.665 Z-1.763
X34.259 Y31.725 Z-1.765
X34.233 Y31.783 Z-1.767
X34.203 Y31.839 Z-1.769
X34.168 Y31.892 Z-1.771
X34.13 Y31.942 Z-1.773
X34.088 Y31.989 Z-1.775
X34.042 Y32.032 Z-1.777
X33.993 Y32.071 Z-1.779
X33.942 Y32.106 Z-1.781
X33.888 Y32.137 Z-1.783
X33.831 Y32.164 Z-1.785
X33.773 Y32.186 Z-1.787
X33.714 Y32.203 Z-1.789
X33.654 Y32.215 Z-1.791
X33.593 Y32.223 Z-1.793
X33.531 Y32.226 Z-1.795
X33.47 Y32.224 Z-1.797
X33.41 Y32.217 Z-1.799
X33.35 Y32.206 Z-1.801
X33.291 Y32.19 Z-1.803
X33.235 Y32.169 Z-1.805
X33.18 Y32.144 Z-1.807
X33.127 Y32.115 Z-1.809
X33.077 Y32.082 Z-1.811
X33.03 Y32.045 Z-1.813
X32.986 Y32.004 Z-1.815
X32.945 Y31.961 Z-1.817
X32.908 Y31.914 Z-1.819
X32.875 Y31.865 Z-1.821
X32.846 Y31.813 Z-1.823
X32.821 Y31.76 Z-1.825
X32.801 Y31.705 Z-1.827
X32.785 Y31.648 Z-1.829
X32.774 Y31.591 Z-1.831
X32.767 Y31.533 Z-1.833
X32.765 Y31.475 Z-1.835
X32.767 Y31.417 Z-1.837
X32.774 Y31.359 Z-1.839
X32.785 Y31.303 Z-1.841
X32.801 Y31.247 Z-1.843
X32.821 Y31.194 Z-1.845
X32.845 Y31.142 Z-1.847
X32.873 Y31.092 Z-1.849
X32.905 Y31.045 Z-1.851
X32.94 Y31. Z-1.853
X32.979 Y30.959 Z-1.855
X33.02 Y30.921 Z-1.857
X33.065 Y30.886 Z-1.859
X33.112 Y30.855 Z-1.861
X33.161 Y30.828 Z-1.863
X33.212 Y30.805 Z-1.865
X33.264 Y30.787 Z-1.867
X33.317 Y30.772 Z-1.869
X33.372 Y30.761 Z-1.871
X33.427 Y30.755 Z-1.873
X33.482 Y30.754 Z-1.875
X33.536 Y30.756 Z-1.877
X33.591 Y30.763 Z-1.879
X33.644 Y30.775 Z-1.881
X33.696 Y30.79 Z-1.883
X33.747 Y30.809 Z-1.885
X33.796 Y30.832 Z-1.887
X33.842 Y30.859 Z-1.889
X33.887 Y30.89 Z-1.891
X33.928 Y30.923 Z-1.893
X33.967 Y30.96 Z-1.895
X34.003 Y31. Z-1.897
X34.035 Y31.042 Z-1.899
X34.064 Y31.086 Z-1.901
X34.089 Y31.133 Z-1.903
X34.11 Y31.181 Z-1.905
X34.128 Y31.23 Z-1.907
X34.141 Y31.281 Z-1.909
X34.151 Y31.332 Z-1.911
X34.156 Y31.384 Z-1.913
X34.157 Y31.436 Z-1.915
X34.154 Y31.488 Z-1.917
X34.147 Y31.539 Z-1.919
X34.136 Y31.589 Z-1.921
X34.121 Y31.638 Z-1.923
X34.103 Y31.685 Z-1.925
X34.08 Y31.731 Z-1.927
X34.055 Y31.775 Z-1.929
X34.026 Y31.817 Z-1.931
X33.994 Y31.856 Z-1.933
X33.959 Y31.892 Z-1.935
X33.921 Y31.925 Z-1.937
X33.881 Y31.955 Z-1.939
X33.839 Y31.982 Z-1.941
X33.795 Y32.005 Z-1.943
X33.75 Y32.025 Z-1.945
X33.703 Y32.041 Z-1.947
X33.656 Y32.053 Z-1.949
X33.607 Y32.061 Z-1.951
X33.559 Y32.066 Z-1.953
X33.51 Z-1.955
X33.462 Y32.063 Z-1.957
X33.414 Y32.056 Z-1.959
X33.367 Y32.045 Z-1.961
X33.321 Y32.031 Z-1.963
X33.276 Y32.013 Z-1.965
X33.234 Y31.992 Z-1.967
X33.193 Y31.968 Z-1.969
X33.154 Y31.94 Z-1.971
X33.118 Y31.91 Z-1.973
X33.084 Y31.877 Z-1.975
X33.053 Y31.841 Z-1.977
X33.026 Y31.804 Z-1.979
X33.001 Y31.764 Z-1.981
X32.979 Y31.723 Z-1.983
X32.961 Y31.68 Z-1.985
X32.947 Y31.636 Z-1.987
X32.936 Y31.592 Z-1.989
X32.928 Y31.546 Z-1.991
X32.925 Y31.501 Z-1.993
X32.924 Y31.455 Z-1.995
X32.928 Y31.41 Z-1.997
X32.935 Y31.365 Z-1.999
X32.945 Y31.321 Z-2.001
X32.959 Y31.279 Z-2.003
X32.976 Y31.237 Z-2.005
X32.996 Y31.197 Z-2.007
X33.019 Y31.16 Z-2.009
X33.045 Y31.124 Z-2.011
X33.074 Y31.09 Z-2.013
X33.105 Y31.059 Z-2.015
X33.138 Y31.031 Z-2.017
X33.174 Y31.005 Z-2.019
X33.211 Y30.982 Z-2.021
X33.249 Y30.963 Z-2.023
X33.289 Y30.946 Z-2.025
X33.33 Y30.933 Z-2.027
X33.372 Y30.923 Z-2.029
X33.414 Y30.917 Z-2.031
X33.457 Y30.914 Z-2.033
X33.499 Z-2.035
X33.541 Y30.917 Z-2.037
X33.583 Y30.924 Z-2.039
X33.623 Y30.934 Z-2.041
X33.663 Y30.947 Z-2.043
X33.701 Y30.964 Z-2.045
X33.738 Y30.983 Z-2.047
X33.773 Y31.005 Z-2.049
X33.806 Y31.029 Z-2.051
X33.837 Y31.056 Z-2.053
X33.866 Y31.085 Z-2.055
X33.892 Y31.116 Z-2.057
X33.915 Y31.149 Z-2.059
X33.936 Y31.184 Z-2.061
X33.954 Y31.22 Z-2.063
X33.969 Y31.257 Z-2.065
X33.98 Y31.295 Z-2.067
X33.989 Y31.334 Z-2.069
X33.995 Y31.373 Z-2.071
X33.997 Y31.412 Z-2.073
Y31.452 Z-2.075
X33.993 Y31.49 Z-2.077
X33.986 Y31.529 Z-2.079
X33.977 Y31.566 Z-2.081
X33.964 Y31.603 Z-2.083
X33.949 Y31.638 Z-2.085
X33.931 Y31.672 Z-2.087
X33.91 Y31.704 Z-2.089
X33.887 Y31.734 Z-2.091
X33.862 Y31.763 Z-2.093
X33.835 Y31.789 Z-2.095
X33.806 Y31.813 Z-2.097
X33.776 Y31.834 Z-2.099
X33.743 Y31.853 Z-2.101
X33.71 Y31.869 Z-2.103
X33.676 Y31.882 Z-2.105
X33.641 Y31.893 Z-2.107
X33.605 Y31.9 Z-2.109
X33.569 Y31.905 Z-2.111
X33.533 Y31.907 Z-2.114
X33.496 Y31.906 Z-2.116
X33.461 Y31.902 Z-2.118
X33.426 Y31.896 Z-2.12
X33.391 Y31.887 Z-2.122
X33.358 Y31.875 Z-2.124
X33.326 Y31.86 Z-2.126
X33.295 Y31.843 Z-2.128
X33.265 Y31.824 Z-2.13
X33.238 Y31.803 Z-2.132
X33.212 Y31.78 Z-2.134
X33.189 Y31.754 Z-2.136
X33.167 Y31.728 Z-2.138
X33.148 Y31.699 Z-2.14
X33.131 Y31.67 Z-2.142
X33.117 Y31.639 Z-2.144
X33.105 Y31.608 Z-2.146
X33.096 Y31.575 Z-2.148
X33.089 Y31.543 Z-2.15
X33.085 Y31.51 Z-2.152
X33.084 Y31.476 Z-2.154
X33.085 Y31.444 Z-2.156
X33.089 Y31.411 Z-2.158
X33.095 Y31.379 Z-2.16
X33.104 Y31.348 Z-2.162
X33.115 Y31.317 Z-2.164
X33.128 Y31.288 Z-2.166
X33.144 Y31.26 Z-2.168
X33.162 Y31.234 Z-2.17
X33.181 Y31.209 Z-2.172
X33.203 Y31.186 Z-2.174
X33.226 Y31.165 Z-2.176
X33.251 Y31.146 Z-2.178
X33.276 Y31.129 Z-2.18
X33.303 Y31.114 Z-2.182
X33.331 Y31.101 Z-2.184
X33.36 Y31.091 Z-2.186
X33.389 Y31.083 Z-2.188
X33.419 Y31.077 Z-2.19
X33.449 Y31.074 Z-2.192
X33.479 Y31.073 Z-2.194
X33.509 Y31.074 Z-2.196
X33.538 Y31.078 Z-2.198
X33.567 Y31.084 Z-2.2
X33.595 Y31.092 Z-2.202
X33.622 Y31.103 Z-2.204
X33.648 Y31.115 Z-2.206
X33.673 Y31.13 Z-2.208
X33.697 Y31.146 Z-2.21
X33.719 Y31.164 Z-2.212
X33.74 Y31.184 Z-2.214
X33.758 Y31.205 Z-2.216
X33.775 Y31.227 Z-2.218
X33.79 Y31.25 Z-2.22
X33.804 Y31.275 Z-2.222
X33.815 Y31.3 Z-2.224
X33.824 Y31.326 Z-2.226
X33.83 Y31.352 Z-2.228
X33.835 Y31.379 Z-2.23
X33.838 Y31.406 Z-2.232
Y31.433 Z-2.234
X33.836 Y31.459 Z-2.236
X33.833 Y31.486 Z-2.238
X33.827 Y31.511 Z-2.24
X33.819 Y31.536 Z-2.242
X33.809 Y31.56 Z-2.244
X33.798 Y31.583 Z-2.246
X33.785 Y31.605 Z-2.248
X33.77 Y31.626 Z-2.25
X33.754 Y31.646 Z-2.252
X33.736 Y31.664 Z-2.254
X33.717 Y31.68 Z-2.256
X33.697 Y31.695 Z-2.258
X33.676 Y31.708 Z-2.26
X33.654 Y31.719 Z-2.262
X33.632 Y31.729 Z-2.264
X33.609 Y31.736 Z-2.266
X33.585 Y31.742 Z-2.268
X33.561 Y31.746 Z-2.27
X33.538 Y31.748 Z-2.272
X33.514 Z-2.274
X33.491 Y31.746 Z-2.276
X33.468 Y31.742 Z-2.278
X33.445 Y31.736 Z-2.28
X33.423 Y31.729 Z-2.282
X33.402 Y31.72 Z-2.284
X33.382 Y31.71 Z-2.286
G17 G3 X33.619 Y31.19 I0.119 J-0.26
X33.382 Y31.71 I-0.119 J0.26
G1 X33.345 Y31.685
X33.317 Y31.65
X33.301 Y31.608
X33.299 Y31.564
X33.311 Y31.521
X33.394 Y31.339
G0 Z5.
X42.829 Y22.907
Z2.
G1 Z0.4 F1300.
G18 G2 X43.229 Z0. I0.4 K0.
G1 X43.429
X43.474 Y22.914
X43.513 Y22.934
X43.545 Y22.966
X43.565 Y23.006
X43.572 Y23.05
X43.562 Y23.252 Z-0.002
X43.536 Y23.453 Z-0.004
X43.495 Y23.651 Z-0.006
X43.438 Y23.845 Z-0.008
X43.366 Y24.034 Z-0.01
X43.279 Y24.216 Z-0.012
X43.178 Y24.391 Z-0.014
X43.064 Y24.557 Z-0.016
X42.938 Y24.714 Z-0.018
X42.799 Y24.86 Z-0.02
X42.65 Y24.994 Z-0.022
X42.49 Y25.116 Z-0.024
X42.322 Y25.226 Z-0.026
X42.146 Y25.321 Z-0.028
X41.962 Y25.403 Z-0.03
X41.774 Y25.469 Z-0.032
X41.58 Y25.52 Z-0.034
X41.384 Y25.556 Z-0.036
X41.185 Y25.577 Z-0.038
X40.985 Y25.581 Z-0.04
X40.786 Y25.57 Z-0.042
X40.588 Y25.544 Z-0.044
X40.394 Y25.502 Z-0.046
X40.203 Y25.444 Z-0.048
X40.018 Y25.372 Z-0.05
X39.839 Y25.286 Z-0.052
X39.668 Y25.186 Z-0.054
X39.505 Y25.072 Z-0.056
X39.351 Y24.947 Z-0.058
X39.209 Y24.809 Z-0.06
X39.077 Y24.662 Z-0.062
X38.958 Y24.504 Z-0.064
X38.851 Y24.337 Z-0.066
X38.758 Y24.163 Z-0.068
X38.68 Y23.982 Z-0.07
X38.615 Y23.796 Z-0.072
X38.566 Y23.605 Z-0.074
X38.532 Y23.412 Z-0.076
X38.513 Y23.216 Z-0.078
X38.509 Y23.019 Z-0.08
X38.522 Y22.824 Z-0.082
X38.549 Y22.629 Z-0.084
X38.592 Y22.438 Z-0.086
X38.649 Y22.251 Z-0.088
X38.721 Y22.069 Z-0.09
X38.808 Y21.893 Z-0.092
X38.907 Y21.725 Z-0.094
X39.02 Y21.566 Z-0.096
X39.144 Y21.416 Z-0.098
X39.28 Y21.276 Z-0.1
X39.426 Y21.147 Z-0.102
X39.582 Y21.031 Z-0.104
X39.747 Y20.927 Z-0.106
X39.919 Y20.837 Z-0.108
X40.097 Y20.76 Z-0.11
X40.281 Y20.698 Z-0.112
X40.469 Y20.651 Z-0.114
X40.66 Y20.618 Z-0.116
X40.852 Y20.601 Z-0.118
X41.046 Y20.599 Z-0.12
X41.238 Y20.612 Z-0.122
X41.429 Y20.64 Z-0.124
X41.617 Y20.684 Z-0.126
X41.801 Y20.741 Z-0.128
X41.98 Y20.814 Z-0.13
X42.152 Y20.899 Z-0.132
X42.317 Y20.998 Z-0.134
X42.473 Y21.11 Z-0.136
X42.62 Y21.233 Z-0.138
X42.756 Y21.368 Z-0.14
X42.882 Y21.513 Z-0.142
X42.995 Y21.667 Z-0.144
X43.096 Y21.829 Z-0.146
X43.184 Y21.999 Z-0.148
X43.258 Y22.175 Z-0.15
X43.318 Y22.356 Z-0.152
X43.364 Y22.541 Z-0.154
X43.395 Y22.729 Z-0.156
X43.41 Y22.919 Z-0.158
X43.411 Y23.109 Z-0.16
X43.397 Y23.299 Z-0.162
X43.368 Y23.486 Z-0.164
X43.324 Y23.671 Z-0.166
X43.266 Y23.851 Z-0.168
X43.195 Y24.026 Z-0.17
X43.109 Y24.195 Z-0.172
X43.011 Y24.357 Z-0.174
X42.9 Y24.51 Z-0.176
X42.777 Y24.653 Z-0.178
X42.644 Y24.787 Z-0.18
X42.501 Y24.909 Z-0.182
X42.349 Y25.02 Z-0.184
X42.189 Y25.118 Z-0.186
X42.021 Y25.204 Z-0.188
X41.848 Y25.276 Z-0.19
X41.669 Y25.333 Z-0.192
X41.487 Y25.377 Z-0.194
X41.302 Y25.406 Z-0.196
X41.115 Y25.42 Z-0.198
X40.928 Z-0.2
X40.742 Y25.405 Z-0.202
X40.558 Y25.375 Z-0.204
X40.376 Y25.331 Z-0.206
X40.199 Y25.273 Z-0.208
X40.027 Y25.201 Z-0.21
X39.862 Y25.116 Z-0.212
X39.704 Y25.018 Z-0.214
X39.554 Y24.909 Z-0.216
X39.414 Y24.787 Z-0.218
X39.283 Y24.656 Z-0.22
X39.163 Y24.514 Z-0.222
X39.056 Y24.364 Z-0.224
X38.96 Y24.205 Z-0.226
X38.877 Y24.04 Z-0.228
X38.807 Y23.869 Z-0.23
X38.752 Y23.693 Z-0.232
X38.71 Y23.514 Z-0.234
X38.683 Y23.332 Z-0.236
X38.67 Y23.148 Z-0.238
X38.671 Y22.964 Z-0.24
X38.687 Y22.781 Z-0.242
X38.717 Y22.6 Z-0.244
X38.762 Y22.422 Z-0.246
X38.82 Y22.249 Z-0.248
X38.892 Y22.08 Z-0.25
X38.976 Y21.918 Z-0.252
X39.074 Y21.763 Z-0.254
X39.182 Y21.617 Z-0.256
X39.302 Y21.479 Z-0.258
X39.433 Y21.352 Z-0.26
X39.573 Y21.235 Z-0.262
X39.721 Y21.13 Z-0.264
X39.877 Y21.037 Z-0.266
X40.04 Y20.957 Z-0.268
X40.209 Y20.889 Z-0.27
X40.382 Y20.836 Z-0.272
X40.559 Y20.796 Z-0.274
X40.738 Y20.77 Z-0.276
X40.918 Y20.758 Z-0.278
X41.099 Y20.761 Z-0.28
X41.279 Y20.778 Z-0.282
X41.456 Y20.809 Z-0.284
X41.631 Y20.854 Z-0.286
X41.801 Y20.912 Z-0.288
X41.966 Y20.983 Z-0.29
X42.125 Y21.068 Z-0.292
X42.277 Y21.164 Z-0.294
X42.42 Y21.272 Z-0.296
X42.554 Y21.391 Z-0.298
X42.679 Y21.52 Z-0.3
X42.792 Y21.658 Z-0.303
X42.895 Y21.804 Z-0.305
X42.985 Y21.958 Z-0.307
X43.063 Y22.119 Z-0.309
X43.128 Y22.285 Z-0.311
X43.18 Y22.455 Z-0.313
X43.218 Y22.629 Z-0.315
X43.242 Y22.805 Z-0.317
X43.253 Y22.983 Z-0.319
X43.249 Y23.16 Z-0.321
X43.231 Y23.337 Z-0.323
X43.2 Y23.511 Z-0.325
X43.155 Y23.682 Z-0.327
X43.096 Y23.849 Z-0.329
X43.025 Y24.011 Z-0.331
X42.941 Y24.167 Z-0.333
X42.846 Y24.315 Z-0.335
X42.739 Y24.455 Z-0.337
X42.621 Y24.586 Z-0.339
X42.494 Y24.708 Z-0.341
X42.358 Y24.818 Z-0.343
X42.213 Y24.918 Z-0.345
X42.061 Y25.006 Z-0.347
X41.903 Y25.082 Z-0.349
X41.739 Y25.145 Z-0.351
X41.572 Y25.194 Z-0.353
X41.401 Y25.231 Z-0.355
X41.227 Y25.253 Z-0.357
X41.053 Y25.262 Z-0.359
X40.879 Y25.258 Z-0.361
X40.706 Y25.239 Z-0.363
X40.535 Y25.207 Z-0.365
X40.367 Y25.162 Z-0.367
X40.203 Y25.103 Z-0.369
X40.045 Y25.032 Z-0.371
X39.892 Y24.949 Z-0.373
X39.747 Y24.854 Z-0.375
X39.61 Y24.749 Z-0.377
X39.482 Y24.632 Z-0.379
X39.364 Y24.506 Z-0.381
X39.256 Y24.372 Z-0.383
