%
(MAVERICK_DRAGON_TOOLHEAD)
(T3 D=4. CR=0. - ZMIN=-3.2 - FLAT END MILL)
(T12 D=5. CR=0. TAPER=45DEG - ZMIN=-2.326 - CHAMFER MILL)
(T18 D=4. CR=2. - ZMIN=-2.636 - BALL END MILL)
(T44 D=2.9 CR=0. TAPER=130DEG - ZMIN=-3.876 - DRILL)
(T45 D=3.2 CR=0. TAPER=165DEG - ZMIN=-3.711 - DRILL)
(T46 D=2.5 CR=0. TAPER=130DEG - ZMIN=-3.683 - DRILL)
G90 G94 G17 G91.1
G21
G53 G0 Z0.
(DRILL1)
T44 M600
S16465 M300
G17 G90 G94
G54
M7
G0 X94.943 Y23.343
G43 Z15. H44
G0 Z5.
Z2.
G1 Z-0.725 F494.
G0 Z-0.625
G1 Z-1.45 F494.
G0 Z-1.35
G1 Z-2.175 F494.
G0 Z-2.075
G1 Z-2.9 F494.
G0 Z-2.8
G1 Z-3.625 F494.
G0 Z-3.525
G1 Z-3.876 F494.
G0 Z5.
X106.257
Z2.
G1 Z-0.725 F494.
G0 Z-0.625
G1 Z-1.45 F494.
G0 Z-1.35
G1 Z-2.175 F494.
G0 Z-2.075
G1 Z-2.9 F494.
G0 Z-2.8
G1 Z-3.625 F494.
G0 Z-3.525
G1 Z-3.876 F494.
G0 Z5.
Y34.657
Z2.
G1 Z-0.725 F494.
G0 Z-0.625
G1 Z-1.45 F494.
G0 Z-1.35
G1 Z-2.175 F494.
G0 Z-2.075
G1 Z-2.9 F494.
G0 Z-2.8
G1 Z-3.625 F494.
G0 Z-3.525
G1 Z-3.876 F494.
G0 Z5.
X94.943
Z2.
G1 Z-0.725 F494.
G0 Z-0.625
G1 Z-1.45 F494.
G0 Z-1.35
G1 Z-2.175 F494.
G0 Z-2.075
G1 Z-2.9 F494.
G0 Z-2.8
G1 Z-3.625 F494.
G0 Z-3.525
G1 Z-3.876 F494.
G0 Z5.
Z15.
M9
M500
G53 G0 Z0.
(DRILL2)
M1
T45 M600
S14921 M300
G17 G90 G94
G54
G0 X11.5 Y13.
G43 Z15. H45
G0 Z5.
Z2.
G1 Z-0.8 F149.21
G0 Z-0.7
G1 Z-1.6 F149.21
G0 Z-1.5
G1 Z-2.4 F149.21
G0 Z-2.3
G1 Z-3.2 F149.21
G0 Z-3.1
G1 Z-3.711 F149.21
G0 Z5.
X43.5
Z2.
G1 Z-0.8 F149.21
G0 Z-0.7
G1 Z-1.6 F149.21
G0 Z-1.5
G1 Z-2.4 F149.21
G0 Z-2.3
G1 Z-3.2 F149.21
G0 Z-3.1
G1 Z-3.711 F149.21
G0 Z5.
X51.4 Y19.
Z2.
G1 Z-0.8 F149.21
G0 Z-0.7
G1 Z-1.6 F149.21
G0 Z-1.5
G1 Z-2.4 F149.21
G0 Z-2.3
G1 Z-3.2 F149.21
G0 Z-3.1
G1 Z-3.711 F149.21
G0 Z5.
X63.8 Y21.5
Z2.
G1 Z-0.8 F149.21
G0 Z-0.7
G1 Z-1.6 F149.21
G0 Z-1.5
G1 Z-2.4 F149.21
G0 Z-2.3
G1 Z-3.2 F149.21
G0 Z-3.1
G1 Z-3.711 F149.21
G0 Z5.
Y36.5
Z2.
G1 Z-0.8 F149.21
G0 Z-0.7
G1 Z-1.6 F149.21
G0 Z-1.5
G1 Z-2.4 F149.21
G0 Z-2.3
G1 Z-3.2 F149.21
G0 Z-3.1
G1 Z-3.711 F149.21
G0 Z5.
X51.4 Y39.
Z2.
G1 Z-0.8 F149.21
G0 Z-0.7
G1 Z-1.6 F149.21
G0 Z-1.5
G1 Z-2.4 F149.21
G0 Z-2.3
G1 Z-3.2 F149.21
G0 Z-3.1
G1 Z-3.711 F149.21
G0 Z5.
X43.5 Y45.
Z2.
G1 Z-0.8 F149.21
G0 Z-0.7
G1 Z-1.6 F149.21
G0 Z-1.5
G1 Z-2.4 F149.21
G0 Z-2.3
G1 Z-3.2 F149.21
G0 Z-3.1
G1 Z-3.711 F149.21
G0 Z5.
X11.5
Z2.
G1 Z-0.8 F149.21
G0 Z-0.7
G1 Z-1.6 F149.21
G0 Z-1.5
G1 Z-2.4 F149.21
G0 Z-2.3
G1 Z-3.2 F149.21
G0 Z-3.1
G1 Z-3.711 F149.21
G0 Z5.
X92.2 Y44.
Z2.
G1 Z-0.8 F149.21
G0 Z-0.7
G1 Z-1.6 F149.21
G0 Z-1.5
G1 Z-2.4 F149.21
G0 Z-2.3
G1 Z-3.2 F149.21
G0 Z-3.1
G1 Z-3.711 F149.21
G0 Z5.
X83.8 Y36.5
Z2.
G1 Z-0.8 F149.21
G0 Z-0.7
G1 Z-1.6 F149.21
G0 Z-1.5
G1 Z-2.4 F149.21
G0 Z-2.3
G1 Z-3.2 F149.21
G0 Z-3.1
G1 Z-3.711 F149.21
G0 Z5.
Y21.5
Z2.
G1 Z-0.8 F149.21
G0 Z-0.7
G1 Z-1.6 F149.21
G0 Z-1.5
G1 Z-2.4 F149.21
G0 Z-2.3
G1 Z-3.2 F149.21
G0 Z-3.1
G1 Z-3.711 F149.21
G0 Z5.
X92.2 Y14.
Z2.
G1 Z-0.8 F149.21
G0 Z-0.7
G1 Z-1.6 F149.21
G0 Z-1.5
G1 Z-2.4 F149.21
G0 Z-2.3
G1 Z-3.2 F149.21
G0 Z-3.1
G1 Z-3.711 F149.21
G0 Z5.
X100.6 Y29.
Z2.
G1 Z-0.8 F149.21
G0 Z-0.7
G1 Z-1.6 F149.21
G0 Z-1.5
G1 Z-2.4 F149.21
G0 Z-2.3
G1 Z-3.2 F149.21
G0 Z-3.1
G1 Z-3.711 F149.21
G0 Z5.
Z15.
M500
G53 G0 Z0.
(DRILL3)
M1
T46 M600
S19099 M300
G17 G90 G94
G54
M7
G0 X100.6 Y46.5
G43 Z15. H46
G0 Z5.
Z2.
G1 Z-0.625 F572.96
G0 Z-0.525
G1 Z-1.25 F572.96
G0 Z-1.15
G1 Z-1.875 F572.96
G0 Z-1.775
G1 Z-2.5 F572.96
G0 Z-2.4
G1 Z-3.125 F572.96
G0 Z-3.025
G1 Z-3.683 F572.96
G0 Z5.
Y9.5
Z2.
G1 Z-0.625 F572.96
G0 Z-0.525
G1 Z-1.25 F572.96
G0 Z-1.15
G1 Z-1.875 F572.96
G0 Z-1.775
G1 Z-2.5 F572.96
G0 Z-2.4
G1 Z-3.125 F572.96
G0 Z-3.025
G1 Z-3.683 F572.96
G0 Z5.
Z15.
M9
M500
G53 G0 Z0.
(BORE1)
M1
T3 M600
S24000 M300
G17 G90 G94
G54
G64 P0.01 Q0.01
G0 X100.6 Y29.
G43 Z15. H3
G0 Z2.1
G1 Z0.5 F1000.
X100.625 Y29.025
X100.618 Y29.043
X100.6 Y29.05
X100.573 Y29.042 Z0.474
X100.555 Y29.021 Z0.448
X100.55 Y28.994 Z0.422
X100.562 Y28.968 Z0.397
X100.585 Y28.952 Z0.371
X100.613 Z0.345
X100.637 Y28.966 Z0.319
X100.649 Y28.991 Z0.293
X100.646 Y29.019 Z0.267
X100.629 Y29.041 Z0.241
X100.602 Y29.05 Z0.215
X100.575 Y29.043 Z0.19
X100.556 Y29.023 Z0.164
X100.55 Y28.996 Z0.138
X100.56 Y28.97 Z0.112
X100.583 Y28.953 Z0.086
X100.611 Y28.951 Z0.06
X100.635 Y28.965 Z0.034
X100.649 Y28.989 Z0.008
X100.647 Y29.017 Z-0.017
X100.631 Y29.04 Z-0.043
X100.605 Y29.05 Z-0.069
X100.577 Y29.044 Z-0.095
X100.557 Y29.025 Z-0.121
X100.55 Y28.998 Z-0.147
X100.559 Y28.972 Z-0.173
X100.581 Y28.954 Z-0.199
X100.608 Y28.951 Z-0.224
X100.634 Y28.963 Z-0.25
X100.648 Y28.987 Z-0.276
Y29.015 Z-0.302
X100.632 Y29.038 Z-0.328
X100.607 Y29.05 Z-0.354
X100.579 Y29.045 Z-0.38
X100.558 Y29.027 Z-0.406
X100.55 Y29. Z-0.431
X100.558 Y28.973 Z-0.457
X100.579 Y28.955 Z-0.483
X100.606 Y28.95 Z-0.509
X100.632 Y28.961 Z-0.535
X100.648 Y28.985 Z-0.561
Y29.013 Z-0.587
X100.634 Y29.037 Z-0.613
X100.609 Y29.049 Z-0.638
X100.581 Y29.046 Z-0.664
X100.559 Y29.029 Z-0.69
X100.55 Y29.003 Z-0.716
X100.556 Y28.975 Z-0.742
X100.577 Y28.956 Z-0.768
X100.604 Y28.95 Z-0.794
X100.63 Y28.96 Z-0.82
X100.647 Y28.982 Z-0.845
X100.649 Y29.01 Z-0.871
X100.636 Y29.035 Z-0.897
X100.611 Y29.049 Z-0.923
X100.583 Y29.047 Z-0.949
X100.561 Y29.031 Z-0.975
X100.55 Y29.005 Z-1.001
X100.555 Y28.977 Z-1.027
X100.575 Y28.957 Z-1.052
X100.602 Y28.95 Z-1.078
X100.628 Y28.959 Z-1.104
X100.646 Y28.98 Z-1.13
X100.649 Y29.008 Z-1.156
X100.637 Y29.033 Z-1.182
X100.614 Y29.048 Z-1.208
X100.586 Z-1.234
X100.562 Y29.033 Z-1.259
X100.551 Y29.007 Z-1.285
X100.554 Y28.979 Z-1.311
X100.573 Y28.958 Z-1.337
X100.599 Y28.95 Z-1.363
X100.626 Y28.957 Z-1.389
X100.645 Y28.978 Z-1.415
X100.65 Y29.006 Z-1.441
X100.639 Y29.032 Z-1.466
X100.616 Y29.047 Z-1.492
X100.588 Y29.048 Z-1.518
X100.564 Y29.034 Z-1.544
X100.551 Y29.009 Z-1.57
X100.554 Y28.982 Z-1.596
X100.571 Y28.959 Z-1.622
X100.597 Y28.95 Z-1.648
X100.624 Y28.956 Z-1.673
X100.644 Y28.976 Z-1.699
X100.65 Y29.004 Z-1.725
X100.64 Y29.03 Z-1.751
X100.618 Y29.047 Z-1.777
X100.59 Y29.049 Z-1.803
X100.565 Y29.036 Z-1.829
X100.551 Y29.012 Z-1.855
X100.553 Y28.984 Z-1.88
X100.569 Y28.961 Z-1.906
X100.595 Y28.95 Z-1.932
X100.622 Y28.955 Z-1.958
X100.643 Y28.974 Z-1.984
X100.65 Y29.001 Z-2.01
X100.641 Y29.028 Z-2.036
X100.62 Y29.046 Z-2.062
X100.592 Y29.049 Z-2.087
X100.567 Y29.037 Z-2.113
X100.552 Y29.014 Z-2.139
Y28.986 Z-2.165
X100.567 Y28.962 Z-2.191
X100.592 Y28.951 Z-2.217
X100.62 Y28.954 Z-2.243
X100.642 Y28.972 Z-2.269
X100.65 Y28.999 Z-2.294
X100.643 Y29.026 Z-2.32
X100.622 Y29.045 Z-2.346
X100.595 Y29.05 Z-2.372
X100.569 Y29.039 Z-2.398
X100.553 Y29.016 Z-2.424
X100.551 Y28.988 Z-2.45
X100.565 Y28.964 Z-2.476
X100.59 Y28.951 Z-2.501
X100.618 Y28.953 Z-2.527
X100.64 Y28.97 Z-2.553
X100.65 Y28.997 Z-2.579
X100.644 Y29.024 Z-2.605
X100.624 Y29.044 Z-2.631
X100.597 Y29.05 Z-2.657
X100.57 Y29.04 Z-2.683
X100.553 Y29.018 Z-2.708
X100.551 Y28.99 Z-2.734
X100.564 Y28.965 Z-2.76
X100.588 Y28.951 Z-2.786
X100.616 Y28.953 Z-2.812
X100.639 Y28.969 Z-2.838
X100.65 Y28.994 Z-2.864
X100.645 Y29.022 Z-2.89
X100.626 Y29.043 Z-2.915
X100.599 Y29.05 Z-2.941
X100.572 Y29.042 Z-2.967
X100.554 Y29.02 Z-2.993
X100.551 Y28.993 Z-3.019
X100.562 Y28.967 Z-3.045
X100.586 Y28.952 Z-3.071
X100.614 Z-3.097
X100.637 Y28.967 Z-3.122
X100.649 Y28.992 Z-3.148
X100.646 Y29.02 Z-3.174
X100.628 Y29.041 Z-3.2
G3 X100.572 Y28.959 I-0.028 J-0.041
X100.628 Y29.041 I0.028 J0.041
G1 X100.609 Y29.045
X100.593 Y29.035
X100.6 Y29.
G0 Z15.
(2D ADAPTIVE1)
G64 P0.1 Q0.1
G0 X25.536 Y28.857
Z12.
Z2.51
Z2.5
G3 X28.312 Y27.205 Z2.368 I1.964 J0.142 F333.33
X28.904 Y30.377 Z2.235 I-0.81 J1.792
X25.726 Y29.839 Z2.103 I-1.401 J-1.378
X27.326 Y27.046 Z1.971 I1.774 J-0.838
X29.393 Y29.508 Z1.839 I0.174 J1.952
X26.372 Y30.597 Z1.706 I-1.89 J-0.51
X26.393 Y27.39 Z1.574 I1.129 J-1.596
X29.392 Y28.515 Z1.442 I1.107 J1.609
X27.304 Y30.939 Z1.31 I-1.89 J0.483
X25.751 Y28.145 Z1.177 I0.198 J-1.938
X28.905 Y27.653 Z1.045 I1.749 J0.854
X28.28 Y30.779 Z0.913 I-1.404 J1.345
X25.564 Y29.115 Z0.781 I-0.777 J-1.779
X28.061 Y27.143 Z0.648 I1.936 J-0.115
X29.049 Y30.163 Z0.516 I-0.559 J1.854
X25.877 Y30.048 Z0.384 I-1.546 J-1.164
X27.078 Y27.115 Z0.252 I1.624 J-1.048
X29.414 Y29.251 Z0.119 I0.423 J1.883
X26.606 Y30.705 Z-0.013 I-1.911 J-0.253
X26.211 Y27.571 Z-0.145 I0.896 J-1.704
X29.285 Y28.282 Z-0.277 I1.289 J1.427
X27.559 Y30.918 Z-0.41 I-1.782 J0.716
X25.683 Y28.392 Z-0.542 I-0.057 J-1.918
X28.698 Y27.503 Z-0.674 I1.817 J0.608
X28.491 Y30.636 Z-0.806 I-1.196 J1.494
X25.626 Y29.363 Z-0.939 I-0.988 J-1.636
X27.807 Y27.115 Z-1.071 I1.875 J-0.363
X29.162 Y29.935 Z-1.203 I-0.306 J1.882
X26.052 Y30.233 Z-1.335 I-1.659 J-0.936
X26.845 Y27.215 Z-1.468 I1.449 J-1.232
X29.4 Y28.998 Z-1.6 I0.656 J1.783
X25.6 I-1.9 J0.
X29.4 I1.9 J0.
G1 X29.417 Y29.756 F1000.
X29.437 Y29.848
X29.451 Y29.997
X29.442 Y30.147
X29.412 Y30.294
X29.365 Y30.437
X29.303 Y30.573
X29.229 Y30.704
X29.143 Y30.826
X29.046 Y30.941
X28.941 Y31.048
X28.828 Y31.147
X28.708 Y31.236
X28.581 Y31.317
X28.45 Y31.389
X28.313 Y31.451
X28.173 Y31.504
X28.029 Y31.548
X27.882 Y31.583
X27.732 Y31.609
X27.578 Y31.625
X27.421 Y31.631
X27.263 Y31.627
X27.104 Y31.613
X26.945 Y31.589
X26.787 Y31.554
X26.63 Y31.509
X26.476 Y31.454
X26.324 Y31.388
X26.177 Y31.313
X26.034 Y31.228
X25.896 Y31.134
X25.764 Y31.03
X25.639 Y30.918
X25.521 Y30.799
X25.41 Y30.671
X25.307 Y30.536
X25.214 Y30.395
X25.129 Y30.248
X25.054 Y30.096
X24.988 Y29.938
X24.933 Y29.777
X24.888 Y29.612
X24.854 Y29.445
X24.83 Y29.276
X24.818 Y29.105
X24.816 Y28.934
X24.825 Y28.763
X24.845 Y28.593
X24.876 Y28.424
X24.918 Y28.258
X24.97 Y28.094
X25.033 Y27.935
X25.106 Y27.779
X25.188 Y27.629
X25.281 Y27.484
X25.382 Y27.345
X25.492 Y27.213
X25.61 Y27.088
X25.736 Y26.971
X25.869 Y26.862
X26.009 Y26.762
X26.155 Y26.671
X26.306 Y26.59
X26.463 Y26.518
X26.624 Y26.457
X26.788 Y26.406
X26.955 Y26.366
X27.125 Y26.336
X27.296 Y26.318
X27.467 Y26.31
X27.64 Y26.314
X27.811 Y26.328
X27.981 Y26.353
X28.149 Y26.389
X28.315 Y26.436
X28.477 Y26.494
X28.635 Y26.561
X28.789 Y26.639
X28.937 Y26.726
X29.08 Y26.823
X29.216 Y26.928
X29.345 Y27.042
X29.466 Y27.164
X29.579 Y27.294
X29.684 Y27.43
X29.78 Y27.573
X29.867 Y27.723
X29.958 Y27.906
X30.068 Y28.167
X30.189 Y28.515
X30.264 Y28.786
X30.313 Y29.02
X30.344 Y29.234
X30.36 Y29.44
X30.363 Y29.638
X30.354 Y29.825
X30.333 Y30.005
X30.302 Y30.183
X30.258 Y30.358
X30.205 Y30.528
X30.14 Y30.694
X30.066 Y30.854
X29.982 Y31.009
X29.886 Y31.161
X29.781 Y31.307
X29.664 Y31.448
X29.538 Y31.583
X29.402 Y31.71
X29.257 Y31.83
X29.103 Y31.941
X28.94 Y32.043
X28.77 Y32.136
X28.592 Y32.218
X28.407 Y32.289
X28.216 Y32.349
X28.02 Y32.397
X27.82 Y32.433
X27.616 Y32.456
X27.409 Y32.466
X27.2 Y32.463
X26.99 Y32.447
X26.78 Y32.416
X26.571 Y32.372
X26.364 Y32.315
X26.16 Y32.244
X25.96 Y32.159
X25.765 Y32.062
X25.576 Y31.952
X25.394 Y31.829
X25.219 Y31.695
X25.053 Y31.549
X24.896 Y31.392
X24.748 Y31.225
X24.612 Y31.049
X24.487 Y30.864
X24.373 Y30.671
X24.272 Y30.471
X24.184 Y30.264
X24.109 Y30.052
X24.048 Y29.835
X24.001 Y29.614
X23.968 Y29.391
X23.949 Y29.166
X23.945 Y28.939
X23.955 Y28.713
X23.98 Y28.488
X24.019 Y28.265
X24.072 Y28.044
X24.139 Y27.827
X24.221 Y27.615
X24.315 Y27.409
X24.423 Y27.208
X24.543 Y27.015
X24.676 Y26.83
X24.82 Y26.654
X24.975 Y26.488
X25.14 Y26.331
X25.315 Y26.186
X25.499 Y26.052
X25.692 Y25.93
X25.891 Y25.82
X26.098 Y25.724
X26.31 Y25.641
X26.527 Y25.572
X26.748 Y25.516
X26.972 Y25.475
X27.199 Y25.449
X27.426 Y25.436
X27.654 Y25.439
X27.882 Y25.456
X28.107 Y25.488
X28.331 Y25.534
X28.551 Y25.594
X28.766 Y25.668
X28.977 Y25.756
X29.181 Y25.857
X29.379 Y25.971
X29.568 Y26.097
X29.75 Y26.235
X29.926 Y26.388
X30.096 Y26.557
X30.262 Y26.743
X30.434 Y26.963
X30.598 Y27.202
X30.746 Y27.452
X30.877 Y27.71
X30.99 Y27.972
X31.084 Y28.236
X31.16 Y28.5
X31.218 Y28.763
X31.258 Y29.024
X31.28 Y29.283
X31.286 Y29.539
X31.276 Y29.791
X31.25 Y30.039
X31.208 Y30.283
X31.152 Y30.521
X31.08 Y30.754
X30.994 Y30.982
X30.894 Y31.204
X30.78 Y31.419
X30.651 Y31.626
X30.51 Y31.825
X30.356 Y32.016
X30.189 Y32.197
X30.01 Y32.368
X29.819 Y32.528
X29.617 Y32.676
X29.406 Y32.811
X29.184 Y32.934
X28.953 Y33.043
X28.715 Y33.137
X28.469 Y33.217
X28.217 Y33.281
X27.959 Y33.33
X27.698 Y33.362
X27.433 Y33.377
X27.166 Y33.375
X26.899 Y33.356
X26.632 Y33.32
X26.366 Y33.266
X26.103 Y33.196
X25.844 Y33.108
X25.59 Y33.003
X25.342 Y32.882
X25.102 Y32.745
X24.87 Y32.592
X24.648 Y32.424
X24.436 Y32.242
X24.236 Y32.046
X24.048 Y31.837
X23.874 Y31.616
X23.714 Y31.384
X23.569 Y31.141
X23.439 Y30.889
X23.326 Y30.63
X23.229 Y30.363
X23.149 Y30.09
X23.087 Y29.812
X23.043 Y29.53
X23.017 Y29.246
X23.009 Y28.961
X23.02 Y28.675
X23.048 Y28.39
X23.095 Y28.108
X23.16 Y27.829
X23.243 Y27.554
X23.343 Y27.286
X23.46 Y27.024
X23.594 Y26.77
X23.744 Y26.525
X23.909 Y26.29
X24.089 Y26.066
X24.283 Y25.854
X24.49 Y25.654
X24.71 Y25.469
X24.941 Y25.297
X25.182 Y25.141
X25.433 Y25.001
X25.693 Y24.877
X25.96 Y24.769
X26.234 Y24.679
X26.512 Y24.607
X26.795 Y24.553
X27.081 Y24.517
X27.368 Y24.499
X27.656 Y24.5
X27.944 Y24.519
X28.229 Y24.556
X28.512 Y24.612
X28.79 Y24.685
X29.064 Y24.777
X29.331 Y24.886
X29.593 Y25.012
X29.848 Y25.157
X30.099 Y25.32
X30.343 Y25.503
X30.579 Y25.705
X30.809 Y25.927
X31.027 Y26.169
X31.233 Y26.427
X31.422 Y26.7
X31.595 Y26.985
X31.749 Y27.28
X31.883 Y27.583
X31.996 Y27.893
X32.089 Y28.207
X32.162 Y28.524
X32.213 Y28.842
X32.243 Y29.16
X32.254 Y29.477
X32.243 Y29.792
X32.213 Y30.103
X32.164 Y30.41
X32.095 Y30.712
X32.007 Y31.008
X31.901 Y31.298
X31.776 Y31.58
X31.634 Y31.853
X31.474 Y32.116
X31.298 Y32.369
X31.105 Y32.611
X30.897 Y32.841
X30.674 Y33.057
X30.437 Y33.26
X30.186 Y33.447
X29.923 Y33.619
X29.648 Y33.774
X29.362 Y33.912
X29.067 Y34.032
X28.763 Y34.134
X28.451 Y34.216
X28.134 Y34.278
X27.811 Y34.321
X27.485 Y34.342
X27.157 Y34.343
X26.828 Y34.322
X26.499 Y34.281
X26.173 Y34.218
X25.85 Y34.134
X25.532 Y34.029
X25.22 Y33.904
X24.915 Y33.758
X24.62 Y33.593
X24.335 Y33.409
X24.062 Y33.206
X23.801 Y32.986
X23.555 Y32.748
X23.324 Y32.495
X23.109 Y32.228
X22.911 Y31.946
X22.731 Y31.652
X22.571 Y31.346
X22.429 Y31.031
X22.309 Y30.706
X22.209 Y30.374
X22.13 Y30.036
X22.073 Y29.693
X22.039 Y29.347
X22.026 Y28.999
X22.036 Y28.651
X22.068 Y28.304
X22.122 Y27.959
X22.198 Y27.618
X22.296 Y27.283
X22.415 Y26.954
X22.555 Y26.634
X22.715 Y26.323
X22.895 Y26.023
X23.094 Y25.735
X23.311 Y25.46
X23.545 Y25.199
X23.796 Y24.954
X24.062 Y24.725
X24.341 Y24.514
X24.634 Y24.321
X24.939 Y24.147
X25.254 Y23.993
X25.578 Y23.86
X25.911 Y23.747
X26.25 Y23.656
X26.594 Y23.587
X26.942 Y23.54
X27.292 Y23.515
X27.643 Y23.513
X27.993 Y23.533
X28.342 Y23.576
X28.688 Y23.641
X29.029 Y23.728
X29.367 Y23.838
X29.699 Y23.97
X30.025 Y24.124
X30.344 Y24.301
X30.656 Y24.5
X30.958 Y24.722
X31.248 Y24.966
X31.524 Y25.229
X31.785 Y25.512
X32.029 Y25.813
X32.254 Y26.131
X32.458 Y26.462
X32.642 Y26.807
X32.802 Y27.162
X32.939 Y27.525
X33.052 Y27.896
X33.141 Y28.271
X33.206 Y28.65
X33.246 Y29.03
X33.261 Y29.41
X33.252 Y29.789
X33.219 Y30.166
X33.162 Y30.538
X33.082 Y30.905
X32.978 Y31.266
X32.852 Y31.618
X32.704 Y31.962
X32.534 Y32.295
X32.343 Y32.617
X32.131 Y32.926
X31.9 Y33.222
X31.65 Y33.503
X31.382 Y33.767
X31.097 Y34.015
X30.796 Y34.244
X30.479 Y34.454
X30.149 Y34.645
X29.807 Y34.814
X29.452 Y34.962
X29.088 Y35.087
X28.715 Y35.189
X28.335 Y35.267
X27.949 Y35.321
X27.559 Y35.35
X27.167 Y35.354
X26.773 Y35.333
X26.381 Y35.287
X25.991 Y35.215
X25.605 Y35.119
X25.225 Y34.997
X24.852 Y34.851
X24.488 Y34.681
X24.135 Y34.487
X23.794 Y34.271
X23.467 Y34.033
X23.155 Y33.773
X22.86 Y33.494
X22.582 Y33.196
X22.324 Y32.88
X22.086 Y32.547
X21.87 Y32.199
X21.676 Y31.838
X21.505 Y31.465
X21.358 Y31.081
X21.236 Y30.687
X21.139 Y30.287
X21.068 Y29.88
X21.023 Y29.47
X21.005 Y29.057
X21.013 Y28.644
X21.047 Y28.231
X21.108 Y27.821
X21.195 Y27.416
X21.308 Y27.017
X21.446 Y26.626
X21.609 Y26.244
X21.796 Y25.874
X22.006 Y25.516
X22.239 Y25.172
X22.494 Y24.843
X22.769 Y24.532
X23.063 Y24.238
X23.376 Y23.964
X23.706 Y23.711
X24.052 Y23.479
X24.411 Y23.269
X24.784 Y23.083
X25.167 Y22.922
X25.56 Y22.785
X25.962 Y22.673
X26.369 Y22.588
X26.781 Y22.528
X27.196 Y22.495
X27.613 Y22.489
X28.03 Y22.51
X28.445 Y22.557
X28.857 Y22.631
X29.266 Y22.731
X29.67 Y22.858
X30.067 Y23.012
X30.457 Y23.192
X30.838 Y23.399
X31.208 Y23.632
X31.565 Y23.889
X31.907 Y24.171
X32.233 Y24.477
X32.54 Y24.804
X32.827 Y25.152
X33.091 Y25.518
X33.332 Y25.901
X33.548 Y26.3
X33.739 Y26.71
X33.902 Y27.132
X34.037 Y27.563
X34.145 Y28.
X34.224 Y28.442
X34.275 Y28.887
X34.297 Y29.333
X34.29 Y29.779
X34.255 Y30.222
X34.192 Y30.661
X34.101 Y31.095
X33.983 Y31.521
X33.837 Y31.938
X33.666 Y32.345
X33.469 Y32.74
X33.247 Y33.122
X33. Y33.489
X32.731 Y33.839
X32.439 Y34.173
X32.126 Y34.487
X31.793 Y34.782
X31.441 Y35.055
X31.071 Y35.305
X30.685 Y35.532
X30.284 Y35.735
X29.87 Y35.911
X29.444 Y36.062
X29.008 Y36.185
X28.563 Y36.28
X28.112 Y36.347
X27.656 Y36.385
X27.198 Y36.394
X26.738 Y36.374
X26.279 Y36.324
X25.823 Y36.244
X25.372 Y36.135
X24.927 Y35.997
X24.491 Y35.831
X24.065 Y35.636
X23.652 Y35.414
X23.253 Y35.166
X22.87 Y34.892
X22.504 Y34.593
X22.158 Y34.271
X21.832 Y33.927
X21.529 Y33.562
X21.249 Y33.178
X20.994 Y32.776
X20.764 Y32.358
X20.562 Y31.925
X20.388 Y31.481
X20.242 Y31.025
X20.125 Y30.56
X20.039 Y30.089
X19.983 Y29.612
X19.957 Y29.133
X19.962 Y28.652
X19.998 Y28.173
X20.064 Y27.696
X20.161 Y27.225
X20.288 Y26.76
X20.444 Y26.304
X20.63 Y25.859
X20.843 Y25.427
X21.084 Y25.009
X21.351 Y24.607
X21.644 Y24.223
X21.96 Y23.859
X22.299 Y23.515
X22.66 Y23.193
X23.041 Y22.896
X23.439 Y22.623
X23.855 Y22.376
X24.286 Y22.156
X24.729 Y21.965
X25.185 Y21.802
X25.65 Y21.668
X26.122 Y21.564
X26.6 Y21.491
X27.083 Y21.449
X27.567 Y21.437
X28.052 Y21.457
X28.536 Y21.508
X29.018 Y21.59
X29.495 Y21.703
X29.967 Y21.847
X30.431 Y22.022
X30.885 Y22.227
X31.329 Y22.463
X31.758 Y22.728
X32.173 Y23.021
X32.569 Y23.342
X32.946 Y23.69
X33.302 Y24.062
X33.633 Y24.458
X33.94 Y24.874
X34.22 Y25.311
X34.471 Y25.764
X34.693 Y26.233
X34.884 Y26.714
X35.044 Y27.207
X35.172 Y27.708
X35.267 Y28.215
X35.33 Y28.727
X35.359 Y29.24
X35.356 Y29.754
X35.32 Y30.265
X35.252 Y30.773
X35.151 Y31.274
X35.019 Y31.768
X34.855 Y32.252
X34.661 Y32.724
X34.437 Y33.182
X34.184 Y33.626
X33.903 Y34.052
X33.595 Y34.461
X33.261 Y34.849
X32.902 Y35.215
X32.521 Y35.558
X32.117 Y35.877
X31.693 Y36.17
X31.25 Y36.435
X30.79 Y36.672
X30.315 Y36.88
X29.826 Y37.058
X29.325 Y37.204
X28.815 Y37.318
X28.297 Y37.399
X27.774 Y37.448
X27.247 Y37.463
X26.719 Y37.443
X26.192 Y37.391
X25.669 Y37.304
X25.15 Y37.184
X24.639 Y37.03
X24.138 Y36.843
X23.649 Y36.625
X23.173 Y36.375
X22.714 Y36.094
X22.273 Y35.784
X21.851 Y35.446
X21.452 Y35.081
X21.076 Y34.691
X20.725 Y34.276
X20.401 Y33.84
X20.105 Y33.383
X19.839 Y32.907
X19.603 Y32.415
X19.399 Y31.908
X19.228 Y31.388
X19.09 Y30.858
X18.987 Y30.32
X18.918 Y29.776
X18.884 Y29.229
X18.885 Y28.679
X18.921 Y28.131
X18.992 Y27.586
X19.098 Y27.046
X19.239 Y26.514
X19.413 Y25.992
X19.62 Y25.481
X19.86 Y24.985
X20.131 Y24.505
X20.432 Y24.044
X20.762 Y23.602
X21.12 Y23.182
X21.505 Y22.786
X21.913 Y22.415
X22.345 Y22.071
X22.798 Y21.756
X23.27 Y21.47
X23.76 Y21.214
X24.265 Y20.991
X24.784 Y20.8
X25.313 Y20.643
X25.852 Y20.52
X26.398 Y20.432
X26.949 Y20.379
X27.503 Y20.361
X28.058 Y20.378
X28.612 Y20.431
X29.163 Y20.52
X29.71 Y20.645
X30.249 Y20.804
X30.78 Y20.999
X31.3 Y21.229
X31.806 Y21.492
X32.297 Y21.789
X32.77 Y22.118
X33.223 Y22.479
X33.654 Y22.869
X34.06 Y23.287
X34.439 Y23.731
X34.79 Y24.199
X35.111 Y24.69
X35.399 Y25.201
X35.655 Y25.729
X35.876 Y26.272
X36.062 Y26.828
X36.212 Y27.395
X36.325 Y27.969
X36.401 Y28.548
X36.44 Y29.131
X36.441 Y29.714
X36.405 Y30.295
X36.333 Y30.872
X36.223 Y31.443
X36.077 Y32.005
X35.896 Y32.556
X35.68 Y33.095
X35.43 Y33.618
X35.147 Y34.125
X34.832 Y34.612
X34.486 Y35.079
X34.11 Y35.523
X33.707 Y35.943
X33.277 Y36.336
X32.822 Y36.702
X32.343 Y37.039
X31.843 Y37.344
X31.324 Y37.618
X30.787 Y37.858
X30.235 Y38.064
X29.669 Y38.235
X29.092 Y38.369
X28.507 Y38.466
X27.915 Y38.526
X27.319 Y38.548
X26.722 Y38.531
X26.125 Y38.477
X25.532 Y38.384
X24.945 Y38.253
X24.366 Y38.084
X23.799 Y37.879
X23.244 Y37.637
X22.705 Y37.359
X22.183 Y37.047
X21.682 Y36.701
X21.204 Y36.324
X20.749 Y35.916
X20.321 Y35.479
X19.922 Y35.015
X19.552 Y34.526
X19.214 Y34.014
X18.909 Y33.48
X18.639 Y32.927
X18.404 Y32.358
X18.206 Y31.774
X18.046 Y31.178
X17.924 Y30.573
X17.841 Y29.961
X17.797 Y29.344
X17.793 Y28.725
X17.828 Y28.107
X17.903 Y27.492
X18.017 Y26.883
X18.17 Y26.282
X18.361 Y25.692
X18.59 Y25.115
X18.855 Y24.554
X19.156 Y24.01
X19.49 Y23.487
X19.858 Y22.986
X20.257 Y22.51
X20.686 Y22.06
X21.143 Y21.639
X21.626 Y21.247
X22.133 Y20.887
X22.662 Y20.56
X23.212 Y20.268
X23.778 Y20.011
X24.36 Y19.791
X24.956 Y19.609
X25.562 Y19.465
X26.176 Y19.36
X26.796 Y19.295
X27.42 Y19.269
X28.046 Y19.284
X28.671 Y19.338
X29.293 Y19.433
X29.909 Y19.568
X30.518 Y19.742
X31.117 Y19.956
X31.703 Y20.209
X32.274 Y20.5
X32.827 Y20.828
X33.361 Y21.192
X33.871 Y21.591
X34.357 Y22.024
X34.815 Y22.487
X35.244 Y22.981
X35.641 Y23.501
X36.004 Y24.047
X36.332 Y24.615
X36.623 Y25.203
X36.875 Y25.808
X37.089 Y26.429
X37.262 Y27.061
X37.394 Y27.702
X37.485 Y28.351
X37.534 Y29.003
X37.541 Y29.656
X37.507 Y30.308
X37.431 Y30.955
X37.313 Y31.596
X37.155 Y32.228
X36.957 Y32.848
X36.72 Y33.454
X36.445 Y34.044
X36.132 Y34.615
X35.783 Y35.165
X35.4 Y35.692
X34.983 Y36.193
X34.535 Y36.668
X34.057 Y37.113
X33.55 Y37.527
X33.017 Y37.909
X32.46 Y38.256
X31.881 Y38.568
X31.283 Y38.842
X30.666 Y39.078
X30.035 Y39.274
X29.391 Y39.43
X28.737 Y39.545
X28.076 Y39.617
X27.41 Y39.647
X26.742 Y39.635
X26.076 Y39.58
X25.412 Y39.482
X24.755 Y39.341
X24.107 Y39.158
X23.471 Y38.934
X22.85 Y38.669
X22.246 Y38.365
X21.661 Y38.022
X21.099 Y37.641
X20.561 Y37.225
X20.051 Y36.774
X19.569 Y36.291
X19.119 Y35.778
X18.702 Y35.236
X18.321 Y34.668
X17.976 Y34.076
X17.669 Y33.463
X17.402 Y32.831
X17.176 Y32.182
X16.991 Y31.52
X16.849 Y30.847
X16.751 Y30.165
X16.696 Y29.478
X16.685 Y28.789
X16.719 Y28.1
X16.796 Y27.414
X16.918 Y26.735
X17.082 Y26.064
X17.29 Y25.405
X17.539 Y24.76
X17.829 Y24.132
X18.158 Y23.524
X18.526 Y22.938
X18.931 Y22.377
X19.371 Y21.843
X19.844 Y21.337
X20.349 Y20.863
X20.883 Y20.423
X21.444 Y20.017
X22.031 Y19.648
X22.639 Y19.317
X23.268 Y19.026
X23.915 Y18.775
X24.576 Y18.566
X25.25 Y18.4
X25.933 Y18.277
X26.624 Y18.198
X27.319 Y18.164
X28.016 Y18.174
X28.713 Y18.229
X29.406 Y18.328
X30.094 Y18.472
X30.773 Y18.66
X31.44 Y18.892
X32.094 Y19.168
X32.731 Y19.485
X33.349 Y19.844
X33.944 Y20.243
X34.514 Y20.681
X35.056 Y21.155
X35.568 Y21.664
X36.048 Y22.206
X36.492 Y22.779
X36.899 Y23.379
X37.268 Y24.005
X37.595 Y24.653
X37.881 Y25.322
X38.123 Y26.006
X38.321 Y26.705
X38.474 Y27.415
X38.581 Y28.132
X38.641 Y28.855
X38.656 Y29.579
X38.624 Y30.303
X38.546 Y31.022
X38.422 Y31.734
X38.253 Y32.437
X38.039 Y33.127
X37.781 Y33.802
X37.481 Y34.459
X37.14 Y35.096
X36.758 Y35.71
X36.338 Y36.298
X35.88 Y36.859
X35.387 Y37.39
X34.861 Y37.888
X34.303 Y38.353
X33.716 Y38.781
X33.101 Y39.171
X32.463 Y39.522
X31.801 Y39.832
X31.121 Y40.099
X30.423 Y40.323
X29.712 Y40.502
X28.989 Y40.635
X28.257 Y40.721
X27.521 Y40.761
X26.781 Y40.754
X26.043 Y40.699
X25.308 Y40.597
X24.58 Y40.448
X23.862 Y40.252
X23.157 Y40.01
X22.467 Y39.724
X21.796 Y39.393
X21.147 Y39.019
X20.522 Y38.604
X19.924 Y38.149
X19.356 Y37.656
X18.82 Y37.128
X18.318 Y36.565
X17.852 Y35.971
X17.425 Y35.347
X17.039 Y34.697
X16.694 Y34.022
X16.393 Y33.327
X16.137 Y32.614
X15.928 Y31.886
X15.765 Y31.146
X15.65 Y30.397
X15.583 Y29.642
X15.564 Y28.885
X15.593 Y28.128
X15.67 Y27.374
X15.795 Y26.627
X15.968 Y25.889
X16.187 Y25.164
X16.451 Y24.454
X16.76 Y23.762
X17.113 Y23.091
X17.507 Y22.444
X17.942 Y21.824
X18.415 Y21.232
X18.925 Y20.671
X19.469 Y20.144
X20.045 Y19.653
X20.652 Y19.199
X21.286 Y18.784
X21.946 Y18.411
X22.627 Y18.08
X23.328 Y17.793
X24.046 Y17.551
X24.778 Y17.355
X25.521 Y17.205
X26.272 Y17.103
X27.027 Y17.049
X27.785 Y17.043
X28.542 Y17.084
X29.294 Y17.173
X30.039 Y17.309
X30.775 Y17.491
X31.497 Y17.719
X32.204 Y17.991
X32.893 Y18.307
X33.561 Y18.665
X34.206 Y19.063
X34.825 Y19.5
X35.415 Y19.975
X35.976 Y20.484
X36.505 Y21.027
X37. Y21.601
X37.459 Y22.203
X37.88 Y22.833
X38.263 Y23.487
X38.605 Y24.163
X38.905 Y24.859
X39.163 Y25.571
X39.378 Y26.298
X39.547 Y27.036
X39.671 Y27.784
X39.749 Y28.537
X39.78 Y29.294
X39.766 Y30.052
X39.705 Y30.807
X39.598 Y31.557
X39.445 Y32.299
X39.248 Y33.031
X39.007 Y33.749
X38.722 Y34.451
X38.395 Y35.135
X38.027 Y35.797
X37.62 Y36.436
X37.174 Y37.049
X36.692 Y37.633
X36.175 Y38.187
X35.626 Y38.709
X35.046 Y39.197
X34.438 Y39.648
X33.803 Y40.062
X33.144 Y40.437
X32.464 Y40.77
X31.765 Y41.061
X31.049 Y41.309
X30.319 Y41.514
X29.579 Y41.674
X28.83 Y41.79
X28.075 Y41.86
X27.318 Y41.886
X26.561 Y41.866
X25.806 Y41.802
X25.056 Y41.692
X24.314 Y41.539
X23.582 Y41.342
X22.864 Y41.102
X22.161 Y40.82
X21.476 Y40.496
X20.811 Y40.132
X20.17 Y39.728
X19.554 Y39.288
X18.964 Y38.812
X18.404 Y38.302
X17.874 Y37.76
X17.376 Y37.189
X16.913 Y36.589
X16.485 Y35.964
X16.094 Y35.315
X15.742 Y34.644
X15.431 Y33.953
X15.161 Y33.245
X14.933 Y32.523
X14.748 Y31.788
X14.606 Y31.044
X14.507 Y30.293
X14.452 Y29.537
X14.441 Y28.779
X14.473 Y28.022
X14.549 Y27.268
X14.668 Y26.52
X14.831 Y25.78
X15.037 Y25.051
X15.286 Y24.336
X15.577 Y23.636
X15.907 Y22.954
X16.277 Y22.293
X16.683 Y21.653
X17.126 Y21.039
X17.604 Y20.45
X18.114 Y19.891
X18.656 Y19.361
X19.228 Y18.864
X19.828 Y18.401
X20.454 Y17.975
X21.104 Y17.586
X21.776 Y17.235
X22.467 Y16.924
X23.174 Y16.653
X23.896 Y16.423
X24.63 Y16.235
X25.374 Y16.09
X26.125 Y15.987
X26.88 Y15.927
X27.637 Y15.912
X28.395 Y15.941
X29.149 Y16.015
X29.897 Y16.132
X30.638 Y16.291
X31.368 Y16.493
X32.086 Y16.735
X32.789 Y17.018
X33.475 Y17.34
X34.142 Y17.7
X34.787 Y18.096
X35.41 Y18.528
X36.007 Y18.995
X36.576 Y19.495
X37.115 Y20.027
X37.624 Y20.588
X38.101 Y21.177
X38.545 Y21.791
X38.954 Y22.429
X39.327 Y23.088
X39.664 Y23.767
X39.962 Y24.464
X40.221 Y25.175
X40.441 Y25.901
X40.619 Y26.637
X40.755 Y27.382
X40.848 Y28.134
X40.899 Y28.89
X40.907 Y29.648
X40.873 Y30.405
X40.797 Y31.159
X40.679 Y31.907
X40.52 Y32.648
X40.321 Y33.379
X40.081 Y34.097
X39.802 Y34.802
X39.483 Y35.489
X39.126 Y36.157
X38.731 Y36.804
X38.301 Y37.428
X37.837 Y38.027
X37.34 Y38.599
X36.812 Y39.143
X36.256 Y39.656
X35.671 Y40.139
X35.061 Y40.588
X34.427 Y41.003
X33.771 Y41.382
X33.095 Y41.724
X32.4 Y42.026
X31.69 Y42.289
X30.965 Y42.511
X30.23 Y42.693
X29.486 Y42.835
X28.735 Y42.936
X27.979 Y42.995
X27.222 Y43.014
X26.464 Y42.991
X25.709 Y42.927
X24.959 Y42.823
X24.215 Y42.678
X23.481 Y42.492
X22.758 Y42.265
X22.049 Y41.999
X21.355 Y41.694
X20.679 Y41.352
X20.023 Y40.974
X19.388 Y40.56
X18.776 Y40.113
X18.189 Y39.634
X17.628 Y39.124
X17.096 Y38.585
X16.593 Y38.019
X16.122 Y37.426
X15.683 Y36.807
X15.279 Y36.167
X14.91 Y35.505
X14.578 Y34.824
X14.283 Y34.126
X14.026 Y33.413
X13.808 Y32.688
X13.628 Y31.952
X13.488 Y31.207
X13.387 Y30.456
X13.326 Y29.701
X13.306 Y28.943
X13.327 Y28.186
X13.388 Y27.431
X13.491 Y26.68
X13.633 Y25.936
X13.816 Y25.201
X14.037 Y24.476
X14.297 Y23.764
X14.595 Y23.068
X14.929 Y22.387
X15.298 Y21.726
X15.702 Y21.085
X16.139 Y20.466
X16.608 Y19.871
X17.109 Y19.303
X17.64 Y18.762
X18.2 Y18.251
X18.785 Y17.771
X19.396 Y17.323
X20.03 Y16.908
X20.685 Y16.527
X21.36 Y16.182
X22.051 Y15.872
X22.758 Y15.6
X23.479 Y15.365
X24.211 Y15.169
X24.952 Y15.012
X25.701 Y14.896
X26.454 Y14.82
X27.211 Y14.784
X27.969 Y14.789
X28.725 Y14.834
X29.478 Y14.919
X30.225 Y15.044
X30.965 Y15.207
X31.695 Y15.409
X32.414 Y15.649
X33.12 Y15.925
X33.809 Y16.239
X34.482 Y16.588
X35.135 Y16.972
X35.767 Y17.39
X36.376 Y17.84
X36.962 Y18.321
X37.521 Y18.832
X38.053 Y19.372
X38.557 Y19.938
X39.031 Y20.529
X39.475 Y21.143
X39.886 Y21.779
X40.265 Y22.435
X40.61 Y23.11
X40.919 Y23.801
X41.192 Y24.508
X41.428 Y25.228
X41.626 Y25.959
X41.786 Y26.7
X41.907 Y27.448
X41.99 Y28.201
X42.033 Y28.958
X42.038 Y29.715
X42.004 Y30.472
X41.931 Y31.226
X41.821 Y31.976
X41.671 Y32.719
X41.483 Y33.453
X41.257 Y34.176
X40.994 Y34.886
X40.694 Y35.582
X40.359 Y36.262
X39.989 Y36.923
X39.586 Y37.564
X39.15 Y38.184
X38.683 Y38.781
X38.186 Y39.353
X37.661 Y39.899
X37.109 Y40.418
X36.531 Y40.908
X35.928 Y41.366
X35.302 Y41.794
X34.655 Y42.188
X33.988 Y42.548
X33.304 Y42.873
X32.604 Y43.162
X31.889 Y43.415
X31.163 Y43.631
X30.427 Y43.81
X29.683 Y43.952
X28.932 Y44.056
X28.177 Y44.122
X27.42 Y44.15
X26.663 Y44.139
X25.907 Y44.09
X25.154 Y44.002
X24.407 Y43.877
X23.667 Y43.713
X22.936 Y43.513
X22.217 Y43.276
X21.51 Y43.002
X20.818 Y42.694
X20.142 Y42.351
X19.485 Y41.975
X18.846 Y41.567
X18.229 Y41.127
X17.635 Y40.656
X17.066 Y40.157
X16.522 Y39.629
X16.005 Y39.075
X15.517 Y38.496
X15.058 Y37.893
X14.629 Y37.268
X14.233 Y36.623
X13.868 Y35.958
X13.538 Y35.277
X13.242 Y34.579
X12.98 Y33.868
X12.754 Y33.145
X12.565 Y32.411
X12.412 Y31.669
X12.297 Y30.92
X12.218 Y30.167
X12.178 Y29.41
X12.174 Y28.653
X12.208 Y27.896
X12.28 Y27.141
X12.389 Y26.392
X12.535 Y25.648
X12.717 Y24.913
X12.936 Y24.187
X13.19 Y23.473
X13.479 Y22.773
X13.803 Y22.088
X14.16 Y21.42
X14.55 Y20.77
X14.971 Y20.14
X15.423 Y19.532
X15.905 Y18.947
X16.414 Y18.387
X16.951 Y17.852
X17.514 Y17.345
X18.101 Y16.866
X18.711 Y16.416
X19.342 Y15.997
X19.993 Y15.61
X20.663 Y15.255
X21.349 Y14.934
X22.051 Y14.648
X22.765 Y14.396
X23.492 Y14.18
X24.228 Y14.
X24.971 Y13.857
X25.722 Y13.75
X26.476 Y13.681
X27.233 Y13.648
X27.991 Y13.653
X28.747 Y13.695
X29.501 Y13.774
X30.25 Y13.89
X30.992 Y14.042
X31.725 Y14.231
X32.449 Y14.456
X33.161 Y14.715
X33.86 Y15.008
X34.543 Y15.335
X35.21 Y15.695
X35.859 Y16.086
X36.488 Y16.508
X37.096 Y16.96
X37.682 Y17.441
X38.244 Y17.949
X38.781 Y18.483
X39.292 Y19.043
X39.775 Y19.627
X40.229 Y20.233
X40.655 Y20.86
X41.05 Y21.507
X41.413 Y22.171
X41.745 Y22.852
X42.044 Y23.549
X42.309 Y24.258
X42.54 Y24.98
X42.736 Y25.712
X42.897 Y26.452
X43.022 Y27.2
X43.112 Y27.952
X43.165 Y28.708
X43.181 Y29.465
X43.161 Y30.223
X43.105 Y30.978
X43.012 Y31.73
X42.884 Y32.477
X42.721 Y33.217
X42.522 Y33.948
X42.289 Y34.669
X42.021 Y35.378
X41.72 Y36.073
X41.386 Y36.753
X41.02 Y37.416
X40.623 Y38.062
X40.195 Y38.687
X39.737 Y39.291
X39.251 Y39.872
X38.738 Y40.43
X38.199 Y40.962
X37.636 Y41.468
X37.048 Y41.947
X36.439 Y42.398
X35.809 Y42.818
X35.159 Y43.208
X34.492 Y43.567
X33.808 Y43.893
X33.11 Y44.187
X32.398 Y44.447
X31.675 Y44.673
X30.941 Y44.863
X30.2 Y45.019
X29.452 Y45.139
X28.699 Y45.224
X27.943 Y45.274
X27.185 Y45.288
X26.428 Y45.267
X25.672 Y45.21
X24.92 Y45.118
X24.173 Y44.991
X23.433 Y44.828
X22.702 Y44.632
X21.98 Y44.401
X21.27 Y44.137
X20.573 Y43.839
X19.892 Y43.508
X19.226 Y43.146
X18.578 Y42.754
X17.949 Y42.331
X17.34 Y41.88
X16.753 Y41.401
X16.189 Y40.895
X15.649 Y40.364
X15.134 Y39.808
X14.645 Y39.23
X14.183 Y38.629
X13.75 Y38.007
X13.346 Y37.367
X12.972 Y36.707
X12.63 Y36.031
X12.32 Y35.34
X12.042 Y34.635
X11.797 Y33.918
X11.585 Y33.191
X11.407 Y32.454
X11.264 Y31.71
X11.154 Y30.96
X11.079 Y30.206
X11.039 Y29.45
X11.033 Y28.692
X11.062 Y27.935
X11.126 Y27.18
X11.226 Y26.429
X11.36 Y25.683
X11.529 Y24.945
X11.731 Y24.215
X11.967 Y23.495
X12.236 Y22.786
X12.537 Y22.091
X12.87 Y21.41
X13.234 Y20.746
X13.627 Y20.098
X14.05 Y19.47
X14.501 Y18.861
X14.98 Y18.273
X15.485 Y17.708
X16.015 Y17.167
X16.57 Y16.652
X17.149 Y16.163
X17.75 Y15.701
X18.371 Y15.267
X19.011 Y14.862
X19.67 Y14.487
X20.345 Y14.143
X21.035 Y13.83
X21.738 Y13.549
X22.454 Y13.3
X23.18 Y13.084
X23.915 Y12.902
X24.658 Y12.753
X25.407 Y12.638
X26.161 Y12.559
X26.917 Y12.514
X27.675 Y12.505
X28.432 Y12.53
X29.187 Y12.59
X29.939 Y12.684
X30.686 Y12.812
X31.426 Y12.975
X32.158 Y13.17
X32.88 Y13.398
X33.592 Y13.659
X34.291 Y13.951
X34.976 Y14.275
X35.646 Y14.629
X36.299 Y15.013
X36.934 Y15.426
X37.55 Y15.868
X38.145 Y16.337
X38.718 Y16.832
X39.269 Y17.352
X39.796 Y17.897
X40.298 Y18.464
X40.774 Y19.054
X41.224 Y19.663
X41.646 Y20.292
X42.04 Y20.94
X42.405 Y21.604
X42.74 Y22.283
X43.045 Y22.977
X43.319 Y23.683
X43.56 Y24.402
X43.768 Y25.13
X43.944 Y25.867
X44.086 Y26.611
X44.195 Y27.361
X44.271 Y28.115
X44.312 Y28.871
X44.32 Y29.629
X44.294 Y30.386
X44.235 Y31.142
X44.142 Y31.894
X44.016 Y32.641
X43.857 Y33.381
X43.665 Y34.114
X43.44 Y34.838
X43.183 Y35.551
X42.893 Y36.251
X42.573 Y36.938
X42.223 Y37.609
X41.843 Y38.265
X41.434 Y38.903
X40.997 Y39.522
X40.533 Y40.121
X40.043 Y40.699
X39.528 Y41.254
X38.989 Y41.787
X38.427 Y42.294
X37.842 Y42.777
X37.237 Y43.233
X36.613 Y43.662
X36.394 Y43.797
X36.355 Y43.819
X35.108 Y44.5
X34.936 Y44.59
X34.393 Y44.84
X33.731 Y45.087
X32.698 Y45.472
X32.547 Y45.527
X32.181 Y45.627
X32.009 Y45.673
X30.116 Y46.085
X29.943 Y46.116
X29.771 Y46.131
X29.599 Y46.144
X28.05 Y46.255
X27.877 Y46.265
X27.361 Y46.284
X26.844 Y46.247
X25.639 Y46.161
X25.123 Y46.122
X24.951 Y46.099
X22.712 Y45.612
X22.54 Y45.558
X22.451 Y45.527
X22.196 Y45.433
X20.474 Y44.791
X20.302 Y44.721
X19.569 Y44.324
X18.581 Y43.784
X18.334 Y43.636
X18.049 Y43.464
X17.892 Y43.356
X16.342 Y42.196
X16.206 Y42.089
X16.17 Y42.058
X16.021 Y41.917
X14.621 Y40.516
X14.475 Y40.37
X14.449 Y40.338
X14.334 Y40.198
X13.071 Y38.511
X13.05 Y38.479
X12.727 Y37.937
X12.646 Y37.791
X12.083 Y36.76
X11.807 Y36.244
X11.727 Y36.072
X11.005 Y34.138
X10.958 Y34.009
X10.903 Y33.837
X10.861 Y33.665
X10.413 Y31.602
X10.379 Y31.43
X10.22 Y29.196
X10.218 Y29.024
X10.241 Y28.508
X10.364 Y26.789
X10.382 Y26.617
X10.443 Y26.273
X10.477 Y26.101
X10.833 Y24.463
X10.853 Y24.382
X10.945 Y24.038
X11.005 Y23.862
X11.645 Y22.147
X11.694 Y22.029
X11.881 Y21.631
X11.963 Y21.459
X12.902 Y19.74
X13.071 Y19.503
X13.271 Y19.225
X13.416 Y19.029
X14.17 Y18.021
X14.303 Y17.849
X14.449 Y17.663
X14.599 Y17.505
X15.826 Y16.278
X15.998 Y16.111
X16.17 Y15.946
X16.342 Y15.804
X18.064 Y14.515
X18.225 Y14.411
X18.925 Y14.028
X20.13 Y13.37
X20.302 Y13.278
X20.479 Y13.208
X22.024 Y12.631
X22.54 Y12.445
X22.712 Y12.388
X24.951 Y11.901
X25.123 Y11.878
X25.729 Y11.832
X27.189 Y11.728
X27.361 Y11.716
X27.877 Y11.735
X28.05 Y11.745
X29.599 Y11.856
X29.771 Y11.874
X30.288 Y11.953
X30.804 Y12.065
X32.009 Y12.327
X32.089 Y12.348
X32.526 Y12.473
X32.677 Y12.52
X34.247 Y13.106
X34.42 Y13.17
X34.592 Y13.237
X34.764 Y13.312
X36.658 Y14.346
X36.83 Y14.441
X37.002 Y14.565
X38.724 Y15.854
X38.845 Y15.958
X39.068 Y16.173
X40.273 Y17.378
X40.571 Y17.677
X40.617 Y17.738
X41.995 Y19.578
X42.098 Y19.74
X43.131 Y21.631
X43.2 Y21.771
X43.286 Y21.975
X43.355 Y22.147
X43.932 Y23.694
X43.993 Y23.866
X44.146 Y24.382
X44.187 Y24.554
X44.523 Y26.101
X44.555 Y26.273
X44.61 Y26.617
X44.636 Y26.789
X44.759 Y28.508
X44.782 Y29.024
X44.78 Y29.196
X44.621 Y31.43
X44.587 Y31.602
X44.139 Y33.665
X44.096 Y33.837
X43.889 Y34.423
X43.273 Y36.072
X43.196 Y36.244
X43.105 Y36.416
X42.339 Y37.819
X42.259 Y37.963
X42.063 Y38.307
X41.995 Y38.422
X40.666 Y40.198
X40.617 Y40.259
X40.273 Y40.621
X40.182 Y40.714
X38.896 Y41.999
X38.724 Y42.137
X38.551 Y42.273
X38.341 Y42.433
X37.346 Y43.177
X36.83 Y43.544
X36.69 Y43.636
X36.355 Y43.819
G3 X35.985 Y43.813 I-0.179 J-0.358
G1 X35.939 Y43.773 Z-1.595
X35.895 Y43.734 Z-1.581
X35.852 Y43.696 Z-1.558
X35.831 Y43.647 Z-1.526
X35.812 Y43.603 Z-1.485
X35.796 Y43.565 Z-1.437
X35.783 Y43.534 Z-1.383
X35.78 Y43.51 Z-1.325
X35.778 Y43.495 Z-1.263
X35.777 Y43.49 Z-1.2
G0 Z2.51
X29.399 Y28.492
Z0.9
G3 X27.38 Y30.962 Z0.77 I-1.899 J0.508 F333.33
X25.68 Y28.266 Z0.64 I0.12 J-1.96
X28.772 Y27.51 Z0.51 I1.818 J0.735
X28.508 Y30.679 Z0.38 I-1.273 J1.489
X25.59 Y29.424 Z0.25 I-1.007 J-1.678
X27.703 Y27.058 Z0.12 I1.908 J-0.423
X29.275 Y29.81 Z-0.01 I-0.205 J1.942
X26.171 Y30.426 Z-0.14 I-1.774 J-0.809
X26.57 Y27.29 Z-0.27 I1.329 J-1.424
X29.414 Y28.663 Z-0.4 I0.928 J1.71
X27.213 Y30.922 Z-0.53 I-1.914 J0.337
X25.771 Y28.121 Z-0.66 I0.287 J-1.92
X28.881 Y27.642 Z-0.79 I1.727 J0.88
X28.348 Y30.74 Z-0.92 I-1.381 J1.357
X25.583 Y29.254 Z-1.05 I-0.848 J-1.739
X27.867 Y27.105 Z-1.18 I1.915 J-0.252
X29.178 Y29.95 Z-1.31 I-0.368 J1.894
X26.068 Y30.29 Z-1.44 I-1.677 J-0.949
X26.732 Y27.237 Z-1.57 I1.431 J-1.288
X29.414 Y28.833 Z-1.7 I0.767 J1.763
X27.052 Y30.867 Z-1.83 I-1.913 J0.167
X25.873 Y27.985 Z-1.96 I0.448 J-1.865
X28.976 Y27.782 Z-2.09 I1.625 J1.015
X28.185 Y30.786 Z-2.22 I-1.477 J1.217
X25.591 Y29.085 Z-2.35 I-0.685 J-1.785
X28.025 Y27.166 Z-2.48 I1.907 J-0.083
X29.07 Y30.08 Z-2.61 I-0.526 J1.833
X25.98 Y30.147 Z-2.74 I-1.57 J-1.079
X26.895 Y27.198 Z-2.87 I1.519 J-1.145
X29.398 Y29. Z-3. I0.603 J1.802
X25.598 I-1.9 J0.
X29.398 I1.9 J0.
G1 X29.414 Y29.757 F1000.
X29.435 Y29.85
X29.449 Y29.999
X29.44 Y30.149
X29.41 Y30.296
X29.363 Y30.438
X29.301 Y30.575
X29.227 Y30.705
X29.141 Y30.828
X29.044 Y30.943
X28.939 Y31.05
X28.826 Y31.149
X28.706 Y31.238
X28.579 Y31.319
X28.447 Y31.391
X28.311 Y31.453
X28.171 Y31.506
X28.027 Y31.55
X27.88 Y31.585
X27.729 Y31.61
X27.575 Y31.626
X27.419 Y31.633
X27.261 Y31.629
X27.102 Y31.615
X26.943 Y31.591
X26.785 Y31.556
X26.628 Y31.511
X26.474 Y31.455
X26.322 Y31.39
X26.175 Y31.315
X26.032 Y31.23
X25.894 Y31.135
X25.762 Y31.032
X25.637 Y30.92
X25.518 Y30.8
X25.408 Y30.673
X25.305 Y30.538
X25.212 Y30.397
X25.127 Y30.25
X25.052 Y30.097
X24.986 Y29.94
X24.931 Y29.779
X24.886 Y29.614
X24.852 Y29.447
X24.828 Y29.278
X24.815 Y29.107
X24.814 Y28.936
X24.823 Y28.765
X24.843 Y28.595
X24.874 Y28.426
X24.916 Y28.26
X24.968 Y28.096
X25.031 Y27.936
X25.104 Y27.781
X25.186 Y27.63
X25.279 Y27.485
X25.38 Y27.346
X25.49 Y27.214
X25.608 Y27.09
X25.734 Y26.973
X25.867 Y26.864
X26.007 Y26.764
X26.153 Y26.673
X26.304 Y26.592
X26.461 Y26.52
X26.622 Y26.459
X26.786 Y26.408
X26.953 Y26.368
X27.123 Y26.338
X27.294 Y26.32
X27.465 Y26.312
X27.637 Y26.315
X27.809 Y26.33
X27.979 Y26.355
X28.147 Y26.391
X28.313 Y26.438
X28.475 Y26.496
X28.633 Y26.563
X28.787 Y26.641
X28.935 Y26.728
X29.078 Y26.825
X29.214 Y26.93
X29.342 Y27.044
X29.464 Y27.166
X29.577 Y27.296
X29.682 Y27.432
X29.778 Y27.575
X29.865 Y27.725
X29.956 Y27.908
X30.066 Y28.169
X30.187 Y28.517
X30.262 Y28.788
X30.311 Y29.022
X30.342 Y29.236
X30.358 Y29.442
X30.361 Y29.639
X30.352 Y29.827
X30.331 Y30.007
X30.299 Y30.184
X30.256 Y30.359
X30.202 Y30.53
X30.138 Y30.696
X30.064 Y30.856
X29.98 Y31.011
X29.884 Y31.163
X29.778 Y31.309
X29.662 Y31.45
X29.536 Y31.585
X29.4 Y31.712
X29.255 Y31.832
X29.101 Y31.943
X28.938 Y32.045
X28.767 Y32.138
X28.589 Y32.22
X28.405 Y32.291
X28.214 Y32.351
X28.018 Y32.399
X27.818 Y32.435
X27.614 Y32.458
X27.407 Y32.468
X27.198 Y32.465
X26.988 Y32.448
X26.778 Y32.418
X26.569 Y32.374
X26.362 Y32.316
X26.158 Y32.245
X25.958 Y32.161
X25.763 Y32.063
X25.574 Y31.953
X25.392 Y31.831
X25.217 Y31.696
X25.051 Y31.551
X24.893 Y31.394
X24.746 Y31.227
X24.61 Y31.051
X24.484 Y30.866
X24.371 Y30.673
X24.27 Y30.472
X24.182 Y30.266
X24.107 Y30.054
X24.046 Y29.837
X23.999 Y29.616
X23.966 Y29.393
X23.947 Y29.167
X23.943 Y28.941
X23.953 Y28.715
X23.978 Y28.49
X24.017 Y28.266
X24.07 Y28.046
X24.137 Y27.829
X24.219 Y27.617
X24.313 Y27.41
X24.421 Y27.21
X24.541 Y27.017
X24.674 Y26.832
X24.818 Y26.656
X24.973 Y26.49
X25.138 Y26.333
X25.313 Y26.188
X25.497 Y26.054
X25.69 Y25.932
X25.889 Y25.822
X26.096 Y25.726
X26.308 Y25.643
X26.525 Y25.573
X26.746 Y25.518
X26.97 Y25.477
X27.197 Y25.45
X27.424 Y25.438
X27.652 Y25.441
X27.88 Y25.458
X28.105 Y25.49
X28.329 Y25.536
X28.549 Y25.596
X28.764 Y25.67
X28.975 Y25.758
X29.179 Y25.859
X29.377 Y25.973
X29.566 Y26.099
X29.748 Y26.237
X29.923 Y26.39
X30.094 Y26.558
X30.26 Y26.745
X30.432 Y26.965
X30.596 Y27.204
X30.744 Y27.454
X30.875 Y27.712
X30.988 Y27.973
X31.082 Y28.237
X31.158 Y28.502
X31.216 Y28.765
X31.255 Y29.026
X31.278 Y29.285
X31.284 Y29.541
X31.274 Y29.793
X31.248 Y30.041
X31.206 Y30.284
X31.149 Y30.523
X31.078 Y30.756
X30.992 Y30.984
X30.892 Y31.206
X30.777 Y31.421
X30.649 Y31.628
X30.508 Y31.827
X30.353 Y32.018
X30.186 Y32.199
X30.007 Y32.37
X29.817 Y32.529
X29.615 Y32.677
X29.403 Y32.813
X29.182 Y32.936
X28.951 Y33.045
X28.713 Y33.139
X28.467 Y33.219
X28.215 Y33.283
X27.957 Y33.331
X27.696 Y33.363
X27.431 Y33.379
X27.164 Y33.377
X26.897 Y33.358
X26.629 Y33.322
X26.364 Y33.268
X26.101 Y33.197
X25.842 Y33.11
X25.588 Y33.005
X25.34 Y32.884
X25.1 Y32.746
X24.868 Y32.594
X24.646 Y32.426
X24.434 Y32.243
X24.234 Y32.047
X24.046 Y31.838
X23.872 Y31.617
X23.712 Y31.385
X23.567 Y31.143
X23.437 Y30.891
X23.323 Y30.631
X23.227 Y30.364
X23.147 Y30.091
X23.085 Y29.813
X23.041 Y29.532
X23.015 Y29.248
X23.007 Y28.962
X23.018 Y28.677
X23.046 Y28.392
X23.093 Y28.11
X23.158 Y27.831
X23.241 Y27.556
X23.341 Y27.287
X23.458 Y27.025
X23.592 Y26.771
X23.742 Y26.527
X23.907 Y26.292
X24.087 Y26.067
X24.281 Y25.855
X24.488 Y25.656
X24.708 Y25.47
X24.939 Y25.299
X25.18 Y25.143
X25.431 Y25.002
X25.691 Y24.878
X25.958 Y24.771
X26.232 Y24.681
X26.51 Y24.609
X26.793 Y24.555
X27.079 Y24.519
X27.366 Y24.501
X27.654
X27.942 Y24.521
X28.227 Y24.558
X28.51 Y24.614
X28.788 Y24.687
X29.061 Y24.779
X29.329 Y24.888
X29.591 Y25.014
X29.846 Y25.159
X30.097 Y25.322
X30.341 Y25.505
X30.577 Y25.707
X30.807 Y25.929
X31.025 Y26.171
X31.23 Y26.429
X31.42 Y26.702
X31.593 Y26.987
X31.747 Y27.282
X31.881 Y27.585
X31.994 Y27.895
X32.087 Y28.209
X32.159 Y28.526
X32.211 Y28.844
X32.241 Y29.162
X32.251 Y29.479
X32.241 Y29.794
X32.211 Y30.105
X32.162 Y30.412
X32.093 Y30.714
X32.005 Y31.01
X31.898 Y31.3
X31.774 Y31.581
X31.632 Y31.854
X31.472 Y32.118
X31.296 Y32.371
X31.103 Y32.613
X30.895 Y32.843
X30.672 Y33.059
X30.435 Y33.261
X30.184 Y33.449
X29.921 Y33.621
X29.646 Y33.776
X29.36 Y33.914
X29.065 Y34.034
X28.761 Y34.136
X28.449 Y34.218
X28.132 Y34.28
X27.809 Y34.322
X27.483 Y34.344
X27.155 Y34.345
X26.826 Y34.324
X26.497 Y34.283
X26.171 Y34.22
X25.848 Y34.136
X25.529 Y34.031
X25.217 Y33.906
X24.913 Y33.76
X24.618 Y33.595
X24.333 Y33.41
X24.06 Y33.208
X23.799 Y32.987
X23.553 Y32.75
X23.322 Y32.497
X23.107 Y32.229
X22.909 Y31.948
X22.729 Y31.654
X22.568 Y31.348
X22.427 Y31.032
X22.307 Y30.708
X22.207 Y30.376
X22.128 Y30.038
X22.071 Y29.695
X22.037 Y29.349
X22.024 Y29.001
X22.034 Y28.653
X22.066 Y28.305
X22.12 Y27.961
X22.196 Y27.62
X22.294 Y27.285
X22.413 Y26.956
X22.553 Y26.636
X22.713 Y26.325
X22.893 Y26.025
X23.092 Y25.736
X23.309 Y25.461
X23.543 Y25.201
X23.794 Y24.956
X24.06 Y24.727
X24.339 Y24.516
X24.632 Y24.323
X24.937 Y24.149
X25.252 Y23.995
X25.576 Y23.862
X25.909 Y23.749
X26.248 Y23.658
X26.592 Y23.589
X26.94 Y23.542
X27.29 Y23.517
X27.641 Y23.515
X27.991 Y23.535
X28.34 Y23.578
X28.686 Y23.643
X29.027 Y23.73
X29.365 Y23.84
X29.697 Y23.971
X30.023 Y24.126
X30.342 Y24.303
X30.654 Y24.502
X30.956 Y24.724
X31.246 Y24.967
X31.522 Y25.231
X31.783 Y25.514
X32.027 Y25.815
X32.252 Y26.133
X32.456 Y26.464
X32.64 Y26.809
X32.8 Y27.164
X32.937 Y27.527
X33.05 Y27.898
X33.139 Y28.273
X33.204 Y28.652
X33.244 Y29.032
X33.259 Y29.412
X33.25 Y29.791
X33.217 Y30.168
X33.16 Y30.54
X33.08 Y30.907
X32.976 Y31.267
X32.85 Y31.62
X32.702 Y31.964
X32.532 Y32.297
X32.341 Y32.619
X32.129 Y32.928
X31.898 Y33.224
X31.648 Y33.504
X31.38 Y33.769
X31.095 Y34.016
X30.794 Y34.246
X30.477 Y34.456
X30.147 Y34.647
X29.804 Y34.816
X29.45 Y34.963
X29.086 Y35.089
X28.713 Y35.19
X28.333 Y35.269
X27.947 Y35.322
X27.557 Y35.352
X27.165 Y35.356
X26.771 Y35.335
X26.379 Y35.289
X25.989 Y35.217
X25.603 Y35.12
X25.222 Y34.999
X24.85 Y34.853
X24.486 Y34.682
X24.133 Y34.489
X23.792 Y34.273
X23.465 Y34.034
X23.153 Y33.775
X22.858 Y33.496
X22.58 Y33.197
X22.322 Y32.881
X22.084 Y32.549
X21.868 Y32.201
X21.674 Y31.84
X21.503 Y31.466
X21.356 Y31.082
X21.234 Y30.689
X21.137 Y30.288
X21.066 Y29.882
X21.021 Y29.472
X21.003 Y29.059
X21.011 Y28.645
X21.045 Y28.233
X21.106 Y27.823
X21.193 Y27.418
X21.306 Y27.019
X21.444 Y26.628
X21.607 Y26.246
X21.794 Y25.875
X22.004 Y25.517
X22.237 Y25.173
X22.492 Y24.845
X22.767 Y24.533
X23.062 Y24.24
X23.374 Y23.966
X23.704 Y23.713
X24.05 Y23.481
X24.409 Y23.271
X24.782 Y23.085
X25.165 Y22.924
X25.558 Y22.787
X25.96 Y22.675
X26.367 Y22.589
X26.779 Y22.53
X27.195 Y22.497
X27.611 Y22.491
X28.028 Y22.511
X28.443 Y22.559
X28.855 Y22.632
X29.264 Y22.733
X29.668 Y22.86
X30.065 Y23.014
X30.455 Y23.194
X30.836 Y23.401
X31.206 Y23.634
X31.563 Y23.891
X31.905 Y24.173
X32.231 Y24.479
X32.538 Y24.806
X32.825 Y25.154
X33.089 Y25.52
X33.33 Y25.903
X33.546 Y26.301
X33.737 Y26.712
X33.9 Y27.134
X34.035 Y27.565
X34.143 Y28.002
X34.222 Y28.444
X34.273 Y28.889
X34.295 Y29.335
X34.288 Y29.781
X34.253 Y30.224
X34.19 Y30.663
X34.099 Y31.097
X33.981 Y31.523
X33.835 Y31.94
X33.664 Y32.347
X33.466 Y32.742
X33.244 Y33.124
X32.998 Y33.491
X32.729 Y33.841
X32.437 Y34.175
X32.124 Y34.489
X31.791 Y34.783
X31.438 Y35.056
X31.069 Y35.307
X30.683 Y35.534
X30.282 Y35.736
X29.867 Y35.913
X29.441 Y36.064
X29.005 Y36.187
X28.561 Y36.282
X28.11 Y36.349
X27.654 Y36.387
X27.195 Y36.396
X26.736 Y36.376
X26.277 Y36.325
X25.821 Y36.246
X25.369 Y36.137
X24.925 Y35.999
X24.489 Y35.833
X24.063 Y35.638
X23.65 Y35.416
X23.251 Y35.168
X22.868 Y34.893
X22.502 Y34.595
X22.156 Y34.273
X21.83 Y33.929
X21.527 Y33.564
X21.247 Y33.179
X20.992 Y32.777
X20.762 Y32.359
X20.56 Y31.927
X20.385 Y31.482
X20.24 Y31.026
X20.123 Y30.562
X20.037 Y30.09
X19.98 Y29.614
X19.955 Y29.135
X19.96 Y28.654
X19.996 Y28.175
X20.062 Y27.698
X20.159 Y27.227
X20.286 Y26.762
X20.442 Y26.306
X20.628 Y25.861
X20.841 Y25.429
X21.082 Y25.011
X21.349 Y24.609
X21.642 Y24.225
X21.958 Y23.86
X22.297 Y23.516
X22.658 Y23.195
X23.039 Y22.897
X23.438 Y22.625
X23.853 Y22.378
X24.284 Y22.158
X24.728 Y21.966
X25.183 Y21.803
X25.648 Y21.67
X26.12 Y21.566
X26.598 Y21.493
X27.081 Y21.451
X27.565 Y21.439
X28.05 Y21.459
X28.534 Y21.51
X29.016 Y21.591
X29.493 Y21.704
X29.965 Y21.849
X30.429 Y22.023
X30.883 Y22.229
X31.327 Y22.464
X31.756 Y22.729
X32.171 Y23.023
X32.567 Y23.344
X32.944 Y23.692
X33.3 Y24.064
X33.631 Y24.459
X33.938 Y24.876
X34.217 Y25.312
X34.469 Y25.766
X34.691 Y26.235
X34.882 Y26.716
X35.042 Y27.209
X35.17 Y27.71
X35.265 Y28.217
X35.328 Y28.729
X35.357 Y29.242
X35.354 Y29.756
X35.318 Y30.267
X35.25 Y30.775
X35.149 Y31.276
X35.016 Y31.77
X34.853 Y32.253
X34.658 Y32.726
X34.434 Y33.184
X34.181 Y33.628
X33.9 Y34.054
X33.592 Y34.462
X33.259 Y34.85
X32.9 Y35.217
X32.518 Y35.56
X32.115 Y35.879
X31.691 Y36.171
X31.248 Y36.437
X30.788 Y36.674
X30.312 Y36.882
X29.823 Y37.06
X29.323 Y37.206
X28.813 Y37.32
X28.295 Y37.401
X27.772 Y37.45
X27.245 Y37.464
X26.717 Y37.445
X26.19 Y37.392
X25.666 Y37.306
X25.148 Y37.185
X24.637 Y37.032
X24.136 Y36.845
X23.646 Y36.626
X23.171 Y36.376
X22.712 Y36.096
X22.27 Y35.786
X21.849 Y35.448
X21.45 Y35.083
X21.074 Y34.692
X20.723 Y34.278
X20.399 Y33.841
X20.103 Y33.384
X19.837 Y32.908
X19.601 Y32.416
X19.397 Y31.909
X19.226 Y31.39
X19.088 Y30.86
X18.985 Y30.322
X18.916 Y29.778
X18.882 Y29.23
X18.883 Y28.681
X18.919 Y28.133
X18.99 Y27.588
X19.096 Y27.048
X19.237 Y26.516
X19.411 Y25.993
X19.618 Y25.483
X19.858 Y24.987
X20.129 Y24.507
X20.43 Y24.045
X20.76 Y23.604
X21.118 Y23.184
X21.503 Y22.788
X21.911 Y22.417
X22.343 Y22.073
X22.796 Y21.758
X23.269 Y21.472
X23.758 Y21.216
X24.263 Y20.993
X24.782 Y20.802
X25.312 Y20.645
X25.85 Y20.522
X26.396 Y20.434
X26.947 Y20.38
X27.501 Y20.363
X28.056 Y20.38
X28.61 Y20.433
X29.161 Y20.522
X29.708 Y20.646
X30.247 Y20.806
X30.778 Y21.001
X31.298 Y21.231
X31.804 Y21.494
X32.295 Y21.791
X32.768 Y22.12
X33.221 Y22.48
X33.652 Y22.87
X34.058 Y23.289
X34.437 Y23.733
X34.788 Y24.201
X35.108 Y24.692
X35.397 Y25.203
X35.653 Y25.731
X35.874 Y26.274
X36.06 Y26.83
X36.21 Y27.397
X36.323 Y27.971
X36.399 Y28.55
X36.438 Y29.133
X36.439 Y29.716
X36.403 Y30.297
X36.33 Y30.874
X36.221 Y31.445
X36.075 Y32.007
X35.894 Y32.558
X35.678 Y33.097
X35.428 Y33.62
X35.145 Y34.127
X34.829 Y34.614
X34.484 Y35.081
X34.108 Y35.525
X33.705 Y35.945
X33.274 Y36.338
X32.819 Y36.704
X32.341 Y37.04
X31.841 Y37.346
X31.322 Y37.62
X30.785 Y37.86
X30.232 Y38.066
X29.667 Y38.236
X29.09 Y38.371
X28.505 Y38.468
X27.913 Y38.528
X27.317 Y38.55
X26.72 Y38.533
X26.123 Y38.479
X25.53 Y38.386
X24.943 Y38.255
X24.364 Y38.086
X23.796 Y37.88
X23.242 Y37.638
X22.702 Y37.361
X22.181 Y37.048
X21.68 Y36.703
X21.201 Y36.326
X20.747 Y35.918
X20.319 Y35.481
X19.92 Y35.017
X19.55 Y34.528
X19.212 Y34.015
X18.907 Y33.482
X18.637 Y32.929
X18.402 Y32.359
X18.204 Y31.776
X18.044 Y31.18
X17.922 Y30.574
X17.839 Y29.962
X17.795 Y29.345
X17.791 Y28.727
X17.826 Y28.108
X17.901 Y27.494
X18.015 Y26.884
X18.168 Y26.283
X18.359 Y25.693
X18.588 Y25.117
X18.853 Y24.555
X19.154 Y24.012
X19.488 Y23.489
X19.856 Y22.988
X20.255 Y22.512
X20.684 Y22.062
X21.141 Y21.64
X21.624 Y21.249
X22.131 Y20.889
X22.66 Y20.562
X23.21 Y20.27
X23.776 Y20.013
X24.359 Y19.793
X24.954 Y19.611
X25.56 Y19.467
X26.174 Y19.362
X26.794 Y19.297
X27.418 Y19.271
X28.044 Y19.286
X28.669 Y19.34
X29.291 Y19.435
X29.907 Y19.57
X30.516 Y19.744
X31.115 Y19.958
X31.701 Y20.211
X32.272 Y20.502
X32.825 Y20.83
X33.359 Y21.194
X33.869 Y21.593
X34.355 Y22.026
X34.813 Y22.489
X35.242 Y22.983
X35.639 Y23.503
X36.002 Y24.049
X36.33 Y24.617
X36.621 Y25.205
X36.873 Y25.81
X37.086 Y26.431
X37.26 Y27.063
X37.392 Y27.704
X37.483 Y28.353
X37.532 Y29.005
X37.539 Y29.658
X37.505 Y30.309
X37.428 Y30.957
X37.311 Y31.598
X37.153 Y32.23
X36.955 Y32.85
X36.718 Y33.456
X36.443 Y34.046
X36.13 Y34.617
X35.781 Y35.167
X35.398 Y35.694
X34.981 Y36.195
X34.533 Y36.67
X34.054 Y37.115
X33.548 Y37.529
X33.015 Y37.911
X32.458 Y38.258
X31.879 Y38.57
X31.28 Y38.844
X30.664 Y39.08
X30.033 Y39.276
X29.389 Y39.432
X28.735 Y39.546
X28.074 Y39.619
X27.408 Y39.649
X26.74 Y39.637
X26.073 Y39.581
X25.41 Y39.483
X24.753 Y39.343
X24.105 Y39.16
X23.469 Y38.936
X22.848 Y38.671
X22.243 Y38.367
X21.659 Y38.023
X21.097 Y37.643
X20.559 Y37.226
X20.048 Y36.776
X19.567 Y36.293
X19.117 Y35.78
X18.7 Y35.238
X18.318 Y34.67
X17.974 Y34.078
X17.667 Y33.465
X17.4 Y32.832
X17.174 Y32.184
X16.989 Y31.521
X16.847 Y30.848
X16.749 Y30.167
X16.694 Y29.48
X16.683 Y28.791
X16.717 Y28.102
X16.794 Y27.416
X16.916 Y26.736
X17.08 Y26.065
X17.288 Y25.406
X17.537 Y24.762
X17.827 Y24.134
X18.156 Y23.526
X18.524 Y22.94
X18.929 Y22.379
X19.369 Y21.844
X19.842 Y21.339
X20.347 Y20.865
X20.881 Y20.424
X21.443 Y20.019
X22.029 Y19.649
X22.638 Y19.319
X23.266 Y19.027
X23.913 Y18.777
X24.574 Y18.568
X25.248 Y18.402
X25.931 Y18.279
X26.622 Y18.2
X27.317 Y18.166
X28.014 Y18.176
X28.711 Y18.231
X29.404 Y18.33
X30.092 Y18.474
X30.771 Y18.662
X31.438 Y18.894
X32.092 Y19.17
X32.729 Y19.487
X33.347 Y19.846
X33.942 Y20.245
X34.512 Y20.683
X35.054 Y21.157
X35.566 Y21.666
X36.046 Y22.208
X36.49 Y22.781
X36.897 Y23.381
X37.266 Y24.007
X37.593 Y24.655
X37.879 Y25.324
X38.121 Y26.008
X38.319 Y26.707
X38.472 Y27.417
X38.579 Y28.135
X38.639 Y28.857
X38.654 Y29.581
X38.622 Y30.305
X38.544 Y31.024
X38.42 Y31.736
X38.25 Y32.439
X38.037 Y33.129
X37.779 Y33.804
X37.479 Y34.461
X37.138 Y35.098
X36.756 Y35.712
X36.335 Y36.3
X35.878 Y36.861
X35.385 Y37.392
X34.858 Y37.89
X34.301 Y38.355
X33.713 Y38.783
X33.099 Y39.173
X32.46 Y39.524
X31.799 Y39.834
X31.118 Y40.101
X30.421 Y40.325
X29.709 Y40.503
X28.986 Y40.636
X28.255 Y40.723
X27.518 Y40.763
X26.779 Y40.756
X26.041 Y40.701
X25.306 Y40.599
X24.578 Y40.45
X23.86 Y40.254
X23.155 Y40.012
X22.465 Y39.725
X21.794 Y39.394
X21.145 Y39.021
X20.52 Y38.606
X19.922 Y38.151
X19.354 Y37.658
X18.817 Y37.129
X18.315 Y36.566
X17.85 Y35.972
X17.423 Y35.349
X17.036 Y34.698
X16.692 Y34.024
X16.391 Y33.329
X16.135 Y32.615
X15.926 Y31.887
X15.763 Y31.147
X15.648 Y30.398
X15.581 Y29.644
X15.561 Y28.886
X15.591 Y28.129
X15.668 Y27.376
X15.793 Y26.628
X15.966 Y25.89
X16.185 Y25.165
X16.449 Y24.455
X16.758 Y23.763
X17.111 Y23.093
X17.505 Y22.446
X17.94 Y21.825
X18.413 Y21.233
X18.923 Y20.673
X19.467 Y20.146
X20.044 Y19.654
X20.65 Y19.2
X21.284 Y18.786
X21.944 Y18.412
X22.625 Y18.081
X23.327 Y17.794
X24.044 Y17.552
X24.776 Y17.356
X25.519 Y17.207
X26.27 Y17.105
X27.026 Y17.051
X27.783 Y17.045
X28.54 Y17.086
X29.292 Y17.175
X30.038 Y17.311
X30.773 Y17.493
X31.496 Y17.721
X32.203 Y17.993
X32.891 Y18.309
X33.559 Y18.667
X34.204 Y19.065
X34.823 Y19.502
X35.414 Y19.977
X35.974 Y20.486
X36.503 Y21.029
X36.998 Y21.603
X37.457 Y22.206
X37.878 Y22.835
X38.261 Y23.489
X38.603 Y24.165
X38.903 Y24.861
X39.161 Y25.573
X39.376 Y26.3
X39.545 Y27.038
X39.669 Y27.786
X39.747 Y28.539
X39.778 Y29.296
X39.763 Y30.054
X39.702 Y30.809
X39.596 Y31.559
X39.443 Y32.301
X39.246 Y33.033
X39.004 Y33.751
X38.72 Y34.453
X38.393 Y35.137
X38.025 Y35.799
X37.617 Y36.438
X37.172 Y37.051
X36.69 Y37.635
X36.173 Y38.189
X35.624 Y38.711
X35.044 Y39.199
X34.435 Y39.65
X33.801 Y40.064
X33.142 Y40.439
X32.462 Y40.772
X31.762 Y41.063
X31.046 Y41.311
X30.317 Y41.516
X29.576 Y41.676
X28.827 Y41.791
X28.073 Y41.862
X27.316 Y41.887
X26.558 Y41.868
X25.803 Y41.803
X25.054 Y41.694
X24.312 Y41.541
X23.58 Y41.344
X22.861 Y41.104
X22.158 Y40.822
X21.473 Y40.498
X20.809 Y40.133
X20.168 Y39.73
X19.551 Y39.289
X18.962 Y38.813
X18.401 Y38.303
X17.871 Y37.762
X17.374 Y37.19
X16.91 Y36.591
X16.483 Y35.965
X16.092 Y35.316
X15.74 Y34.646
X15.428 Y33.955
X15.159 Y33.247
X14.931 Y32.524
X14.746 Y31.789
X14.604 Y31.045
X14.505 Y30.294
X14.45 Y29.538
X14.439 Y28.781
X14.471 Y28.024
X14.547 Y27.27
X14.666 Y26.521
X14.829 Y25.782
X15.035 Y25.053
X15.285 Y24.337
X15.575 Y23.637
X15.906 Y22.956
X16.275 Y22.294
X16.682 Y21.655
X17.125 Y21.04
X17.602 Y20.452
X18.113 Y19.892
X18.655 Y19.362
X19.226 Y18.865
X19.826 Y18.402
X20.453 Y17.976
X21.103 Y17.587
X21.775 Y17.237
X22.465 Y16.925
X23.173 Y16.655
X23.895 Y16.425
X24.629 Y16.237
X25.372 Y16.091
X26.123 Y15.989
X26.878 Y15.929
X27.636 Y15.914
X28.393 Y15.943
X29.147 Y16.017
X29.896 Y16.133
X30.636 Y16.293
X31.367 Y16.495
X32.085 Y16.737
X32.788 Y17.02
X33.473 Y17.342
X34.14 Y17.702
X34.786 Y18.098
X35.408 Y18.53
X36.005 Y18.997
X36.574 Y19.497
X37.114 Y20.029
X37.623 Y20.59
X38.1 Y21.179
X38.543 Y21.793
X38.952 Y22.431
X39.326 Y23.091
X39.662 Y23.769
X39.96 Y24.466
X40.219 Y25.178
X40.439 Y25.903
X40.617 Y26.639
X40.753 Y27.385
X40.846 Y28.137
X40.897 Y28.893
X40.905 Y29.65
X40.871 Y30.407
X40.795 Y31.161
X40.677 Y31.91
X40.518 Y32.65
X40.318 Y33.381
X40.078 Y34.1
X39.799 Y34.804
X39.481 Y35.492
X39.123 Y36.16
X38.729 Y36.807
X38.298 Y37.43
X37.834 Y38.029
X37.337 Y38.601
X36.81 Y39.145
X36.253 Y39.659
X35.669 Y40.141
X35.059 Y40.59
X34.425 Y41.005
X33.769 Y41.384
X33.092 Y41.726
X32.397 Y42.028
X31.687 Y42.291
X30.962 Y42.513
X30.227 Y42.695
X29.483 Y42.837
X28.732 Y42.937
X27.976 Y42.997
X27.219 Y43.015
X26.462 Y42.993
X25.707 Y42.929
X24.956 Y42.825
X24.213 Y42.68
X23.478 Y42.493
X22.755 Y42.267
X22.046 Y42.001
X21.352 Y41.696
X20.676 Y41.354
X20.02 Y40.975
X19.385 Y40.562
X18.773 Y40.115
X18.186 Y39.635
X17.626 Y39.125
X17.093 Y38.586
X16.59 Y38.02
X16.119 Y37.427
X15.681 Y36.809
X15.277 Y36.168
X14.908 Y35.506
X14.576 Y34.825
X14.281 Y34.127
X14.024 Y33.414
X13.805 Y32.689
X13.626 Y31.953
X13.486 Y31.208
X13.385 Y30.457
X13.324 Y29.702
X13.304 Y28.944
X13.325 Y28.187
X13.386 Y27.432
X13.489 Y26.681
X13.631 Y25.937
X13.814 Y25.202
X14.035 Y24.477
X14.295 Y23.765
X14.593 Y23.069
X14.927 Y22.389
X15.296 Y21.727
X15.7 Y21.086
X16.137 Y20.467
X16.607 Y19.872
X17.108 Y19.304
X17.639 Y18.764
X18.198 Y18.252
X18.784 Y17.772
X19.395 Y17.324
X20.029 Y16.909
X20.684 Y16.528
X21.358 Y16.183
X22.05 Y15.874
X22.757 Y15.601
X23.478 Y15.367
X24.209 Y15.17
X24.951 Y15.014
X25.699 Y14.898
X26.453 Y14.821
X27.21 Y14.786
X27.968 Y14.79
X28.724 Y14.836
X29.477 Y14.921
X30.224 Y15.046
X30.964 Y15.209
X31.694 Y15.411
X32.413 Y15.651
X33.118 Y15.928
X33.808 Y16.241
X34.48 Y16.59
X35.134 Y16.974
X35.766 Y17.392
X36.375 Y17.842
X36.96 Y18.324
X37.519 Y18.835
X38.052 Y19.374
X38.555 Y19.94
X39.03 Y20.531
X39.473 Y21.145
X39.885 Y21.781
X40.264 Y22.438
X40.608 Y23.112
X40.917 Y23.804
X41.19 Y24.511
X41.426 Y25.231
X41.624 Y25.962
X41.784 Y26.703
X41.905 Y27.451
X41.988 Y28.204
X42.031 Y28.96
X42.036 Y29.718
X42.002 Y30.475
X41.929 Y31.229
X41.818 Y31.979
X41.669 Y32.721
X41.48 Y33.455
X41.254 Y34.178
X40.991 Y34.889
X40.692 Y35.585
X40.356 Y36.264
X39.986 Y36.926
X39.583 Y37.567
X39.147 Y38.187
X38.68 Y38.783
X38.183 Y39.355
X37.658 Y39.902
X37.106 Y40.42
X36.528 Y40.91
X35.925 Y41.369
X35.299 Y41.796
X34.652 Y42.19
X33.985 Y42.55
X33.301 Y42.875
X32.6 Y43.164
X31.886 Y43.417
X31.16 Y43.633
X30.424 Y43.812
X29.68 Y43.954
X28.929 Y44.058
X28.174 Y44.124
X27.417 Y44.152
X26.66 Y44.141
X25.903 Y44.091
X25.151 Y44.004
X24.404 Y43.878
X23.664 Y43.715
X22.933 Y43.514
X22.214 Y43.277
X21.507 Y43.004
X20.815 Y42.695
X20.139 Y42.352
X19.482 Y41.976
X18.843 Y41.568
X18.226 Y41.128
X17.633 Y40.658
X17.063 Y40.158
X16.519 Y39.63
X16.003 Y39.076
X15.514 Y38.497
X15.055 Y37.894
X14.627 Y37.269
X14.23 Y36.624
X13.866 Y35.959
X13.535 Y35.277
X13.239 Y34.58
X12.978 Y33.869
X12.752 Y33.146
X12.562 Y32.412
X12.41 Y31.67
X12.295 Y30.921
X12.216 Y30.167
X12.175 Y29.411
X12.172 Y28.653
X12.206 Y27.896
X12.278 Y27.142
X12.387 Y26.392
X12.533 Y25.649
X12.716 Y24.913
X12.934 Y24.188
X13.188 Y23.474
X13.477 Y22.774
X13.801 Y22.089
X14.159 Y21.421
X14.548 Y20.771
X14.97 Y20.141
X15.422 Y19.533
X15.903 Y18.948
X16.413 Y18.388
X16.95 Y17.853
X17.513 Y17.346
X18.1 Y16.867
X18.71 Y16.417
X19.341 Y15.998
X19.992 Y15.611
X20.662 Y15.256
X21.348 Y14.936
X22.05 Y14.649
X22.764 Y14.398
X23.491 Y14.182
X24.227 Y14.002
X24.971 Y13.859
X25.721 Y13.752
X26.475 Y13.683
X27.232 Y13.65
X27.99 Y13.655
X28.746 Y13.697
X29.5 Y13.776
X30.249 Y13.892
X30.991 Y14.044
X31.725 Y14.233
X32.448 Y14.458
X33.16 Y14.717
X33.859 Y15.011
X34.542 Y15.337
X35.209 Y15.697
X35.858 Y16.089
X36.487 Y16.511
X37.095 Y16.963
X37.681 Y17.444
X38.243 Y17.952
X38.78 Y18.486
X39.29 Y19.046
X39.773 Y19.629
X40.228 Y20.236
X40.653 Y20.863
X41.048 Y21.509
X41.412 Y22.174
X41.743 Y22.855
X42.042 Y23.552
X42.307 Y24.261
X42.538 Y24.983
X42.734 Y25.715
X42.895 Y26.455
X43.02 Y27.203
X43.11 Y27.955
X43.163 Y28.711
X43.179 Y29.468
X43.159 Y30.226
X43.102 Y30.981
X43.01 Y31.733
X42.882 Y32.48
X42.718 Y33.22
X42.52 Y33.951
X42.286 Y34.672
X42.018 Y35.381
X41.717 Y36.076
X41.383 Y36.756
X41.017 Y37.419
X40.62 Y38.064
X40.192 Y38.69
X39.734 Y39.293
X39.248 Y39.875
X38.735 Y40.432
X38.196 Y40.965
X37.632 Y41.471
X37.045 Y41.95
X36.436 Y42.4
X35.806 Y42.821
X35.156 Y43.211
X34.489 Y43.569
X33.805 Y43.896
X33.106 Y44.189
X32.395 Y44.449
X31.671 Y44.675
X30.938 Y44.865
X30.196 Y45.021
X29.448 Y45.141
X28.696 Y45.226
X27.939 Y45.276
X27.182 Y45.29
X26.425 Y45.268
X25.669 Y45.211
X24.917 Y45.119
X24.17 Y44.992
X23.43 Y44.83
X22.698 Y44.633
X21.977 Y44.403
X21.267 Y44.138
X20.57 Y43.84
X19.888 Y43.509
X19.223 Y43.147
X18.575 Y42.755
X17.946 Y42.332
X17.337 Y41.881
X16.75 Y41.402
X16.186 Y40.896
X15.646 Y40.365
X15.131 Y39.809
X14.642 Y39.23
X14.18 Y38.63
X13.747 Y38.008
X13.343 Y37.367
X12.97 Y36.708
X12.628 Y36.032
X12.318 Y35.34
X12.04 Y34.635
X11.795 Y33.918
X11.583 Y33.191
X11.405 Y32.454
X11.261 Y31.711
X11.152 Y30.961
X11.077 Y30.207
X11.037 Y29.45
X11.031 Y28.693
X11.06 Y27.936
X11.124 Y27.181
X11.224 Y26.429
X11.358 Y25.684
X11.527 Y24.945
X11.73 Y24.215
X11.966 Y23.495
X12.235 Y22.787
X12.536 Y22.092
X12.869 Y21.411
X13.232 Y20.746
X13.626 Y20.099
X14.049 Y19.47
X14.5 Y18.861
X14.979 Y18.274
X15.484 Y17.709
X16.014 Y17.168
X16.57 Y16.653
X17.148 Y16.164
X17.749 Y15.702
X18.37 Y15.268
X19.011 Y14.863
X19.669 Y14.488
X20.344 Y14.144
X21.034 Y13.831
X21.737 Y13.55
X22.453 Y13.301
X23.179 Y13.085
X23.915 Y12.903
X24.658 Y12.754
X25.407 Y12.64
X26.16 Y12.56
X26.917 Y12.516
X27.674 Y12.507
X28.431 Y12.532
X29.187 Y12.592
X29.939 Y12.686
X30.685 Y12.815
X31.425 Y12.977
X32.157 Y13.172
X32.88 Y13.401
X33.591 Y13.661
X34.29 Y13.954
X34.975 Y14.277
X35.645 Y14.631
X36.298 Y15.015
X36.933 Y15.429
X37.549 Y15.871
X38.144 Y16.34
X38.717 Y16.835
X39.268 Y17.355
X39.795 Y17.9
X40.297 Y18.467
X40.773 Y19.057
X41.223 Y19.666
X41.645 Y20.296
X42.039 Y20.943
X42.404 Y21.607
X42.739 Y22.286
X43.044 Y22.98
X43.317 Y23.686
X43.558 Y24.405
X43.766 Y25.133
X43.942 Y25.87
X44.084 Y26.615
X44.193 Y27.364
X44.269 Y28.118
X44.31 Y28.875
X44.318 Y29.632
X44.292 Y30.39
X44.232 Y31.145
X44.14 Y31.897
X44.013 Y32.644
X43.854 Y33.385
X43.662 Y34.118
X43.437 Y34.841
X43.18 Y35.554
X42.891 Y36.254
X42.57 Y36.941
X42.22 Y37.613
X41.84 Y38.268
X41.431 Y38.906
X40.994 Y39.525
X40.53 Y40.124
X40.04 Y40.702
X39.525 Y41.257
X38.986 Y41.789
X38.423 Y42.297
X37.839 Y42.78
X37.234 Y43.236
X36.609 Y43.664
X36.4 Y43.794
X36.362 Y43.816
X35.108 Y44.5
X34.936 Y44.59
X34.393 Y44.84
X33.731 Y45.087
X32.698 Y45.472
X32.547 Y45.527
X32.181 Y45.627
X32.009 Y45.673
X30.116 Y46.085
X29.943 Y46.116
X29.771 Y46.131
X29.599 Y46.144
X28.05 Y46.255
X27.877 Y46.265
X27.361 Y46.284
X26.844 Y46.247
X25.639 Y46.161
X25.123 Y46.122
X24.951 Y46.099
X22.712 Y45.612
X22.54 Y45.558
X22.451 Y45.527
X22.196 Y45.433
X20.474 Y44.791
X20.302 Y44.721
X19.569 Y44.324
X18.581 Y43.784
X18.334 Y43.636
X18.049 Y43.464
X17.892 Y43.356
X16.342 Y42.196
X16.206 Y42.089
X16.17 Y42.058
X16.021 Y41.917
X14.621 Y40.516
X14.475 Y40.37
X14.449 Y40.338
X14.334 Y40.198
X13.071 Y38.511
X13.05 Y38.479
X12.727 Y37.937
X12.646 Y37.791
X12.083 Y36.76
X11.807 Y36.244
X11.727 Y36.072
X11.005 Y34.138
X10.958 Y34.009
X10.903 Y33.837
X10.861 Y33.665
X10.413 Y31.602
X10.379 Y31.43
X10.22 Y29.196
X10.218 Y29.024
X10.241 Y28.508
X10.364 Y26.789
X10.382 Y26.617
X10.443 Y26.273
X10.477 Y26.101
X10.833 Y24.463
X10.853 Y24.382
X10.945 Y24.038
X11.005 Y23.862
X11.645 Y22.147
X11.694 Y22.029
X11.881 Y21.631
X11.963 Y21.459
X12.902 Y19.74
X13.071 Y19.503
X13.271 Y19.225
X13.416 Y19.029
X14.17 Y18.021
X14.303 Y17.849
X14.449 Y17.663
X14.599 Y17.505
X15.826 Y16.278
X15.998 Y16.111
X16.17 Y15.946
X16.342 Y15.804
X18.064 Y14.515
X18.225 Y14.411
X18.925 Y14.028
X20.13 Y13.37
X20.302 Y13.278
X20.479 Y13.208
X22.024 Y12.631
X22.54 Y12.445
X22.712 Y12.388
X24.951 Y11.901
X25.123 Y11.878
X25.729 Y11.832
X27.189 Y11.728
X27.361 Y11.716
X27.877 Y11.735
X28.05 Y11.745
X29.599 Y11.856
X29.771 Y11.874
X30.288 Y11.953
X30.804 Y12.065
X32.009 Y12.327
X32.089 Y12.348
X32.526 Y12.473
X32.677 Y12.52
X34.247 Y13.106
X34.42 Y13.17
X34.592 Y13.237
X34.764 Y13.312
X36.658 Y14.346
X36.83 Y14.441
X37.002 Y14.565
X38.724 Y15.854
X38.845 Y15.958
X39.068 Y16.173
X40.273 Y17.378
X40.571 Y17.677
X40.617 Y17.738
X41.995 Y19.578
X42.098 Y19.74
X43.131 Y21.631
X43.2 Y21.771
X43.286 Y21.975
X43.355 Y22.147
X43.932 Y23.694
X43.993 Y23.866
X44.146 Y24.382
X44.187 Y24.554
X44.523 Y26.101
X44.555 Y26.273
X44.61 Y26.617
X44.636 Y26.789
X44.759 Y28.508
X44.782 Y29.024
X44.78 Y29.196
X44.621 Y31.43
X44.587 Y31.602
X44.139 Y33.665
X44.096 Y33.837
X43.889 Y34.423
X43.273 Y36.072
X43.196 Y36.244
X43.105 Y36.416
X42.339 Y37.819
X42.259 Y37.963
X42.063 Y38.307
X41.995 Y38.422
X40.666 Y40.198
X40.617 Y40.259
X40.273 Y40.621
X40.182 Y40.714
X38.896 Y41.999
X38.724 Y42.137
X38.551 Y42.273
X38.341 Y42.433
X37.346 Y43.177
X36.83 Y43.544
X36.69 Y43.636
X36.362 Y43.816
G3 X35.783 Y43.487 I-0.179 J-0.358
G1 X35.778 Y43.409 Z-2.992
X35.772 Y43.334 Z-2.97
X35.767 Y43.265 Z-2.933
X35.763 Y43.205 Z-2.883
X35.759 Y43.155 Z-2.822
X35.757 Y43.118 Z-2.753
X35.755 Y43.096 Z-2.678
X35.754 Y43.088 Z-2.6
G0 Z12.
(2D CONTOUR1)
G64 P0.01 Q0.01
G0 Z15.
X43.8 Y28.6
Z15.
Z5.
G1 Z0.8 F333.33
Z-2.6
G18 G2 X44.2 Z-3. I0.4 K0. F1000.
G1 X44.6
G17 G3 X45. Y29. I0. J0.4
X10. I-17.5 J0.
X29.992 Y11.678 I17.5 J0.
X44.291 Y33.932 I-2.492 J17.322
X43.794 Y34.203 I-0.384 J-0.113
G1 X43.41 Y34.091
X43.335 Y34.069 Z-2.992
X43.263 Y34.047 Z-2.97
X43.197 Y34.028 Z-2.933
X43.139 Y34.011 Z-2.883
X43.091 Y33.997 Z-2.822
X43.056 Y33.986 Z-2.753
X43.034 Y33.98 Z-2.678
X43.026 Y33.978 Z-2.6
G0 Z15.
(2D CONTOUR2)
G0 X53.351 Y5.721
Z15.
Z5.
G1 Z0.8 F333.33
Z0.65
X53.35 Y5.729 Z0.572 F1000.
X53.347 Y5.752 Z0.497
X53.343 Y5.788 Z0.428
X53.337 Y5.838 Z0.367
X53.329 Y5.898 Z0.317
X53.321 Y5.966 Z0.28
X53.312 Y6.041 Z0.258
X53.303 Y6.118 Z0.25
X53.255 Y6.516
G3 X52.81 Y6.865 I-0.397 J-0.048
X50.007 Y5.539 Z0.24 I0.587 J-4.865
G2 X47.172 Y4.4 Z0.229 I-2.836 J2.961
G1 X9.828 Z0.107
G2 X6.929 Y5.601 Z0.097 I0. J4.1
G1 X4.101 Y8.429 Z0.083
G2 X2.9 Y11.328 Z0.073 I2.899 J2.899
G1 Y46.672 Z-0.043
G2 X4.101 Y49.571 Z-0.053 I4.1 J0.
G1 X6.929 Y52.399 Z-0.067
G2 X9.828 Y53.6 Z-0.077 I2.899 J-2.899
G1 X47.172 Z-0.199
G2 X50.007 Y52.461 Z-0.21 I0. J-4.1
G3 X53.396 Y51.1 Z-0.222 I3.389 J3.539
G1 X94.119 Z-0.355
G3 X96.881 Y51.952 Z-0.365 I0. J4.9
G2 X105.572 Y50.84 Z-0.396 I3.719 J-5.452
G1 X114.585 Y40.514 Z-0.441
G2 X115.35 Y38.476 Z-0.449 I-2.335 J-2.039
G1 Y15.536 Z-0.524
G2 X114.358 Y13.264 Z-0.532 I-3.1 J0.
G1 X105.089 Y4.662 Z-0.573
G2 X95.597 Y5.196 Z-0.608 I-4.489 J4.838
G3 X91.882 Y6.9 Z-0.622 I-3.715 J-3.196
G1 X53.397 Z-0.748
G3 X50.007 Y5.539 Z-0.76 I0. J-4.9
G2 X47.172 Y4.4 Z-0.771 I-2.836 J2.961
G1 X9.828 Z-0.893
G2 X6.929 Y5.601 Z-0.903 I0. J4.1
G1 X4.101 Y8.429 Z-0.917
G2 X2.9 Y11.328 Z-0.927 I2.899 J2.899
G1 Y46.672 Z-1.043
G2 X4.101 Y49.571 Z-1.053 I4.1 J0.
G1 X6.929 Y52.399 Z-1.067
G2 X9.828 Y53.6 Z-1.077 I2.899 J-2.899
G1 X47.172 Z-1.199
G2 X50.007 Y52.461 Z-1.21 I0. J-4.1
G3 X53.396 Y51.1 Z-1.222 I3.389 J3.539
G1 X94.119 Z-1.355
G3 X96.881 Y51.952 Z-1.365 I0. J4.9
G2 X105.572 Y50.84 Z-1.396 I3.719 J-5.452
G1 X114.585 Y40.514 Z-1.441
G2 X115.35 Y38.476 Z-1.449 I-2.335 J-2.039
G1 Y15.536 Z-1.524
G2 X114.358 Y13.264 Z-1.532 I-3.1 J0.
G1 X105.089 Y4.662 Z-1.573
G2 X95.597 Y5.196 Z-1.608 I-4.489 J4.838
G3 X91.882 Y6.9 Z-1.622 I-3.715 J-3.196
G1 X53.397 Z-1.748
G3 X50.007 Y5.539 Z-1.76 I0. J-4.9
G2 X47.172 Y4.4 Z-1.771 I-2.836 J2.961
G1 X9.828 Z-1.893
G2 X6.929 Y5.601 Z-1.903 I0. J4.1
G1 X4.101 Y8.429 Z-1.917
G2 X2.9 Y11.328 Z-1.927 I2.899 J2.899
G1 Y46.672 Z-2.043
G2 X4.101 Y49.571 Z-2.053 I4.1 J0.
G1 X6.929 Y52.399 Z-2.067
G2 X9.828 Y53.6 Z-2.077 I2.899 J-2.899
G1 X47.172 Z-2.199
G2 X50.007 Y52.461 Z-2.21 I0. J-4.1
G3 X53.396 Y51.1 Z-2.222 I3.389 J3.539
G1 X94.119 Z-2.355
G3 X96.881 Y51.952 Z-2.365 I0. J4.9
G2 X105.572 Y50.84 Z-2.396 I3.719 J-5.452
G1 X114.585 Y40.514 Z-2.441
G2 X115.35 Y38.476 Z-2.449 I-2.335 J-2.039
G1 Y15.536 Z-2.524
G2 X114.358 Y13.264 Z-2.532 I-3.1 J0.
G1 X105.089 Y4.662 Z-2.573
G2 X95.597 Y5.196 Z-2.608 I-4.489 J4.838
G3 X91.882 Y6.9 Z-2.622 I-3.715 J-3.196
G1 X53.397 Z-2.748
G3 X50.007 Y5.539 Z-2.76 I0. J-4.9
G2 X47.172 Y4.4 Z-2.771 I-2.836 J2.961
G1 X9.828 Z-2.893
G2 X6.929 Y5.601 Z-2.903 I0. J4.1
G1 X4.101 Y8.429 Z-2.917
G2 X2.9 Y11.328 Z-2.927 I2.899 J2.899
G1 Y46.672 Z-3.043
G2 X4.101 Y49.571 Z-3.053 I4.1 J0.
G1 X6.929 Y52.399 Z-3.067
G2 X9.828 Y53.6 Z-3.077 I2.899 J-2.899
G1 X47.172 Z-3.199
X47.351 Y53.596 Z-3.2
G2 X50.007 Y52.461 I-0.18 J-4.096
G3 X53.396 Y51.1 I3.389 J3.539
G1 X94.119
G3 X96.881 Y51.952 I0. J4.9
G2 X105.572 Y50.84 I3.719 J-5.452
G1 X114.585 Y40.514
G2 X115.35 Y38.476 I-2.335 J-2.039
G1 Y15.536
G2 X114.358 Y13.264 I-3.1 J0.
G1 X105.089 Y4.662
G2 X95.597 Y5.196 I-4.489 J4.838
G3 X91.882 Y6.9 I-3.715 J-3.196
G1 X53.397
G3 X50.007 Y5.539 I0. J-4.9
G2 X47.172 Y4.4 I-2.836 J2.961
G1 X9.828
G2 X6.929 Y5.601 I0. J4.1
G1 X4.101 Y8.429
G2 X2.9 Y11.328 I2.899 J2.899
G1 Y46.672
G2 X4.101 Y49.571 I4.1 J0.
G1 X6.929 Y52.399
G2 X9.828 Y53.6 I2.899 J-2.899
G1 X47.172
G2 X50.007 Y52.461 I0. J-4.1
G3 X51.736 Y51.39 I3.389 J3.539
G0 Z15.
(2D CONTOUR3)
G0 X2.4 Y28.15
Z15.
Z5.
G1 Z0.8 F333.33
Z-3.1
X2.408 Z-3.138 F1000.
X2.429 Z-3.171
X2.462 Z-3.192
X2.5 Z-3.2
X2.9
X2.938 Y28.158
X2.971 Y28.179
X2.992 Y28.212
X3. Y28.25
Y46.672
G2 X4.172 Y49.5 I4. J0.
G1 X7. Y52.328
G2 X9.828 Y53.5 I2.828 J-2.828
G1 X47.172
G2 X49.938 Y52.389 I0. J-4.
G3 X53.396 Y51. I3.458 J3.611
G1 X94.119
G3 X96.937 Y51.87 I0. J5.
G2 X105.497 Y50.774 I3.663 J-5.37
G1 X114.509 Y40.448
G2 X115.25 Y38.476 I-2.259 J-1.973
G1 Y15.536
G2 X114.29 Y13.337 I-3. J0.
G1 X105.021 Y4.735
G2 X95.673 Y5.261 I-4.421 J4.765
G3 X91.882 Y7. I-3.79 J-3.261
G1 X53.397
G3 X49.938 Y5.611 I0. J-5.
G2 X47.172 Y4.5 I-2.767 J2.889
G1 X9.828
G2 X7. Y5.672 I0. J4.
G1 X4.172 Y8.5
G2 X3. Y11.328 I2.828 J2.828
G1 Y28.25
Y33.25
G0 Z15.
M500
G53 G0 Z0.
(BORE2)
M1
T18 M600
S24000 M300
G17 G90 G94
G54
G0 X83.943 Y23.679
G43 Z15. H18
G0 Z2.
G1 Z0.4 F1300.
G19 G3 Y24.079 Z0. J0.4 K0.
G1 Y24.279
X83.936 Y24.323
X83.916 Y24.363
X83.884 Y24.394
X83.844 Y24.415
X83.8 Y24.422
X83.584 Y24.412 Z-0.002
X83.37 Y24.386 Z-0.004
X83.158 Y24.344 Z-0.006
X82.95 Y24.287 Z-0.008
X82.747 Y24.215 Z-0.009
X82.55 Y24.128 Z-0.011
X82.36 Y24.027 Z-0.013
X82.178 Y23.912 Z-0.015
X82.006 Y23.784 Z-0.017
X81.843 Y23.644 Z-0.019
X81.691 Y23.492 Z-0.021
X81.551 Y23.329 Z-0.023
X81.424 Y23.157 Z-0.024
X81.309 Y22.976 Z-0.026
X81.209 Y22.787 Z-0.028
X81.122 Y22.591 Z-0.03
X81.051 Y22.39 Z-0.032
X80.994 Y22.183 Z-0.034
X80.953 Y21.974 Z-0.036
X80.928 Y21.762 Z-0.038
X80.918 Y21.549 Z-0.039
X80.924 Y21.336 Z-0.041
X80.946 Y21.124 Z-0.043
X80.984 Y20.914 Z-0.045
X81.037 Y20.708 Z-0.047
X81.104 Y20.507 Z-0.049
X81.187 Y20.311 Z-0.051
X81.284 Y20.122 Z-0.053
X81.394 Y19.941 Z-0.055
X81.517 Y19.768 Z-0.056
X81.653 Y19.606 Z-0.058
X81.8 Y19.453 Z-0.06
X81.958 Y19.313 Z-0.062
X82.126 Y19.184 Z-0.064
X82.303 Y19.068 Z-0.066
X82.488 Y18.966 Z-0.068
X82.679 Y18.877 Z-0.07
X82.877 Y18.804 Z-0.071
X83.079 Y18.744 Z-0.073
X83.285 Y18.701 Z-0.075
X83.494 Y18.672 Z-0.077
X83.704 Y18.659 Z-0.079
X83.914 Y18.662 Z-0.081
X84.123 Y18.68 Z-0.083
X84.331 Y18.713 Z-0.085
X84.535 Y18.762 Z-0.086
X84.734 Y18.825 Z-0.088
X84.929 Y18.903 Z-0.09
X85.117 Y18.996 Z-0.092
X85.297 Y19.101 Z-0.094
X85.469 Y19.22 Z-0.096
X85.632 Y19.351 Z-0.098
X85.785 Y19.494 Z-0.1
X85.926 Y19.647 Z-0.102
X86.056 Y19.811 Z-0.103
X86.173 Y19.983 Z-0.105
X86.277 Y20.164 Z-0.107
X86.367 Y20.351 Z-0.109
X86.443 Y20.545 Z-0.111
X86.505 Y20.743 Z-0.113
X86.552 Y20.946 Z-0.115
X86.583 Y21.151 Z-0.117
X86.6 Y21.358 Z-0.118
X86.601 Y21.565 Z-0.12
X86.586 Y21.772 Z-0.122
X86.557 Y21.977 Z-0.124
X86.512 Y22.179 Z-0.126
X86.453 Y22.377 Z-0.128
X86.379 Y22.57 Z-0.13
X86.291 Y22.756 Z-0.132
X86.19 Y22.936 Z-0.133
X86.075 Y23.108 Z-0.135
X85.949 Y23.27 Z-0.137
X85.811 Y23.423 Z-0.139
X85.662 Y23.565 Z-0.141
X85.503 Y23.696 Z-0.143
X85.335 Y23.814 Z-0.145
X85.159 Y23.919 Z-0.147
X84.975 Y24.012 Z-0.149
X84.786 Y24.09 Z-0.15
X84.591 Y24.154 Z-0.152
X84.392 Y24.203 Z-0.154
X84.191 Y24.238 Z-0.156
X83.987 Y24.257 Z-0.158
X83.783 Y24.262 Z-0.16
X83.579 Y24.251 Z-0.162
X83.376 Y24.225 Z-0.164
X83.176 Y24.185 Z-0.165
X82.98 Y24.129 Z-0.167
X82.789 Y24.06 Z-0.169
X82.603 Y23.976 Z-0.171
X82.424 Y23.88 Z-0.173
X82.253 Y23.77 Z-0.175
X82.091 Y23.648 Z-0.177
X81.938 Y23.514 Z-0.179
X81.796 Y23.37 Z-0.18
X81.664 Y23.215 Z-0.182
X81.545 Y23.052 Z-0.184
X81.438 Y22.88 Z-0.186
X81.344 Y22.7 Z-0.188
X81.264 Y22.515 Z-0.19
X81.198 Y22.324 Z-0.192
X81.146 Y22.129 Z-0.194
X81.108 Y21.931 Z-0.196
X81.086 Y21.73 Z-0.197
X81.078 Y21.529 Z-0.199
X81.085 Y21.328 Z-0.201
X81.107 Y21.128 Z-0.203
X81.144 Y20.93 Z-0.205
X81.195 Y20.736 Z-0.207
X81.26 Y20.546 Z-0.209
X81.339 Y20.362 Z-0.211
X81.432 Y20.184 Z-0.212
X81.537 Y20.014 Z-0.214
X81.655 Y19.851 Z-0.216
X81.784 Y19.699 Z-0.218
X81.924 Y19.556 Z-0.22
X82.074 Y19.424 Z-0.222
X82.233 Y19.304 Z-0.224
X82.401 Y19.195 Z-0.226
X82.576 Y19.1 Z-0.227
X82.758 Y19.018 Z-0.229
X82.945 Y18.949 Z-0.231
X83.136 Y18.895 Z-0.233
X83.331 Y18.855 Z-0.235
X83.528 Y18.829 Z-0.237
X83.726 Y18.818 Z-0.239
X83.924 Y18.822 Z-0.241
X84.122 Y18.84 Z-0.243
X84.317 Y18.873 Z-0.244
X84.509 Y18.92 Z-0.246
X84.697 Y18.982 Z-0.248
X84.88 Y19.057 Z-0.25
X85.057 Y19.145 Z-0.252
X85.227 Y19.246 Z-0.254
X85.388 Y19.359 Z-0.256
X85.541 Y19.484 Z-0.258
X85.684 Y19.619 Z-0.259
X85.817 Y19.765 Z-0.261
X85.938 Y19.92 Z-0.263
X86.047 Y20.083 Z-0.265
X86.144 Y20.254 Z-0.267
X86.228 Y20.432 Z-0.269
X86.299 Y20.615 Z-0.271
X86.355 Y20.802 Z-0.273
X86.398 Y20.993 Z-0.274
X86.427 Y21.187 Z-0.276
X86.441 Y21.382 Z-0.278
X86.44 Y21.578 Z-0.28
X86.425 Y21.773 Z-0.282
X86.396 Y21.966 Z-0.284
X86.353 Y22.156 Z-0.286
X86.296 Y22.342 Z-0.288
X86.225 Y22.524 Z-0.29
X86.141 Y22.699 Z-0.291
X86.044 Y22.868 Z-0.293
X85.935 Y23.029 Z-0.295
X85.815 Y23.181 Z-0.297
X85.684 Y23.325 Z-0.299
X85.543 Y23.457 Z-0.301
X85.392 Y23.579 Z-0.303
X85.233 Y23.69 Z-0.305
X85.066 Y23.788 Z-0.306
X84.893 Y23.874 Z-0.308
X84.714 Y23.946 Z-0.31
X84.53 Y24.005 Z-0.312
X84.342 Y24.051 Z-0.314
X84.152 Y24.082 Z-0.316
X83.96 Y24.099 Z-0.318
X83.767 Y24.102 Z-0.32
X83.575 Y24.09 Z-0.321
X83.385 Y24.065 Z-0.323
X83.197 Y24.025 Z-0.325
X83.012 Y23.972 Z-0.327
X82.832 Y23.905 Z-0.329
X82.658 Y23.825 Z-0.331
X82.49 Y23.733 Z-0.333
X82.33 Y23.629 Z-0.335
X82.178 Y23.513 Z-0.337
X82.035 Y23.386 Z-0.338
X81.901 Y23.249 Z-0.34
X81.779 Y23.103 Z-0.342
X81.667 Y22.948 Z-0.344
X81.568 Y22.785 Z-0.346
X81.481 Y22.616 Z-0.348
X81.406 Y22.441 Z-0.35
X81.345 Y22.261 Z-0.352
X81.297 Y22.077 Z-0.353
X81.264 Y21.89 Z-0.355
X81.244 Y21.701 Z-0.357
X81.238 Y21.511 Z-0.359
X81.246 Y21.322 Z-0.361
X81.268 Y21.134 Z-0.363
X81.303 Y20.948 Z-0.365
X81.353 Y20.766 Z-0.367
X81.416 Y20.587 Z-0.368
X81.491 Y20.414 Z-0.37
X81.579 Y20.248 Z-0.372
X81.68 Y20.088 Z-0.374
X81.791 Y19.936 Z-0.376
X81.914 Y19.793 Z-0.378
X82.046 Y19.66 Z-0.38
X82.189 Y19.537 Z-0.382
X82.339 Y19.425 Z-0.384
X82.498 Y19.324 Z-0.385
X82.663 Y19.235 Z-0.387
X82.834 Y19.159 Z-0.389
X83.01 Y19.096 Z-0.391
X83.191 Y19.046 Z-0.393
X83.374 Y19.009 Z-0.395
X83.56 Y18.987 Z-0.397
X83.746 Y18.978 Z-0.399
X83.933 Y18.982 Z-0.4
X84.118 Y19.001 Z-0.402
X84.302 Y19.033 Z-0.404
X84.482 Y19.079 Z-0.406
X84.659 Y19.138 Z-0.408
X84.83 Y19.209 Z-0.41
X84.996 Y19.293 Z-0.412
X85.155 Y19.389 Z-0.414
X85.306 Y19.497 Z-0.415
X85.449 Y19.615 Z-0.417
X85.582 Y19.743 Z-0.419
X85.706 Y19.881 Z-0.421
X85.819 Y20.027 Z-0.423
X85.92 Y20.182 Z-0.425
X86.01 Y20.343 Z-0.427
X86.088 Y20.51 Z-0.429
X86.153 Y20.683 Z-0.431
X86.205 Y20.859 Z-0.432
X86.244 Y21.039 Z-0.434
X86.27 Y21.221 Z-0.436
X86.282 Y21.405 Z-0.438
X86.28 Y21.589 Z-0.44
X86.265 Y21.771 Z-0.442
X86.236 Y21.953 Z-0.444
X86.194 Y22.131 Z-0.446
X86.139 Y22.306 Z-0.447
X86.072 Y22.476 Z-0.449
X85.992 Y22.64 Z-0.451
X85.9 Y22.798 Z-0.453
X85.797 Y22.948 Z-0.455
X85.683 Y23.091 Z-0.457
X85.558 Y23.224 Z-0.459
X85.425 Y23.348 Z-0.461
X85.283 Y23.462 Z-0.462
X85.133 Y23.564 Z-0.464
X84.975 Y23.656 Z-0.466
X84.812 Y23.735 Z-0.468
X84.643 Y23.802 Z-0.47
X84.47 Y23.856 Z-0.472
X84.294 Y23.897 Z-0.474
X84.115 Y23.926 Z-0.476
X83.935 Y23.94 Z-0.478
X83.754 Y23.942 Z-0.479
X83.574 Y23.93 Z-0.481
X83.395 Y23.905 Z-0.483
X83.219 Y23.866 Z-0.485
X83.046 Y23.815 Z-0.487
X82.878 Y23.751 Z-0.489
X82.715 Y23.675 Z-0.491
X82.558 Y23.587 Z-0.493
X82.408 Y23.488 Z-0.494
X82.266 Y23.379 Z-0.496
X82.133 Y23.259 Z-0.498
X82.009 Y23.129 Z-0.5
X81.895 Y22.991 Z-0.502
X81.791 Y22.845 Z-0.504
X81.699 Y22.692 Z-0.506
X81.618 Y22.533 Z-0.508
X81.55 Y22.368 Z-0.509
X81.493 Y22.199 Z-0.511
X81.45 Y22.026 Z-0.513
X81.419 Y21.851 Z-0.515
X81.402 Y21.673 Z-0.517
X81.397 Y21.496 Z-0.519
X81.406 Y21.318 Z-0.521
X81.428 Y21.142 Z-0.523
X81.463 Y20.968 Z-0.525
X81.51 Y20.797 Z-0.526
X81.57 Y20.631 Z-0.528
X81.642 Y20.469 Z-0.53
X81.726 Y20.313 Z-0.532
X81.821 Y20.164 Z-0.534
X81.927 Y20.023 Z-0.536
X82.042 Y19.89 Z-0.538
X82.168 Y19.765 Z-0.54
X82.301 Y19.651 Z-0.541
X82.443 Y19.547 Z-0.543
X82.592 Y19.453 Z-0.545
X82.748 Y19.371 Z-0.547
X82.909 Y19.301 Z-0.549
X83.074 Y19.243 Z-0.551
X83.244 Y19.197 Z-0.553
X83.416 Y19.164 Z-0.555
X83.59 Y19.144 Z-0.556
X83.764 Y19.137 Z-0.558
X83.939 Y19.143 Z-0.56
X84.113 Y19.161 Z-0.562
X84.284 Y19.193 Z-0.564
X84.453 Y19.237 Z-0.566
X84.618 Y19.293 Z-0.568
X84.778 Y19.361 Z-0.57
X84.932 Y19.441 Z-0.572
X85.081 Y19.532 Z-0.573
X85.221 Y19.633 Z-0.575
X85.354 Y19.745 Z-0.577
X85.478 Y19.866 Z-0.579
X85.593 Y19.996 Z-0.581
X85.698 Y20.133 Z-0.583
X85.792 Y20.279 Z-0.585
X85.875 Y20.43 Z-0.587
X85.947 Y20.587 Z-0.588
X86.007 Y20.749 Z-0.59
X86.055 Y20.915 Z-0.592
X86.09 Y21.083 Z-0.594
X86.113 Y21.254 Z-0.596
X86.123 Y21.426 Z-0.598
X86.12 Y21.597 Z-0.6
X86.104 Y21.768 Z-0.602
X86.076 Y21.938 Z-0.603
X86.036 Y22.104 Z-0.605
X85.983 Y22.267 Z-0.607
X85.919 Y22.426 Z-0.609
X85.843 Y22.579 Z-0.611
X85.756 Y22.726 Z-0.613
X85.659 Y22.866 Z-0.615
X85.551 Y22.999 Z-0.617
X85.434 Y23.123 Z-0.619
X85.309 Y23.238 Z-0.62
X85.175 Y23.343 Z-0.622
X85.034 Y23.438 Z-0.624
X84.886 Y23.522 Z-0.626
X84.733 Y23.595 Z-0.628
X84.575 Y23.657 Z-0.63
X84.413 Y23.706 Z-0.632
X84.248 Y23.744 Z-0.634
X84.08 Y23.769 Z-0.635
X83.912 Y23.782 Z-0.637
X83.743 Z-0.639
X83.575 Y23.769 Z-0.641
X83.408 Y23.745 Z-0.643
X83.243 Y23.708 Z-0.645
X83.082 Y23.659 Z-0.647
X82.925 Y23.598 Z-0.649
X82.774 Y23.526 Z-0.65
X82.628 Y23.443 Z-0.652
X82.488 Y23.349 Z-0.654
X82.356 Y23.246 Z-0.656
X82.233 Y23.133 Z-0.658
X82.117 Y23.011 Z-0.66
X82.012 Y22.882 Z-0.662
X81.916 Y22.745 Z-0.664
X81.831 Y22.601 Z-0.666
X81.757 Y22.452 Z-0.667
X81.694 Y22.297 Z-0.669
X81.642 Y22.139 Z-0.671
X81.603 Y21.977 Z-0.673
X81.575 Y21.813 Z-0.675
X81.56 Y21.648 Z-0.677
X81.557 Y21.482 Z-0.679
X81.567 Y21.316 Z-0.681
X81.588 Y21.152 Z-0.682
X81.622 Y20.99 Z-0.684
X81.667 Y20.831 Z-0.686
X81.724 Y20.676 Z-0.688
X81.793 Y20.525 Z-0.69
X81.872 Y20.38 Z-0.692
X81.961 Y20.242 Z-0.694
X82.061 Y20.111 Z-0.696
X82.17 Y19.987 Z-0.697
X82.287 Y19.872 Z-0.699
X82.413 Y19.766 Z-0.701
X82.546 Y19.67 Z-0.703
X82.686 Y19.584 Z-0.705
X82.831 Y19.509 Z-0.707
X82.982 Y19.444 Z-0.709
X83.136 Y19.391 Z-0.711
X83.295 Y19.35 Z-0.713
X83.455 Y19.32 Z-0.714
X83.617 Y19.302 Z-0.716
X83.78 Y19.297 Z-0.718
X83.943 Y19.303 Z-0.72
X84.105 Y19.322 Z-0.722
X84.265 Y19.352 Z-0.724
X84.422 Y19.394 Z-0.726
X84.575 Y19.447 Z-0.728
X84.724 Y19.512 Z-0.729
X84.867 Y19.587 Z-0.731
X85.005 Y19.673 Z-0.733
X85.135 Y19.769 Z-0.735
X85.259 Y19.874 Z-0.737
X85.373 Y19.987 Z-0.739
X85.48 Y20.109 Z-0.741
X85.576 Y20.238 Z-0.743
X85.663 Y20.374 Z-0.744
X85.74 Y20.515 Z-0.746
X85.805 Y20.662 Z-0.748
X85.86 Y20.813 Z-0.75
X85.903 Y20.968 Z-0.752
X85.935 Y21.125 Z-0.754
X85.955 Y21.284 Z-0.756
X85.963 Y21.444 Z-0.758
X85.96 Y21.604 Z-0.76
X85.944 Y21.763 Z-0.761
X85.917 Y21.921 Z-0.763
X85.878 Y22.076 Z-0.765
X85.828 Y22.227 Z-0.767
X85.767 Y22.374 Z-0.769
X85.696 Y22.516 Z-0.771
X85.614 Y22.653 Z-0.773
X85.522 Y22.782 Z-0.775
X85.421 Y22.905 Z-0.776
X85.311 Y23.02 Z-0.778
X85.194 Y23.126 Z-0.78
X85.069 Y23.223 Z-0.782
X84.937 Y23.31 Z-0.784
X84.799 Y23.388 Z-0.786
X84.656 Y23.455 Z-0.788
X84.508 Y23.511 Z-0.79
X84.357 Y23.556 Z-0.791
X84.203 Y23.59 Z-0.793
X84.048 Y23.612 Z-0.795
X83.891 Y23.623 Z-0.797
X83.734 Y23.622 Z-0.799
X83.577 Y23.609 Z-0.801
X83.422 Y23.585 Z-0.803
X83.27 Y23.549 Z-0.805
X83.12 Y23.503 Z-0.807
X82.975 Y23.445 Z-0.808
X82.834 Y23.377 Z-0.81
X82.699 Y23.299 Z-0.812
X82.57 Y23.211 Z-0.814
X82.448 Y23.114 Z-0.816
X82.334 Y23.009 Z-0.818
X82.228 Y22.895 Z-0.82
X82.13 Y22.774 Z-0.822
X82.042 Y22.646 Z-0.823
X81.964 Y22.512 Z-0.825
X81.896 Y22.372 Z-0.827
X81.838 Y22.229 Z-0.829
X81.792 Y22.081 Z-0.831
X81.756 Y21.931 Z-0.833
X81.732 Y21.778 Z-0.835
X81.719 Y21.624 Z-0.837
X81.717 Y21.47 Z-0.838
X81.727 Y21.316 Z-0.84
X81.748 Y21.164 Z-0.842
X81.78 Y21.014 Z-0.844
X81.824 Y20.866 Z-0.846
X81.878 Y20.723 Z-0.848
X81.942 Y20.583 Z-0.85
X82.016 Y20.45 Z-0.852
X82.101 Y20.322 Z-0.854
X82.194 Y20.2 Z-0.855
X82.296 Y20.087 Z-0.857
X82.405 Y19.981 Z-0.859
X82.523 Y19.883 Z-0.861
X82.647 Y19.795 Z-0.863
X82.777 Y19.716 Z-0.865
X82.913 Y19.647 Z-0.867
X83.053 Y19.588 Z-0.869
X83.197 Y19.54 Z-0.87
X83.344 Y19.502 Z-0.872
X83.493 Y19.476 Z-0.874
X83.643 Y19.461 Z-0.876
X83.795 Y19.456 Z-0.878
X83.946 Y19.463 Z-0.88
X84.095 Y19.482 Z-0.882
X84.243 Y19.511 Z-0.884
X84.389 Y19.551 Z-0.885
X84.531 Y19.602 Z-0.887
X84.668 Y19.662 Z-0.889
X84.801 Y19.733 Z-0.891
X84.927 Y19.814 Z-0.893
X85.048 Y19.903 Z-0.895
X85.161 Y20.001 Z-0.897
X85.267 Y20.107 Z-0.899
X85.364 Y20.221 Z-0.901
X85.453 Y20.341 Z-0.902
X85.533 Y20.467 Z-0.904
X85.603 Y20.599 Z-0.906
X85.663 Y20.735 Z-0.908
X85.712 Y20.876 Z-0.91
X85.751 Y21.019 Z-0.912
X85.78 Y21.165 Z-0.914
X85.797 Y21.313 Z-0.916
X85.804 Y21.461 Z-0.917
X85.799 Y21.609 Z-0.919
X85.784 Y21.756 Z-0.921
X85.758 Y21.902 Z-0.923
X85.721 Y22.045 Z-0.925
X85.674 Y22.185 Z-0.927
X85.616 Y22.321 Z-0.929
X85.549 Y22.452 Z-0.931
X85.472 Y22.577 Z-0.932
X85.386 Y22.697 Z-0.934
X85.292 Y22.81 Z-0.936
X85.19 Y22.915 Z-0.938
X85.08 Y23.012 Z-0.94
X84.964 Y23.101 Z-0.942
X84.841 Y23.181 Z-0.944
X84.713 Y23.252 Z-0.946
X84.58 Y23.313 Z-0.948
X84.444 Y23.364 Z-0.949
X84.304 Y23.405 Z-0.951
X84.161 Y23.435 Z-0.953
X84.017 Y23.455 Z-0.955
X83.872 Y23.463 Z-0.957
X83.726 Y23.461 Z-0.959
X83.582 Y23.449 Z-0.961
X83.439 Y23.425 Z-0.963
X83.298 Y23.392 Z-0.964
X83.16 Y23.348 Z-0.966
X83.026 Y23.293 Z-0.968
X82.896 Y23.23 Z-0.97
X82.772 Y23.157 Z-0.972
X82.653 Y23.074 Z-0.974
X82.541 Y22.984 Z-0.976
X82.436 Y22.886 Z-0.978
X82.339 Y22.78 Z-0.979
X82.25 Y22.667 Z-0.981
X82.17 Y22.548 Z-0.983
X82.098 Y22.424 Z-0.985
X82.036 Y22.295 Z-0.987
X81.984 Y22.162 Z-0.989
X81.942 Y22.025 Z-0.991
X81.91 Y21.886 Z-0.993
X81.889 Y21.745 Z-0.995
X81.878 Y21.603 Z-0.996
X81.877 Y21.46 Z-0.998
X81.887 Y21.319 Z-1.
X81.908 Y21.178 Z-1.002
X81.938 Y21.039 Z-1.004
X81.979 Y20.904 Z-1.006
X82.03 Y20.771 Z-1.008
X82.091 Y20.643 Z-1.01
X82.16 Y20.52 Z-1.011
X82.239 Y20.403 Z-1.013
X82.325 Y20.292 Z-1.015
X82.42 Y20.187 Z-1.017
X82.522 Y20.09 Z-1.019
X82.631 Y20.001 Z-1.021
X82.746 Y19.92 Z-1.023
X82.867 Y19.848 Z-1.025
X82.992 Y19.786 Z-1.026
X83.122 Y19.732 Z-1.028
X83.255 Y19.689 Z-1.03
X83.391 Y19.655 Z-1.032
X83.528 Y19.632 Z-1.034
X83.667 Y19.619 Z-1.036
X83.807 Y19.616 Z-1.038
X83.946 Y19.624 Z-1.04
X84.084 Y19.642 Z-1.042
X84.22 Y19.669 Z-1.043
X84.354 Y19.707 Z-1.045
X84.484 Y19.755 Z-1.047
X84.61 Y19.812 Z-1.049
X84.732 Y19.878 Z-1.051
X84.848 Y19.953 Z-1.053
X84.959 Y20.036 Z-1.055
X85.062 Y20.127 Z-1.057
X85.159 Y20.226 Z-1.058
X85.248 Y20.331 Z-1.06
X85.329 Y20.442 Z-1.062
X85.401 Y20.559 Z-1.064
X85.465 Y20.681 Z-1.066
X85.519 Y20.807 Z-1.068
X85.564 Y20.936 Z-1.07
X85.599 Y21.069 Z-1.072
X85.624 Y21.203 Z-1.073
X85.639 Y21.339 Z-1.075
X85.644 Y21.475 Z-1.077
X85.639 Y21.612 Z-1.079
X85.624 Y21.747 Z-1.081
X85.599 Y21.881 Z-1.083
X85.564 Y22.012 Z-1.085
X85.519 Y22.141 Z-1.087
X85.466 Y22.265 Z-1.089
X85.403 Y22.385 Z-1.09
X85.332 Y22.5 Z-1.092
X85.252 Y22.61 Z-1.094
X85.164 Y22.713 Z-1.096
X85.07 Y22.809 Z-1.098
X84.968 Y22.898 Z-1.1
X84.861 Y22.979 Z-1.102
X84.747 Y23.052 Z-1.104
X84.629 Y23.116 Z-1.105
X84.507 Y23.171 Z-1.107
X84.381 Y23.217 Z-1.109
X84.252 Y23.253 Z-1.111
X84.121 Y23.28 Z-1.113
X83.988 Y23.297 Z-1.115
X83.855 Y23.304 Z-1.117
X83.721 Y23.301 Z-1.119
X83.588 Y23.289 Z-1.12
X83.457 Y23.266 Z-1.122
X83.328 Y23.234 Z-1.124
X83.202 Y23.193 Z-1.126
X83.079 Y23.142 Z-1.128
X82.96 Y23.083 Z-1.13
X82.847 Y23.015 Z-1.132
X82.738 Y22.939 Z-1.134
X82.636 Y22.855 Z-1.136
X82.541 Y22.764 Z-1.137
X82.452 Y22.666 Z-1.139
X82.371 Y22.562 Z-1.141
X82.298 Y22.452 Z-1.143
X82.233 Y22.338 Z-1.145
X82.177 Y22.219 Z-1.147
X82.13 Y22.097 Z-1.149
X82.093 Y21.971 Z-1.151
X82.064 Y21.843 Z-1.152
X82.046 Y21.714 Z-1.154
X82.037 Y21.583 Z-1.156
Y21.453 Z-1.158
X82.047 Y21.323 Z-1.16
X82.067 Y21.194 Z-1.162
X82.096 Y21.067 Z-1.164
X82.135 Y20.943 Z-1.166
X82.182 Y20.822 Z-1.167
X82.238 Y20.705 Z-1.169
X82.303 Y20.593 Z-1.171
X82.376 Y20.486 Z-1.173
X82.456 Y20.385 Z-1.175
X82.544 Y20.29 Z-1.177
X82.638 Y20.201 Z-1.179
X82.738 Y20.121 Z-1.181
X82.844 Y20.047 Z-1.183
X82.955 Y19.982 Z-1.184
X83.07 Y19.926 Z-1.186
X83.189 Y19.878 Z-1.188
X83.311 Y19.839 Z-1.19
X83.436 Y19.809 Z-1.192
X83.562 Y19.789 Z-1.194
X83.689 Y19.778 Z-1.196
X83.817 Y19.776 Z-1.198
X83.944 Y19.784 Z-1.199
X84.07 Y19.801 Z-1.201
X84.195 Y19.828 Z-1.203
X84.317 Y19.863 Z-1.205
X84.436 Y19.908 Z-1.207
X84.551 Y19.961 Z-1.209
X84.662 Y20.022 Z-1.211
X84.768 Y20.091 Z-1.213
X84.868 Y20.168 Z-1.214
X84.962 Y20.252 Z-1.216
X85.05 Y20.343 Z-1.218
X85.13 Y20.439 Z-1.22
X85.204 Y20.542 Z-1.222
X85.269 Y20.649 Z-1.224
X85.326 Y20.761 Z-1.226
X85.375 Y20.876 Z-1.228
X85.415 Y20.995 Z-1.23
X85.446 Y21.116 Z-1.231
X85.468 Y21.239 Z-1.233
X85.481 Y21.363 Z-1.235
X85.484 Y21.488 Z-1.237
X85.479 Y21.613 Z-1.239
X85.464 Y21.736 Z-1.241
X85.44 Y21.858 Z-1.243
X85.408 Y21.978 Z-1.245
X85.366 Y22.095 Z-1.246
X85.316 Y22.208 Z-1.248
X85.258 Y22.317 Z-1.25
X85.192 Y22.422 Z-1.252
X85.119 Y22.521 Z-1.254
X85.038 Y22.614 Z-1.256
X84.951 Y22.701 Z-1.258
X84.858 Y22.782 Z-1.26
X84.759 Y22.855 Z-1.261
X84.655 Y22.921 Z-1.263
X84.547 Y22.978 Z-1.265
X84.435 Y23.028 Z-1.267
X84.32 Y23.069 Z-1.269
X84.202 Y23.101 Z-1.271
X84.082 Y23.124 Z-1.273
X83.961 Y23.139 Z-1.275
X83.839 Y23.145 Z-1.277
X83.718 Y23.141 Z-1.278
X83.597 Y23.129 Z-1.28
X83.478 Y23.107 Z-1.282
X83.36 Y23.077 Z-1.284
X83.245 Y23.039 Z-1.286
X83.134 Y22.992 Z-1.288
X83.026 Y22.937 Z-1.29
X82.923 Y22.874 Z-1.292
X82.825 Y22.804 Z-1.293
X82.733 Y22.727 Z-1.295
X82.646 Y22.643 Z-1.297
X82.566 Y22.554 Z-1.299
X82.493 Y22.459 Z-1.301
X82.428 Y22.358 Z-1.303
X82.37 Y22.254 Z-1.305
X82.319 Y22.145 Z-1.307
X82.278 Y22.033 Z-1.308
X82.244 Y21.919 Z-1.31
X82.219 Y21.802 Z-1.312
X82.203 Y21.684 Z-1.314
X82.196 Y21.566 Z-1.316
X82.197 Y21.447 Z-1.318
X82.207 Y21.329 Z-1.32
X82.226 Y21.212 Z-1.322
X82.254 Y21.097 Z-1.324
X82.289 Y20.984 Z-1.325
X82.333 Y20.875 Z-1.327
X82.385 Y20.769 Z-1.329
X82.445 Y20.667 Z-1.331
X82.512 Y20.57 Z-1.333
X82.585 Y20.479 Z-1.335
X82.665 Y20.393 Z-1.337
X82.752 Y20.314 Z-1.339
X82.843 Y20.241 Z-1.34
X82.94 Y20.175 Z-1.342
X83.041 Y20.117 Z-1.344
X83.146 Y20.067 Z-1.346
X83.255 Y20.024 Z-1.348
X83.366 Y19.989 Z-1.35
X83.479 Y19.963 Z-1.352
X83.594 Y19.946 Z-1.354
X83.709 Y19.937 Z-1.355
X83.825 Y19.936 Z-1.357
X83.941 Y19.944 Z-1.359
X84.055 Y19.961 Z-1.361
X84.168 Y19.985 Z-1.363
X84.278 Y20.019 Z-1.365
X84.385 Y20.06 Z-1.367
X84.49 Y20.109 Z-1.369
X84.59 Y20.165 Z-1.371
X84.685 Y20.229 Z-1.372
X84.775 Y20.299 Z-1.374
X84.86 Y20.376 Z-1.376
X84.939 Y20.458 Z-1.378
X85.011 Y20.547 Z-1.38
X85.077 Y20.64 Z-1.382
X85.136 Y20.737 Z-1.384
X85.187 Y20.839 Z-1.386
X85.23 Y20.944 Z-1.387
X85.265 Y21.052 Z-1.389
X85.293 Y21.162 Z-1.391
X85.312 Y21.273 Z-1.393
X85.322 Y21.386 Z-1.395
X85.325 Y21.499 Z-1.397
X85.319 Y21.611 Z-1.399
X85.305 Y21.723 Z-1.401
X85.282 Y21.833 Z-1.402
X85.252 Y21.941 Z-1.404
X85.213 Y22.047 Z-1.406
X85.167 Y22.149 Z-1.408
X85.114 Y22.247 Z-1.41
X85.054 Y22.341 Z-1.412
X84.986 Y22.431 Z-1.414
X84.913 Y22.514 Z-1.416
X84.834 Y22.593 Z-1.418
X84.749 Y22.665 Z-1.419
X84.659 Y22.73 Z-1.421
X84.565 Y22.788 Z-1.423
X84.467 Y22.84 Z-1.425
X84.365 Y22.884 Z-1.427
X84.261 Y22.92 Z-1.429
X84.154 Y22.948 Z-1.431
X84.046 Y22.969 Z-1.433
X83.936 Y22.981 Z-1.434
X83.826 Y22.985 Z-1.436
X83.717 Y22.981 Z-1.438
X83.608 Y22.969 Z-1.44
X83.5 Y22.949 Z-1.442
X83.394 Y22.921 Z-1.444
X83.291 Y22.885 Z-1.446
X83.191 Y22.842 Z-1.448
X83.094 Y22.792 Z-1.449
X83.001 Y22.734 Z-1.451
X82.914 Y22.671 Z-1.453
X82.831 Y22.6 Z-1.455
X82.753 Y22.524 Z-1.457
X82.682 Y22.443 Z-1.459
X82.617 Y22.357 Z-1.461
X82.558 Y22.266 Z-1.463
X82.507 Y22.171 Z-1.465
X82.462 Y22.073 Z-1.466
X82.425 Y21.972 Z-1.468
X82.396 Y21.868 Z-1.47
X82.375 Y21.763 Z-1.472
X82.361 Y21.657 Z-1.474
X82.355 Y21.55 Z-1.476
X82.357 Y21.443 Z-1.478
X82.367 Y21.337 Z-1.48
X82.385 Y21.232 Z-1.481
X82.411 Y21.128 Z-1.483
X82.444 Y21.027 Z-1.485
X82.484 Y20.929 Z-1.487
X82.531 Y20.834 Z-1.489
X82.586 Y20.743 Z-1.491
X82.647 Y20.657 Z-1.493
X82.713 Y20.575 Z-1.495
X82.786 Y20.499 Z-1.496
X82.864 Y20.428 Z-1.498
X82.947 Y20.363 Z-1.5
X83.035 Y20.305 Z-1.502
X83.126 Y20.253 Z-1.504
X83.221 Y20.208 Z-1.506
X83.318 Y20.171 Z-1.508
X83.418 Y20.141 Z-1.51
X83.52 Y20.118 Z-1.512
X83.624 Y20.103 Z-1.513
X83.727 Y20.096 Z-1.515
X83.831 Z-1.517
X83.935 Y20.104 Z-1.519
X84.037 Y20.12 Z-1.521
X84.138 Y20.143 Z-1.523
X84.237 Y20.173 Z-1.525
X84.333 Y20.211 Z-1.527
X84.426 Y20.256 Z-1.528
X84.516 Y20.307 Z-1.53
X84.601 Y20.365 Z-1.532
X84.681 Y20.428 Z-1.534
X84.757 Y20.498 Z-1.536
X84.827 Y20.573 Z-1.538
X84.891 Y20.652 Z-1.54
X84.949 Y20.736 Z-1.542
X85.001 Y20.824 Z-1.543
X85.046 Y20.916 Z-1.545
X85.084 Y21.01 Z-1.547
X85.115 Y21.107 Z-1.549
X85.139 Y21.206 Z-1.551
X85.155 Y21.306 Z-1.553
X85.164 Y21.406 Z-1.555
X85.165 Y21.507 Z-1.557
X85.159 Y21.608 Z-1.559
X85.145 Y21.708 Z-1.56
X85.124 Y21.806 Z-1.562
X85.096 Y21.903 Z-1.564
X85.061 Y21.997 Z-1.566
X85.019 Y22.088 Z-1.568
X84.971 Y22.176 Z-1.57
X84.916 Y22.259 Z-1.572
X84.855 Y22.339 Z-1.574
X84.789 Y22.413 Z-1.575
X84.718 Y22.482 Z-1.577
X84.641 Y22.546 Z-1.579
X84.561 Y22.604 Z-1.581
X84.476 Y22.655 Z-1.583
X84.388 Y22.7 Z-1.585
X84.297 Y22.739 Z-1.587
X84.203 Y22.77 Z-1.589
X84.108 Y22.795 Z-1.59
X84.011 Y22.812 Z-1.592
X83.913 Y22.822 Z-1.594
X83.815 Y22.825 Z-1.596
X83.717 Y22.821 Z-1.598
X83.62 Y22.809 Z-1.6
X83.524 Y22.791 Z-1.602
X83.43 Y22.765 Z-1.604
X83.338 Y22.732 Z-1.606
X83.249 Y22.693 Z-1.607
X83.163 Y22.648 Z-1.609
X83.081 Y22.596 Z-1.611
X83.004 Y22.538 Z-1.613
X82.93 Y22.475 Z-1.615
X82.862 Y22.407 Z-1.617
X82.799 Y22.334 Z-1.619
X82.741 Y22.256 Z-1.621
X82.69 Y22.175 Z-1.622
X82.645 Y22.09 Z-1.624
X82.606 Y22.003 Z-1.626
X82.574 Y21.912 Z-1.628
X82.549 Y21.82 Z-1.63
X82.53 Y21.726 Z-1.632
X82.519 Y21.632 Z-1.634
X82.515 Y21.537 Z-1.636
X82.517 Y21.442 Z-1.637
X82.527 Y21.347 Z-1.639
X82.544 Y21.254 Z-1.641
X82.567 Y21.162 Z-1.643
X82.597 Y21.072 Z-1.645
X82.634 Y20.985 Z-1.647
X82.677 Y20.902 Z-1.649
X82.726 Y20.821 Z-1.651
X82.78 Y20.745 Z-1.653
X82.84 Y20.673 Z-1.654
X82.905 Y20.605 Z-1.656
X82.975 Y20.543 Z-1.658
X83.049 Y20.486 Z-1.66
X83.127 Y20.435 Z-1.662
X83.209 Y20.39 Z-1.664
X83.293 Y20.351 Z-1.666
X83.38 Y20.318 Z-1.668
X83.469 Y20.292 Z-1.669
X83.56 Y20.273 Z-1.671
X83.651 Y20.261 Z-1.673
X83.743 Y20.255 Z-1.675
X83.836 Y20.256 Z-1.677
X83.927 Y20.264 Z-1.679
X84.018 Y20.278 Z-1.681
X84.107 Y20.3 Z-1.683
X84.195 Y20.328 Z-1.684
X84.279 Y20.362 Z-1.686
X84.361 Y20.402 Z-1.688
X84.44 Y20.448 Z-1.69
X84.515 Y20.5 Z-1.692
X84.586 Y20.557 Z-1.694
X84.652 Y20.619 Z-1.696
X84.713 Y20.685 Z-1.698
X84.77 Y20.756 Z-1.7
X84.82 Y20.831 Z-1.701
X84.865 Y20.909 Z-1.703
X84.905 Y20.99 Z-1.705
X84.937 Y21.074 Z-1.707
X84.964 Y21.16 Z-1.709
X84.984 Y21.247 Z-1.711
X84.998 Y21.336 Z-1.713
X85.005 Y21.425 Z-1.715
Y21.514 Z-1.716
X84.999 Y21.603 Z-1.718
X84.986 Y21.691 Z-1.72
X84.967 Y21.778 Z-1.722
X84.941 Y21.863 Z-1.724
X84.91 Y21.945 Z-1.726
X84.872 Y22.025 Z-1.728
X84.829 Y22.102 Z-1.73
X84.78 Y22.176 Z-1.731
X84.726 Y22.245 Z-1.733
X84.667 Y22.31 Z-1.735
X84.603 Y22.371 Z-1.737
X84.535 Y22.426 Z-1.739
X84.464 Y22.476 Z-1.741
X84.389 Y22.521 Z-1.743
X84.311 Y22.56 Z-1.745
X84.231 Y22.593 Z-1.747
X84.148 Y22.62 Z-1.748
X84.064 Y22.641 Z-1.75
X83.979 Y22.656 Z-1.752
X83.892 Y22.664 Z-1.754
X83.806 Y22.666 Z-1.756
X83.72 Y22.661 Z-1.758
X83.635 Y22.65 Z-1.76
X83.551 Y22.633 Z-1.762
X83.468 Y22.61 Z-1.763
X83.388 Y22.58 Z-1.765
X83.31 Y22.545 Z-1.767
X83.235 Y22.504 Z-1.769
X83.163 Y22.458 Z-1.771
X83.095 Y22.407 Z-1.773
X83.031 Y22.351 Z-1.775
X82.972 Y22.291 Z-1.777
X82.917 Y22.226 Z-1.778
X82.867 Y22.158 Z-1.78
X82.823 Y22.086 Z-1.782
X82.784 Y22.011 Z-1.784
X82.751 Y21.934 Z-1.786
X82.723 Y21.855 Z-1.788
X82.702 Y21.774 Z-1.79
X82.686 Y21.691 Z-1.792
X82.677 Y21.608 Z-1.794
X82.674 Y21.525 Z-1.795
X82.677 Y21.442 Z-1.797
X82.686 Y21.359 Z-1.799
X82.702 Y21.278 Z-1.801
X82.723 Y21.198 Z-1.803
X82.75 Y21.119 Z-1.805
X82.783 Y21.044 Z-1.807
X82.821 Y20.971 Z-1.809
X82.864 Y20.901 Z-1.81
X82.913 Y20.834 Z-1.812
X82.966 Y20.772 Z-1.814
X83.023 Y20.713 Z-1.816
X83.085 Y20.66 Z-1.818
X83.15 Y20.61 Z-1.82
X83.218 Y20.566 Z-1.822
X83.29 Y20.528 Z-1.824
X83.364 Y20.494 Z-1.825
X83.44 Y20.467 Z-1.827
X83.518 Y20.445 Z-1.829
X83.597 Y20.429 Z-1.831
X83.677 Y20.418 Z-1.833
X83.757 Y20.414 Z-1.835
X83.838 Y20.416 Z-1.837
X83.918 Y20.423 Z-1.839
X83.997 Y20.437 Z-1.841
X84.074 Y20.456 Z-1.842
X84.15 Y20.481 Z-1.844
X84.224 Y20.512 Z-1.846
X84.295 Y20.547 Z-1.848
X84.363 Y20.588 Z-1.85
X84.427 Y20.634 Z-1.852
X84.489 Y20.684 Z-1.854
X84.546 Y20.738 Z-1.856
X84.599 Y20.797 Z-1.857
X84.647 Y20.859 Z-1.859
X84.69 Y20.924 Z-1.861
X84.729 Y20.993 Z-1.863
X84.762 Y21.063 Z-1.865
X84.79 Y21.136 Z-1.867
X84.812 Y21.211 Z-1.869
X84.829 Y21.287 Z-1.871
X84.84 Y21.364 Z-1.872
X84.846 Y21.441 Z-1.874
X84.845 Y21.519 Z-1.876
X84.839 Y21.596 Z-1.878
X84.827 Y21.672 Z-1.88
X84.81 Y21.747 Z-1.882
X84.787 Y21.82 Z-1.884
X84.759 Y21.892 Z-1.886
X84.726 Y21.961 Z-1.888
X84.687 Y22.027 Z-1.889
X84.645 Y22.09 Z-1.891
X84.597 Y22.15 Z-1.893
X84.546 Y22.206 Z-1.895
X84.49 Y22.257 Z-1.897
X84.431 Y22.305 Z-1.899
X84.369 Y22.348 Z-1.901
X84.304 Y22.386 Z-1.903
X84.236 Y22.419 Z-1.904
X84.166 Y22.447 Z-1.906
X84.095 Y22.47 Z-1.908
X84.022 Y22.487 Z-1.91
X83.948 Y22.499 Z-1.912
X83.874 Y22.505 Z-1.914
X83.799 Y22.506 Z-1.916
X83.725 Y22.501 Z-1.918
X83.651 Y22.491 Z-1.919
X83.579 Y22.475 Z-1.921
X83.508 Y22.455 Z-1.923
X83.439 Y22.429 Z-1.925
X83.372 Y22.398 Z-1.927
X83.308 Y22.362 Z-1.929
X83.246 Y22.322 Z-1.931
X83.188 Y22.277 Z-1.933
X83.134 Y22.228 Z-1.935
X83.083 Y22.176 Z-1.936
X83.037 Y22.12 Z-1.938
X82.994 Y22.061 Z-1.94
X82.957 Y21.998 Z-1.942
X82.924 Y21.934 Z-1.944
X82.896 Y21.867 Z-1.946
X82.873 Y21.799 Z-1.948
X82.855 Y21.729 Z-1.95
X82.843 Y21.658 Z-1.951
X82.836 Y21.587 Z-1.953
X82.834 Y21.515 Z-1.955
X82.837 Y21.444 Z-1.957
X82.846 Y21.373 Z-1.959
X82.86 Y21.303 Z-1.961
X82.879 Y21.235 Z-1.963
X82.902 Y21.168 Z-1.965
X82.931 Y21.104 Z-1.966
X82.964 Y21.041 Z-1.968
X83.002 Y20.982 Z-1.97
X83.044 Y20.925 Z-1.972
X83.09 Y20.872 Z-1.974
X83.14 Y20.823 Z-1.976
X83.193 Y20.777 Z-1.978
X83.249 Y20.736 Z-1.98
X83.308 Y20.699 Z-1.982
X83.369 Y20.667 Z-1.983
X83.433 Y20.639 Z-1.985
X83.498 Y20.616 Z-1.987
X83.565 Y20.598 Z-1.989
X83.633 Y20.585 Z-1.991
X83.701 Y20.577 Z-1.993
X83.77 Y20.574 Z-1.995
X83.838 Y20.576 Z-1.997
X83.906 Y20.583 Z-1.998
X83.973 Y20.595 Z-2.
X84.039 Y20.612 Z-2.002
X84.103 Y20.634 Z-2.004
X84.166 Y20.661 Z-2.006
X84.226 Y20.692 Z-2.008
X84.284 Y20.727 Z-2.01
X84.338 Y20.766 Z-2.012
X84.39 Y20.81 Z-2.014
X84.438 Y20.856 Z-2.015
X84.482 Y20.907 Z-2.017
X84.523 Y20.96 Z-2.019
X84.559 Y21.016 Z-2.021
X84.591 Y21.074 Z-2.023
X84.619 Y21.134 Z-2.025
X84.642 Y21.197 Z-2.027
X84.66 Y21.26 Z-2.029
X84.674 Y21.325 Z-2.03
X84.682 Y21.39 Z-2.032
X84.686 Y21.456 Z-2.034
X84.685 Y21.521 Z-2.036
X84.679 Y21.587 Z-2.038
X84.669 Y21.651 Z-2.04
X84.653 Y21.714 Z-2.042
X84.633 Y21.776 Z-2.044
X84.609 Y21.836 Z-2.045
X84.58 Y21.894 Z-2.047
X84.547 Y21.95 Z-2.049
X84.51 Y22.003 Z-2.051
X84.47 Y22.053 Z-2.053
X84.426 Y22.1 Z-2.055
X84.378 Y22.143 Z-2.057
X84.328 Y22.182 Z-2.059
X84.275 Y22.218 Z-2.061
X84.22 Y22.25 Z-2.062
X84.163 Y22.277 Z-2.064
X84.104 Y22.3 Z-2.066
X84.043 Y22.318 Z-2.068
X83.981 Y22.332 Z-2.07
X83.919 Y22.341 Z-2.072
X83.857 Y22.346 Z-2.074
X83.794 Z-2.076
X83.732 Y22.341 Z-2.077
X83.67 Y22.332 Z-2.079
X83.609 Y22.318 Z-2.081
X83.55 Y22.3 Z-2.083
X83.492 Y22.278 Z-2.085
X83.436 Y22.251 Z-2.087
X83.382 Y22.221 Z-2.089
X83.331 Y22.186 Z-2.091
X83.283 Y22.148 Z-2.092
X83.238 Y22.107 Z-2.094
X83.196 Y22.062 Z-2.096
X83.157 Y22.015 Z-2.098
X83.123 Y21.965 Z-2.1
X83.092 Y21.913 Z-2.102
X83.065 Y21.858 Z-2.104
X83.042 Y21.802 Z-2.106
X83.024 Y21.745 Z-2.108
X83.01 Y21.686 Z-2.109
X83. Y21.627 Z-2.111
X82.994 Y21.568 Z-2.113
X82.993 Y21.508 Z-2.115
X82.997 Y21.448 Z-2.117
X83.005 Y21.389 Z-2.119
X83.017 Y21.331 Z-2.121
X83.033 Y21.274 Z-2.123
X83.054 Y21.219 Z-2.124
X83.079 Y21.165 Z-2.126
X83.107 Y21.114 Z-2.128
X83.139 Y21.065 Z-2.13
X83.174 Y21.018 Z-2.132
X83.213 Y20.975 Z-2.134
X83.255 Y20.934 Z-2.136
X83.299 Y20.897 Z-2.138
X83.346 Y20.863 Z-2.139
X83.396 Y20.833 Z-2.141
X83.447 Y20.806 Z-2.143
X83.5 Y20.784 Z-2.145
X83.554 Y20.765 Z-2.147
X83.61 Y20.751 Z-2.149
X83.666 Y20.741 Z-2.151
X83.723 Y20.735 Z-2.153
X83.78 Y20.733 Z-2.155
X83.836 Y20.736 Z-2.156
X83.892 Y20.742 Z-2.158
X83.948 Y20.753 Z-2.16
X84.002 Y20.768 Z-2.162
X84.055 Y20.787 Z-2.164
X84.106 Y20.809 Z-2.166
X84.156 Y20.835 Z-2.168
X84.203 Y20.865 Z-2.17
X84.248 Y20.898 Z-2.171
X84.29 Y20.934 Z-2.173
X84.329 Y20.973 Z-2.175
X84.365 Y21.015 Z-2.177
X84.398 Y21.059 Z-2.179
X84.427 Y21.106 Z-2.181
X84.453 Y21.154 Z-2.183
X84.475 Y21.204 Z-2.185
X84.493 Y21.255 Z-2.186
X84.508 Y21.308 Z-2.188
