%
(REFHOLDER)
(T3 D=4. CR=0. - ZMIN=-8.53 - FLAT END MILL)
(T4 D=8. CR=0. - ZMIN=-8.03 - FLAT END MILL)
(T17 D=4.8 CR=0. - ZMIN=-8.615 - THREAD MILL)
G90 G94 G17 G91.1
G21
G53 G0 Z0.
(FACE1)
T4 M600
S19000 M300
G17 G90 G94
G54
G64 P0.01 Q0.01
G0 X2. Y-4.2
G43 Z15. H4
G0 Z5.
G1 Z-0.165 F800.
G19 G3 Y-3.4 Z-0.965 J0.8 K0. F3800.
G1 Y0.
Y54.
G17 G2 X9.8 I3.9 J0.
G1 Y0.
G19 G2 Y-0.8 Z-0.165 J0. K0.8
G0 Z5.
X2. Y-4.2
G1 Z-1.13 F800.
G3 Y-3.4 Z-1.93 J0.8 K0. F3800.
G1 Y0.
Y54.
G17 G2 X9.8 I3.9 J0.
G1 Y0.
G19 G2 Y-0.8 Z-1.13 J0. K0.8
G0 Z5.
X2. Y-4.2
G1 Z-1.23 F800.
G3 Y-3.4 Z-2.03 J0.8 K0. F3800.
G1 Y0.
Y54. F2000.
G17 G2 X9.8 I3.9 J0. F3800.
G1 Y0. F2000.
G19 G2 Y-0.8 Z-1.23 J0. K0.8 F3800.
G0 Z15.
G17
(2D CONTOUR1)
G0 X12.8 Y-6.2
Z15.
Z5.
G1 Z1. F800.
Z-7.23
G19 G3 Y-5.4 Z-8.03 J0.8 K0. F3800.
G1 Y-4.6
G17 G3 X12. Y-3.8 I-0.8 J0.
G1 X1.
G2 X-3.8 Y1. I0. J4.8
G1 Y53.
Y54.
G3 X-4.6 Y54.8 I-0.8 J0.
G1 X-5.4
G18 G3 X-6.2 Z-7.23 I0. K0.8
G0 Z5.
X12.8 Y-5.4
G1 Z1. F800.
Z-7.23
G19 G3 Y-4.6 Z-8.03 J0.8 K0. F3800.
G1 Y-3.8
G17 G3 X12. Y-3. I-0.8 J0.
G1 X1.
G2 X-3. Y1. I0. J4.
G1 Y53.
Y54.
G3 X-3.8 Y54.8 I-0.8 J0.
G1 X-4.6
G18 G3 X-5.4 Z-7.23 I0. K0.8
G0 Z15.
G17
M500
G53 G0 Z0.
(BORE1)
M1
T3 M600
S24000 M300
G17 G90 G94
G54
G0 X5.8 Y8.5
G43 Z15. H3
G0 Z-0.43
G1 Z-2.03 F1000.
Y8.3
G3 X6. Y8.1 I0.2 J0.
Y8.9 Z-2.198 I0. J0.4
Y8.1 Z-2.366 I0. J-0.4
Y8.9 Z-2.533 I0. J0.4
Y8.1 Z-2.701 I0. J-0.4
Y8.9 Z-2.869 I0. J0.4
Y8.1 Z-3.037 I0. J-0.4
Y8.9 Z-3.205 I0. J0.4
Y8.1 Z-3.373 I0. J-0.4
Y8.9 Z-3.54 I0. J0.4
Y8.1 Z-3.708 I0. J-0.4
Y8.9 Z-3.876 I0. J0.4
Y8.1 Z-4.044 I0. J-0.4
Y8.9 Z-4.212 I0. J0.4
Y8.1 Z-4.38 I0. J-0.4
Y8.9 Z-4.547 I0. J0.4
Y8.1 Z-4.715 I0. J-0.4
Y8.9 Z-4.883 I0. J0.4
Y8.1 Z-5.051 I0. J-0.4
Y8.9 Z-5.219 I0. J0.4
Y8.1 Z-5.386 I0. J-0.4
Y8.9 Z-5.554 I0. J0.4
Y8.1 Z-5.722 I0. J-0.4
Y8.9 Z-5.89 I0. J0.4
Y8.1 Z-6.058 I0. J-0.4
Y8.9 Z-6.226 I0. J0.4
Y8.1 Z-6.393 I0. J-0.4
Y8.9 Z-6.561 I0. J0.4
Y8.1 Z-6.729 I0. J-0.4
Y8.9 Z-6.897 I0. J0.4
Y8.1 Z-7.065 I0. J-0.4
Y8.9 Z-7.233 I0. J0.4
Y8.1 Z-7.4 I0. J-0.4
Y8.9 Z-7.568 I0. J0.4
Y8.1 Z-7.736 I0. J-0.4
Y8.9 Z-7.904 I0. J0.4
Y8.1 Z-8.072 I0. J-0.4
Y8.9 Z-8.24 I0. J0.4
Y8.1 Z-8.407 I0. J-0.4
X6.299 Y8.765 Z-8.53 I0. J0.4
X5.701 Y8.235 I-0.299 J-0.265
X6.299 Y8.765 I0.299 J0.265
X6.017 Y8.782 I-0.15 J-0.133
G1 X5.867 Y8.65
X5.75 Y8.85 Z-8.13
G19 G2 Y8.45 Z-8.53 J-0.4 K0.
G1 Y8.25
G17 G3 X6. Y8. I0.25 J0.
Y9. I0. J0.5
Y8. I0. J-0.5
X6.25 Y8.25 I0. J0.25
G1 Y8.45
G19 G3 Y8.85 Z-8.13 J0. K0.4
G0 Z5.
X5.8 Y31.5
Z-0.43
G1 Z-2.03 F1000.
Y31.3
G17 G3 X6. Y31.1 I0.2 J0.
Y31.9 Z-2.198 I0. J0.4
Y31.1 Z-2.366 I0. J-0.4
Y31.9 Z-2.533 I0. J0.4
Y31.1 Z-2.701 I0. J-0.4
Y31.9 Z-2.869 I0. J0.4
Y31.1 Z-3.037 I0. J-0.4
Y31.9 Z-3.205 I0. J0.4
Y31.1 Z-3.373 I0. J-0.4
Y31.9 Z-3.54 I0. J0.4
Y31.1 Z-3.708 I0. J-0.4
Y31.9 Z-3.876 I0. J0.4
Y31.1 Z-4.044 I0. J-0.4
Y31.9 Z-4.212 I0. J0.4
Y31.1 Z-4.38 I0. J-0.4
Y31.9 Z-4.547 I0. J0.4
Y31.1 Z-4.715 I0. J-0.4
Y31.9 Z-4.883 I0. J0.4
Y31.1 Z-5.051 I0. J-0.4
Y31.9 Z-5.219 I0. J0.4
Y31.1 Z-5.386 I0. J-0.4
Y31.9 Z-5.554 I0. J0.4
Y31.1 Z-5.722 I0. J-0.4
Y31.9 Z-5.89 I0. J0.4
Y31.1 Z-6.058 I0. J-0.4
Y31.9 Z-6.226 I0. J0.4
Y31.1 Z-6.393 I0. J-0.4
Y31.9 Z-6.561 I0. J0.4
Y31.1 Z-6.729 I0. J-0.4
Y31.9 Z-6.897 I0. J0.4
Y31.1 Z-7.065 I0. J-0.4
Y31.9 Z-7.233 I0. J0.4
Y31.1 Z-7.4 I0. J-0.4
Y31.9 Z-7.568 I0. J0.4
Y31.1 Z-7.736 I0. J-0.4
Y31.9 Z-7.904 I0. J0.4
Y31.1 Z-8.072 I0. J-0.4
Y31.9 Z-8.24 I0. J0.4
Y31.1 Z-8.407 I0. J-0.4
X6.299 Y31.765 Z-8.53 I0. J0.4
X5.701 Y31.235 I-0.299 J-0.265
X6.299 Y31.765 I0.299 J0.265
X6.017 Y31.782 I-0.15 J-0.133
G1 X5.867 Y31.65
X5.75 Y31.85 Z-8.13
G19 G2 Y31.45 Z-8.53 J-0.4 K0.
G1 Y31.25
G17 G3 X6. Y31. I0.25 J0.
Y32. I0. J0.5
Y31. I0. J-0.5
X6.25 Y31.25 I0. J0.25
G1 Y31.45
G19 G3 Y31.85 Z-8.13 J0. K0.4
G0 Z5.
X5.913 Y46.572
Z-0.03
G1 Z-1.63 F1000.
X5.906 Y46.576 Z-1.708
X5.888 Y46.59 Z-1.783
X5.859 Y46.613 Z-1.852
X5.82 Y46.643 Z-1.913
X5.772 Y46.68 Z-1.963
X5.717 Y46.722 Z-2.
X5.657 Y46.768 Z-2.022
X5.595 Y46.815 Z-2.03
X5.437 Y46.937
G17 G3 X4.876 Y46.864 I-0.244 J-0.317
X7.124 Y45.136 Z-2.269 I1.124 J-0.864
X4.876 Y46.864 Z-2.508 I-1.124 J0.864
X7.124 Y45.136 Z-2.747 I1.124 J-0.864
X4.876 Y46.864 Z-2.986 I-1.124 J0.864
X7.124 Y45.136 Z-3.225 I1.124 J-0.864
X4.876 Y46.864 Z-3.464 I-1.124 J0.864
X7.124 Y45.136 Z-3.703 I1.124 J-0.864
X4.876 Y46.864 Z-3.942 I-1.124 J0.864
X7.124 Y45.136 Z-4.181 I1.124 J-0.864
X4.876 Y46.864 Z-4.42 I-1.124 J0.864
X7.124 Y45.136 Z-4.659 I1.124 J-0.864
X4.876 Y46.864 Z-4.898 I-1.124 J0.864
X7.124 Y45.136 Z-5.137 I1.124 J-0.864
X4.876 Y46.864 Z-5.376 I-1.124 J0.864
X7.124 Y45.136 Z-5.615 I1.124 J-0.864
X4.876 Y46.864 Z-5.854 I-1.124 J0.864
X7.124 Y45.136 Z-6.093 I1.124 J-0.864
X4.876 Y46.864 Z-6.332 I-1.124 J0.864
X7.124 Y45.136 Z-6.571 I1.124 J-0.864
X4.876 Y46.864 Z-6.809 I-1.124 J0.864
X7.124 Y45.136 Z-7.048 I1.124 J-0.864
X4.876 Y46.864 Z-7.287 I-1.124 J0.864
X7.124 Y45.136 Z-7.526 I1.124 J-0.864
X4.876 Y46.864 Z-7.765 I-1.124 J0.864
X7.124 Y45.136 Z-8.004 I1.124 J-0.864
X4.876 Y46.864 Z-8.243 I-1.124 J0.864
X7.124 Y45.136 Z-8.482 I1.124 J-0.864
X7.417 Y45.96 Z-8.53 I-1.124 J0.864
X4.583 Y46.04 I-1.417 J0.04
X7.417 Y45.96 I1.417 J-0.04
X7.028 Y46.371 I-0.4 J0.011
G1 X6.828 Y46.377
X6.75 Y46.379 Z-8.522
X6.675 Y46.381 Z-8.5
X6.606 Y46.383 Z-8.463
X6.546 Y46.385 Z-8.413
X6.496 Y46.386 Z-8.352
X6.459 Y46.387 Z-8.283
X6.436 Y46.388 Z-8.208
X6.429 Z-8.13
X5.833 Y46.632
X5.827 Y46.637 Z-8.208
X5.809 Y46.651 Z-8.283
X5.78 Y46.674 Z-8.352
X5.74 Y46.704 Z-8.413
X5.692 Y46.741 Z-8.463
X5.637 Y46.783 Z-8.5
X5.578 Y46.829 Z-8.522
X5.516 Y46.876 Z-8.53
X5.357 Y46.998
G3 X4.797 Y46.924 I-0.244 J-0.317
X7.203 Y45.076 I1.203 J-0.924
X4.797 Y46.924 I-1.203 J0.924
X4.87 Y46.364 I0.317 J-0.244
G1 X5.029 Y46.242
X5.091 Y46.194 Z-8.522
X5.15 Y46.148 Z-8.5
X5.205 Y46.106 Z-8.463
X5.253 Y46.069 Z-8.413
X5.292 Y46.039 Z-8.352
X5.322 Y46.017 Z-8.283
X5.34 Y46.003 Z-8.208
X5.346 Y45.998 Z-8.13
G0 Z15.
M500
G53 G0 Z0.
(THREAD1)
M1
T17 M600
S24000 M300
G17 G90 G94
G54
G64 P0.05 Q0.05
G0 X6. Y46.
G43 Z15. H17
G0 Z-6.615
G1 Z-8.615 F500.
X6.938 Y45.52
G3 X7.418 Y46. Z-8.53 I0. J0.48
X4.582 Z-8.03 I-1.418 J0.
X7.418 Z-7.53 I1.418 J0.
X4.582 Z-7.03 I-1.418 J0.
X7.418 Z-6.53 I1.418 J0.
X4.582 Z-6.03 I-1.418 J0.
X7.418 Z-5.53 I1.418 J0.
X4.582 Z-5.03 I-1.418 J0.
X7.418 Z-4.53 I1.418 J0.
X4.582 Z-4.03 I-1.418 J0.
X7.418 Z-3.53 I1.418 J0.
X4.582 Z-3.03 I-1.418 J0.
X7.418 Z-2.53 I1.418 J0.
X4.582 Z-2.03 I-1.418 J0.
X5.063 Y45.52 Z-1.945 I0.48 J0.
G1 X6. Y46.
G0 Z5.
Z-6.604
G1 Z-8.604 F500.
X7.137 Y45.52
G3 X7.617 Y46. Z-8.53 I0. J0.48
X4.383 Z-8.03 I-1.617 J0.
X7.617 Z-7.53 I1.617 J0.
X4.383 Z-7.03 I-1.617 J0.
X7.617 Z-6.53 I1.617 J0.
X4.383 Z-6.03 I-1.617 J0.
X7.617 Z-5.53 I1.617 J0.
X4.383 Z-5.03 I-1.617 J0.
X7.617 Z-4.53 I1.617 J0.
X4.383 Z-4.03 I-1.617 J0.
X7.617 Z-3.53 I1.617 J0.
X4.383 Z-3.03 I-1.617 J0.
X7.617 Z-2.53 I1.617 J0.
X4.383 Z-2.03 I-1.617 J0.
X4.863 Y45.52 Z-1.956 I0.48 J0.
G1 X6. Y46.
G0 Z15.
M500
G53 G0 Z0.
(2D CONTOUR2)
M1
T3 M600
S24000 M300
G17 G90 G94
G54
G64 P0.01 Q0.01
G0 X14.436 Y12.035
G43 Z15. H3
G0 Z5.
G1 Z1.9 F333.33
X14.432 Y12.042 Z1.754 F1000.
X14.421 Y12.062 Z1.609
X14.402 Y12.094 Z1.467
X14.375 Y12.14 Z1.331
X14.342 Y12.198 Z1.2
X14.302 Y12.267 Z1.077
X14.256 Y12.347 Z0.963
X14.204 Y12.436 Z0.86
X14.147 Y12.535 Z0.767
X14.086 Y12.641 Z0.688
X14.021 Y12.754 Z0.621
X13.952 Y12.873 Z0.569
X13.881 Y12.995 Z0.531
X13.809 Y13.121 Z0.508
X13.736 Y13.248 Z0.5
X13.536 Y13.594
G2 X13. Y15.594 I3.464 J2.
G1 Y53. Z0.229 F1200.
G3 X11. Y55. Z0.207 I-2. J0.
G1 X-1. Z0.12
X11. Z0.033
G2 X13. Y53. Z0.011 I0. J-2.
G1 Y-1. Z-0.38
Y53. Z-0.771
G3 X11. Y55. Z-0.793 I-2. J0.
G1 X-1. Z-0.88
X11. Z-0.967
G2 X13. Y53. Z-0.989 I0. J-2.
G1 Y-1. Z-1.38
Y53. Z-1.771
G3 X11. Y55. Z-1.793 I-2. J0.
G1 X-1. Z-1.88
X11. Z-1.967
G2 X13. Y53. Z-1.989 I0. J-2.
G1 Y-1. Z-2.38
Y53. Z-2.771
G3 X11. Y55. Z-2.793 I-2. J0.
G1 X-1. Z-2.88
X11. Z-2.967
G2 X13. Y53. Z-2.989 I0. J-2.
G1 Y-1. Z-3.38
Y53. Z-3.771
G3 X11. Y55. Z-3.793 I-2. J0.
G1 X-1. Z-3.88
X11. Z-3.967
G2 X13. Y53. Z-3.989 I0. J-2.
G1 Y-1. Z-4.38
Y53. Z-4.771
G3 X11. Y55. Z-4.793 I-2. J0.
G1 X-1. Z-4.88
X11. Z-4.967
G2 X13. Y53. Z-4.989 I0. J-2.
G1 Y-1. Z-5.38
Y53. Z-5.771
G3 X11. Y55. Z-5.793 I-2. J0.
G1 X-1. Z-5.88
X11. Z-5.967
G2 X13. Y53. Z-5.989 I0. J-2.
G1 Y-1. Z-6.38
Y53. Z-6.771
G3 X11. Y55. Z-6.793 I-2. J0.
G1 X-1. Z-6.88
X11. Z-6.967
G2 X13. Y53. Z-6.989 I0. J-2.
G1 Y-1. Z-7.38
Y53. Z-7.771
G3 X11. Y55. Z-7.793 I-2. J0.
G1 X-1. Z-7.88
X11. F1000.
G2 X13. Y53. I0. J-2.
G1 Y1.
Y-1.
G3 X13.536 Y-3. I4. J0.
G1 X13.736 Y-3.346
X13.809 Y-3.473 Z-7.872
X13.881 Y-3.598 Z-7.849
X13.952 Y-3.721 Z-7.811
X14.021 Y-3.84 Z-7.759
X14.086 Y-3.953 Z-7.692
X14.147 Y-4.059 Z-7.613
X14.204 Y-4.158 Z-7.52
X14.256 Y-4.247 Z-7.417
X14.302 Y-4.327 Z-7.303
X14.342 Y-4.396 Z-7.18
X14.375 Y-4.454 Z-7.049
X14.402 Y-4.5 Z-6.913
X14.421 Y-4.532 Z-6.771
X14.432 Y-4.552 Z-6.626
X14.436 Y-4.559 Z-6.48
G0 Z15.
M500
G53 G0 Z0.
M30
%
