%
(SENSOR_HALTER)
(T1 D=6. CR=0. - ZMIN=-5.15 - FLAT END MILL)
(T3 D=4. CR=0. - ZMIN=-5.1 - FLAT END MILL)
(T8 D=8. CR=0. TAPER=45DEG - ZMIN=-2.5 - CHAMFER MILL)
G90 G94 G17 G91.1
G21
G53 G0 Z0.
(BORE2)
T3 M600
S24000 M300
G17 G90 G94
G54
G64 P0.01 Q0.01
G0 X6.8 Y40.
G43 Z15. H3
G0 Z1.1
G1 Z-0.5 F1000.
Y39.8
G3 X7. Y39.6 I0.2 J0.
Y40.4 Z-0.668 I0. J0.4
Y39.6 Z-0.836 I0. J-0.4
Y40.4 Z-1.003 I0. J0.4
Y39.6 Z-1.171 I0. J-0.4
Y40.4 Z-1.339 I0. J0.4
Y39.6 Z-1.507 I0. J-0.4
Y40.4 Z-1.675 I0. J0.4
Y39.6 Z-1.843 I0. J-0.4
Y40.4 Z-2.01 I0. J0.4
Y39.6 Z-2.178 I0. J-0.4
Y40.4 Z-2.346 I0. J0.4
Y39.6 Z-2.514 I0. J-0.4
Y40.4 Z-2.682 I0. J0.4
Y39.6 Z-2.85 I0. J-0.4
Y40.4 Z-3.017 I0. J0.4
Y39.6 Z-3.185 I0. J-0.4
Y40.4 Z-3.353 I0. J0.4
Y39.6 Z-3.521 I0. J-0.4
Y40.4 Z-3.689 I0. J0.4
Y39.6 Z-3.856 I0. J-0.4
Y40.4 Z-4.024 I0. J0.4
Y39.6 Z-4.192 I0. J-0.4
Y40.4 Z-4.36 I0. J0.4
Y39.6 Z-4.528 I0. J-0.4
Y40.4 Z-4.696 I0. J0.4
Y39.6 Z-4.863 I0. J-0.4
Y40.4 Z-5.031 I0. J0.4
X6.616 Y40.112 Z-5.1 I0. J-0.4
X7.384 Y39.888 I0.384 J-0.112
X6.616 Y40.112 I-0.384 J0.112
X6.752 Y39.864 I0.192 J-0.056
G1 X6.944 Y39.808
X6.75 Y40.35 Z-4.7
G19 G2 Y39.95 Z-5.1 J-0.4 K0.
G1 Y39.75
G17 G3 X7. Y39.5 I0.25 J0.
Y40.5 I0. J0.5
Y39.5 I0. J-0.5
X7.25 Y39.75 I0. J0.25
G1 Y39.95
G19 G3 Y40.35 Z-4.7 J0. K0.4
G1 X6.75
G2 Y39.95 Z-5.1 J-0.4 K0.
G1 Y39.75
G17 G3 X7. Y39.5 I0.25 J0.
Y40.5 I0. J0.5
Y39.5 I0. J-0.5
X7.25 Y39.75 I0. J0.25
G1 Y39.95
G19 G3 Y40.35 Z-4.7 J0. K0.4
G0 Z5.
X16.8 Y25.
Z1.1
G1 Z-0.5 F1000.
Y24.8
G17 G3 X17. Y24.6 I0.2 J0.
Y25.4 Z-0.668 I0. J0.4
Y24.6 Z-0.836 I0. J-0.4
Y25.4 Z-1.003 I0. J0.4
Y24.6 Z-1.171 I0. J-0.4
Y25.4 Z-1.339 I0. J0.4
Y24.6 Z-1.507 I0. J-0.4
Y25.4 Z-1.675 I0. J0.4
Y24.6 Z-1.843 I0. J-0.4
Y25.4 Z-2.01 I0. J0.4
Y24.6 Z-2.178 I0. J-0.4
Y25.4 Z-2.346 I0. J0.4
Y24.6 Z-2.514 I0. J-0.4
Y25.4 Z-2.682 I0. J0.4
Y24.6 Z-2.85 I0. J-0.4
Y25.4 Z-3.017 I0. J0.4
Y24.6 Z-3.185 I0. J-0.4
Y25.4 Z-3.353 I0. J0.4
Y24.6 Z-3.521 I0. J-0.4
Y25.4 Z-3.689 I0. J0.4
Y24.6 Z-3.856 I0. J-0.4
Y25.4 Z-4.024 I0. J0.4
Y24.6 Z-4.192 I0. J-0.4
Y25.4 Z-4.36 I0. J0.4
Y24.6 Z-4.528 I0. J-0.4
Y25.4 Z-4.696 I0. J0.4
Y24.6 Z-4.863 I0. J-0.4
Y25.4 Z-5.031 I0. J0.4
X16.616 Y25.112 Z-5.1 I0. J-0.4
X17.384 Y24.888 I0.384 J-0.112
X16.616 Y25.112 I-0.384 J0.112
X16.752 Y24.864 I0.192 J-0.056
G1 X16.944 Y24.808
X16.75 Y25.35 Z-4.7
G19 G2 Y24.95 Z-5.1 J-0.4 K0.
G1 Y24.75
G17 G3 X17. Y24.5 I0.25 J0.
Y25.5 I0. J0.5
Y24.5 I0. J-0.5
X17.25 Y24.75 I0. J0.25
G1 Y24.95
G19 G3 Y25.35 Z-4.7 J0. K0.4
G1 X16.75
G2 Y24.95 Z-5.1 J-0.4 K0.
G1 Y24.75
G17 G3 X17. Y24.5 I0.25 J0.
Y25.5 I0. J0.5
Y24.5 I0. J-0.5
X17.25 Y24.75 I0. J0.25
G1 Y24.95
G19 G3 Y25.35 Z-4.7 J0. K0.4
G0 Z5.
X6.8 Y10.
Z1.1
G1 Z-0.5 F1000.
Y9.8
G17 G3 X7. Y9.6 I0.2 J0.
Y10.4 Z-0.668 I0. J0.4
Y9.6 Z-0.836 I0. J-0.4
Y10.4 Z-1.003 I0. J0.4
Y9.6 Z-1.171 I0. J-0.4
Y10.4 Z-1.339 I0. J0.4
Y9.6 Z-1.507 I0. J-0.4
Y10.4 Z-1.675 I0. J0.4
Y9.6 Z-1.843 I0. J-0.4
Y10.4 Z-2.01 I0. J0.4
Y9.6 Z-2.178 I0. J-0.4
Y10.4 Z-2.346 I0. J0.4
Y9.6 Z-2.514 I0. J-0.4
Y10.4 Z-2.682 I0. J0.4
Y9.6 Z-2.85 I0. J-0.4
Y10.4 Z-3.017 I0. J0.4
Y9.6 Z-3.185 I0. J-0.4
Y10.4 Z-3.353 I0. J0.4
Y9.6 Z-3.521 I0. J-0.4
Y10.4 Z-3.689 I0. J0.4
Y9.6 Z-3.856 I0. J-0.4
Y10.4 Z-4.024 I0. J0.4
Y9.6 Z-4.192 I0. J-0.4
Y10.4 Z-4.36 I0. J0.4
Y9.6 Z-4.528 I0. J-0.4
Y10.4 Z-4.696 I0. J0.4
Y9.6 Z-4.863 I0. J-0.4
Y10.4 Z-5.031 I0. J0.4
X6.616 Y10.112 Z-5.1 I0. J-0.4
X7.384 Y9.888 I0.384 J-0.112
X6.616 Y10.112 I-0.384 J0.112
X6.752 Y9.864 I0.192 J-0.056
G1 X6.944 Y9.808
X6.75 Y10.35 Z-4.7
G19 G2 Y9.95 Z-5.1 J-0.4 K0.
G1 Y9.75
G17 G3 X7. Y9.5 I0.25 J0.
Y10.5 I0. J0.5
Y9.5 I0. J-0.5
X7.25 Y9.75 I0. J0.25
G1 Y9.95
G19 G3 Y10.35 Z-4.7 J0. K0.4
G1 X6.75
G2 Y9.95 Z-5.1 J-0.4 K0.
G1 Y9.75
G17 G3 X7. Y9.5 I0.25 J0.
Y10.5 I0. J0.5
Y9.5 I0. J-0.5
X7.25 Y9.75 I0. J0.25
G1 Y9.95
G19 G3 Y10.35 Z-4.7 J0. K0.4
G0 Z15.
G17
M500
G53 G0 Z0.
(BORE3)
M1
T1 M600
S24000 M300
G17 G90 G94
G54
G0 X104.575 Y25.475
G43 Z15. H0
G0 Z1.5
G1 Z0.1 F1400.
G19 G2 Y24.875 Z-0.5 J-0.6 K0.
G1 Y24.575
G17 G3 X105. Y24.15 I0.425 J0.
Y25.85 Z-0.769 I0. J0.85
Y24.15 Z-1.038 I0. J-0.85
Y25.85 Z-1.308 I0. J0.85
Y24.15 Z-1.577 I0. J-0.85
Y25.85 Z-1.846 I0. J0.85
Y24.15 Z-2.115 I0. J-0.85
Y25.85 Z-2.385 I0. J0.85
Y24.15 Z-2.654 I0. J-0.85
Y25.85 Z-2.923 I0. J0.85
Y24.15 Z-3.192 I0. J-0.85
Y25.85 Z-3.461 I0. J0.85
Y24.15 Z-3.731 I0. J-0.85
Y25.85 Z-4. I0. J0.85
Y24.15 Z-4.269 I0. J-0.85
Y25.85 Z-4.538 I0. J0.85
Y24.15 Z-4.807 I0. J-0.85
Y25.85 Z-5.077 I0. J0.85
X104.358 Y25.558 Z-5.15 I0. J-0.85
X105.642 Y24.442 I0.642 J-0.558
X104.358 Y25.558 I-0.642 J0.558
X104.4 Y24.958 I0.321 J-0.279
G1 X104.627 Y24.761
X104.698 Y24.7 Z-5.143
X104.767 Y24.64 Z-5.121
X104.832 Y24.583 Z-5.085
X104.893 Y24.53 Z-5.035
X104.947 Y24.483 Z-4.974
X104.993 Y24.443 Z-4.903
X105.03 Y24.411 Z-4.822
X105.058 Y24.387 Z-4.735
X105.074 Y24.372 Z-4.644
X105.08 Y24.368 Z-4.55
X104.475 Y25.375
G19 G2 Y24.775 Z-5.15 J-0.6 K0.
G1 Y24.475
G17 G3 X105. Y23.95 I0.525 J0.
Y26.05 I0. J1.05
Y23.95 I0. J-1.05
X105.525 Y24.475 I0. J0.525
G1 Y24.775
G19 G3 Y25.375 Z-4.55 J0. K0.6
G1 X104.475
G2 Y24.775 Z-5.15 J-0.6 K0.
G1 Y24.475
G17 G3 X105. Y23.95 I0.525 J0.
Y26.05 I0. J1.05
Y23.95 I0. J-1.05
X105.525 Y24.475 I0. J0.525
G1 Y24.775
G19 G3 Y25.375 Z-4.55 J0. K0.6
G0 Z5.
X136.4 Y23.65
Z1.5
G1 Z0.1 F1400.
G2 Y23.05 Z-0.5 J-0.6 K0.
G1 Y22.75
G17 G3 X137. Y22.15 I0.6 J0.
Y27.85 Z-0.909 I0. J2.85
Y22.15 Z-1.318 I0. J-2.85
Y27.85 Z-1.727 I0. J2.85
Y22.15 Z-2.136 I0. J-2.85
Y27.85 Z-2.545 I0. J2.85
Y22.15 Z-2.954 I0. J-2.85
Y27.85 Z-3.364 I0. J2.85
Y22.15 Z-3.773 I0. J-2.85
Y27.85 Z-4.182 I0. J2.85
Y22.15 Z-4.591 I0. J-2.85
Y27.85 Z-5. I0. J2.85
X134.394 Y26.155 Z-5.15 I0. J-2.85
X139.606 Y23.845 I2.606 J-1.155
X134.394 Y26.155 I-2.606 J1.155
X134.7 Y25.363 I0.549 J-0.243
G1 X134.974 Y25.242
X135.06 Y25.204 Z-5.143
X135.144 Y25.167 Z-5.121
X135.223 Y25.131 Z-5.085
X135.297 Y25.099 Z-5.035
X135.362 Y25.07 Z-4.974
X135.418 Y25.045 Z-4.903
X135.463 Y25.025 Z-4.822
X135.496 Y25.01 Z-4.735
X135.516 Y25.002 Z-4.644
X135.523 Y24.999 Z-4.55
X136.4 Y23.45
G19 G2 Y22.85 Z-5.15 J-0.6 K0.
G1 Y22.55
G17 G3 X137. Y21.95 I0.6 J0.
Y28.05 I0. J3.05
Y21.95 I0. J-3.05
X137.6 Y22.55 I0. J0.6
G1 Y22.85
G19 G3 Y23.45 Z-4.55 J0. K0.6
G1 X136.4
G2 Y22.85 Z-5.15 J-0.6 K0.
G1 Y22.55
G17 G3 X137. Y21.95 I0.6 J0.
Y28.05 I0. J3.05
Y21.95 I0. J-3.05
X137.6 Y22.55 I0. J0.6
G1 Y22.85
G19 G3 Y23.45 Z-4.55 J0. K0.6
G0 Z15.
G17
(2D CONTOUR2)
M7
G0 X16.422 Y0.3
Z15.
Z5.
G1 Z1. F333.33
Z0.85
G19 G3 Y0.9 Z0.25 J0.6 K0. F1800.
G1 Y1.5
G17 G3 X15.822 Y2.1 I-0.6 J0.
G1 X4.5 Z0.221
G2 X2.308 Y3.008 Z0.214 I0. J3.1
G1 X-0.192 Y5.508 Z0.205
G2 X-1.1 Y7.7 Z0.199 I2.192 J2.192
G1 Y42.3 Z0.109
G2 X-0.192 Y44.492 Z0.103 I3.1 J0.
G1 X2.308 Y46.992 Z0.094
G2 X4.5 Y47.9 Z0.088 I2.192 J-2.192
G1 X144. Z-0.273
G2 X146.192 Y46.992 Z-0.28 I0. J-3.1
G1 X154.192 Y38.992 Z-0.309
G2 X155.1 Y36.8 Z-0.315 I-2.192 J-2.192
G1 Y13.2 Z-0.376
G2 X154.192 Y11.008 Z-0.383 I-3.1 J0.
G1 X146.192 Y3.008 Z-0.412
G2 X144. Y2.1 Z-0.418 I-2.192 J2.192
G1 X4.5 Z-0.779
G2 X2.308 Y3.008 Z-0.786 I0. J3.1
G1 X-0.192 Y5.508 Z-0.795
G2 X-1.1 Y7.7 Z-0.801 I2.192 J2.192
G1 Y42.3 Z-0.891
G2 X-0.192 Y44.492 Z-0.897 I3.1 J0.
G1 X2.308 Y46.992 Z-0.906
G2 X4.5 Y47.9 Z-0.912 I2.192 J-2.192
G1 X144. Z-1.273
G2 X146.192 Y46.992 Z-1.28 I0. J-3.1
G1 X154.192 Y38.992 Z-1.309
G2 X155.1 Y36.8 Z-1.315 I-2.192 J-2.192
G1 Y13.2 Z-1.376
G2 X154.192 Y11.008 Z-1.383 I-3.1 J0.
G1 X146.192 Y3.008 Z-1.412
G2 X144. Y2.1 Z-1.418 I-2.192 J2.192
G1 X4.5 Z-1.779
G2 X2.308 Y3.008 Z-1.786 I0. J3.1
G1 X-0.192 Y5.508 Z-1.795
G2 X-1.1 Y7.7 Z-1.801 I2.192 J2.192
G1 Y42.3 Z-1.891
G2 X-0.192 Y44.492 Z-1.897 I3.1 J0.
G1 X2.308 Y46.992 Z-1.906
G2 X4.5 Y47.9 Z-1.912 I2.192 J-2.192
G1 X144. Z-2.273
G2 X146.192 Y46.992 Z-2.28 I0. J-3.1
G1 X154.192 Y38.992 Z-2.309
G2 X155.1 Y36.8 Z-2.315 I-2.192 J-2.192
G1 Y13.2 Z-2.376
G2 X154.192 Y11.008 Z-2.383 I-3.1 J0.
G1 X146.192 Y3.008 Z-2.412
G2 X144. Y2.1 Z-2.418 I-2.192 J2.192
G1 X4.5 Z-2.779
G2 X2.308 Y3.008 Z-2.786 I0. J3.1
G1 X-0.192 Y5.508 Z-2.795
G2 X-1.1 Y7.7 Z-2.801 I2.192 J2.192
G1 Y42.3 Z-2.891
G2 X-0.192 Y44.492 Z-2.897 I3.1 J0.
G1 X2.308 Y46.992 Z-2.906
G2 X4.5 Y47.9 Z-2.912 I2.192 J-2.192
G1 X144. Z-3.273
G2 X146.192 Y46.992 Z-3.28 I0. J-3.1
G1 X154.192 Y38.992 Z-3.309
G2 X155.1 Y36.8 Z-3.315 I-2.192 J-2.192
G1 Y13.2 Z-3.376
G2 X154.192 Y11.008 Z-3.383 I-3.1 J0.
G1 X146.192 Y3.008 Z-3.412
G2 X144. Y2.1 Z-3.418 I-2.192 J2.192
G1 X4.5 Z-3.779
G2 X2.308 Y3.008 Z-3.786 I0. J3.1
G1 X-0.192 Y5.508 Z-3.795
G2 X-1.1 Y7.7 Z-3.801 I2.192 J2.192
G1 Y42.3 Z-3.891
G2 X-0.192 Y44.492 Z-3.897 I3.1 J0.
G1 X2.308 Y46.992 Z-3.906
G2 X4.5 Y47.9 Z-3.912 I2.192 J-2.192
G1 X144. Z-4.273
G2 X146.192 Y46.992 Z-4.28 I0. J-3.1
G1 X154.192 Y38.992 Z-4.309
G2 X155.1 Y36.8 Z-4.315 I-2.192 J-2.192
G1 Y13.2 Z-4.376
G2 X154.192 Y11.008 Z-4.383 I-3.1 J0.
G1 X146.192 Y3.008 Z-4.412
G2 X144. Y2.1 Z-4.418 I-2.192 J2.192
G1 X4.5 Z-4.779
G2 X2.308 Y3.008 Z-4.786 I0. J3.1
G1 X-0.192 Y5.508 Z-4.795
G2 X-1.1 Y7.7 Z-4.801 I2.192 J2.192
G1 Y42.3 Z-4.891
G2 X-0.192 Y44.492 Z-4.897 I3.1 J0.
G1 X2.308 Y46.992 Z-4.906
G2 X4.5 Y47.9 Z-4.912 I2.192 J-2.192
G1 X77. Z-5.1
X144. F1400.
G2 X146.192 Y46.992 I0. J-3.1
G1 X154.192 Y38.992
G2 X155.1 Y36.8 I-2.192 J-2.192
G1 Y13.2
G2 X154.192 Y11.008 I-3.1 J0.
G1 X146.192 Y3.008
G2 X144. Y2.1 I-2.192 J2.192
G1 X4.5
G2 X2.308 Y3.008 I0. J3.1
G1 X-0.192 Y5.508
G2 X-1.1 Y7.7 I2.192 J2.192
G1 Y42.3
G2 X-0.192 Y44.492 I3.1 J0.
G1 X2.308 Y46.992
G2 X4.5 Y47.9 I2.192 J-2.192
G1 X77.
X77.031 Y47.894
X77.057 Y47.876
X77.075 Y47.85
X77.093 Y47.824
X77.119 Y47.806
X77.15 Y47.8
X144.
G2 X146.121 Y46.921 I0. J-3.
G1 X154.121 Y38.921
G2 X155. Y36.8 I-2.121 J-2.121
G1 Y13.2
G2 X154.121 Y11.079 I-3. J0.
G1 X146.121 Y3.079
G2 X144. Y2.2 I-2.121 J2.121
G1 X4.5
G2 X2.379 Y3.079 I0. J3.
G1 X-0.121 Y5.579
G2 X-1. Y7.7 I2.121 J2.121
G1 Y42.3
G2 X-0.121 Y44.421 I3. J0.
G1 X2.379 Y46.921
G2 X4.5 Y47.8 I2.121 J-2.121
G1 X77.15
X80.15
G3 X80.75 Y48.4 I0. J0.6
G1 Y49.
G19 G3 Y49.6 Z-4.5 J0. K0.6
G0 Z15.
G17
M9
M500
G53 G0 Z0.
(2D CHAMFER1)
M1
T8 M600
S17000 M300
G17 G90 G94
G54
G0 X154.8 Y25.
G43 Z15. H8
G0 Z5.
G1 Z2. F833.33
Z-2.5
X154. F2500.
Y13.2
G2 X153.414 Y11.786 I-2. J0.
G1 X145.414 Y3.786
G2 X144. Y3.2 I-1.414 J1.414
G1 X4.5
G2 X3.086 Y3.786 I0. J2.
G1 X0.586 Y6.286
G2 X0. Y7.7 I1.414 J1.414
G1 Y42.3
G2 X0.586 Y43.714 I2. J0.
G1 X3.086 Y46.214
G2 X4.5 Y46.8 I1.414 J-1.414
G1 X144.
G2 X145.414 Y46.214 I0. J-2.
G1 X153.414 Y38.214
G2 X154. Y36.8 I-1.414 J-1.414
G1 Y25.
Y20.
X154.8
G0 Z5.
X140.25 Y25.
G1 Z2. F833.33
Z-2.5
X141.05 F2500.
G3 X132.95 I-4.05 J0.
X141.05 I4.05 J0.
X138.336 Y28.823 I-4.05 J0.
G1 X138.072 Y28.068
G0 Z5.
X106.25 Y25.
G1 Z2. F833.33
Z-2.5
X107.05 F2500.
G3 X102.95 I-2.05 J0.
X107.05 I2.05 J0.
X103.435 Y26.325 I-2.05 J0.
G1 X104.046 Y25.808
G0 Z5.
X16.813 Y24.765
G1 Z2. F833.33
Z-2.5
X17.312 Y25.391 F2500.
G3 X16.688 Y24.609 I-0.312 J-0.391
X17.312 Y25.391 I0.312 J0.391
X16.688 Y24.609 I-0.312 J-0.391
X16.951 Y24.502 I0.312 J0.391
G1 X17.029 Y25.299
G0 Z5.
X6.7 Y40.
G1 Z2. F833.33
Z-2.5
X7.5 F2500.
G3 X6.5 I-0.5 J0.
X7.5 I0.5 J0.
X6.5 I-0.5 J0.
X6.58 Y39.728 I0.5 J0.
G1 X7.252 Y40.163
G0 Z5.
X6.7 Y10.
G1 Z2. F833.33
Z-2.5
X7.5 F2500.
G3 X6.5 I-0.5 J0.
X7.5 I0.5 J0.
X6.5 I-0.5 J0.
X6.58 Y9.728 I0.5 J0.
G1 X7.252 Y10.163
G0 Z15.
M500
G53 G0 Z0.
M30
%
