%
(TEST_M3)
(T14 D=2.35 CR=0. - ZMIN=-6.063 - THREAD MILL)
(T46 D=2.5 CR=0. TAPER=130DEG - ZMIN=-8. - DRILL)
G90 G94 G17 G91.1
G21
G53 G0 Z0.
(DRILL1)
T46 M600
S19099 M300
G17 G90 G94
G54
G0 X0. Y0.
G43 Z15. H46
G0 Z5.
Z2.
G1 Z-2. F572.96
G0 Z-1.8
G1 Z-4. F572.96
G0 Z-3.8
G1 Z-6. F572.96
G0 Z5.
Z-4.
G1 Z-8. F572.96
G0 Z5.
X7.75
Z2.
G1 Z-2. F572.96
G0 Z-1.8
G1 Z-4. F572.96
G0 Z-3.8
G1 Z-6. F572.96
G0 Z5.
Z-4.
G1 Z-8. F572.96
G0 Z5.
X15.5
Z2.
G1 Z-2. F572.96
G0 Z-1.8
G1 Z-4. F572.96
G0 Z-3.8
G1 Z-6. F572.96
G0 Z5.
Z-4.
G1 Z-8. F572.96
G0 Z5.
X23.25
Z2.
G1 Z-2. F572.96
G0 Z-1.8
G1 Z-4. F572.96
G0 Z-3.8
G1 Z-6. F572.96
G0 Z5.
Z-4.
G1 Z-8. F572.96
G0 Z5.
Z15.
M500
G53 G0 Z0.
(THREAD1)
M1
T14 M600
S24000 M300
G17 G90 G94
G54
G64 P0.05 Q0.05
G0 X0. Y0.
G43 Z15. H14
G0 Z-4.063
G1 Z-6.063 F300.
X0.038 Y-0.038
X0.056 Y-0.032 Z-6.042
X0.07 Y-0.019 Z-6.021
X0.075 Y0. Z-6.
X0.067 Y0.033 Z-5.963
X0.045 Y0.06 Z-5.926
X0.014 Y0.074 Z-5.89
X-0.021 Y0.072 Z-5.853
X-0.051 Y0.055 Z-5.816
X-0.07 Y0.027 Z-5.779
X-0.075 Y-0.007 Z-5.742
X-0.064 Y-0.04 Z-5.706
X-0.039 Y-0.064 Z-5.669
X-0.006 Y-0.075 Z-5.632
X0.028 Y-0.07 Z-5.595
X0.056 Y-0.05 Z-5.558
X0.072 Y-0.02 Z-5.521
X0.074 Y0.014 Z-5.485
X0.059 Y0.046 Z-5.448
X0.033 Y0.067 Z-5.411
X-0.001 Y0.075 Z-5.374
X-0.034 Y0.067 Z-5.337
X-0.06 Y0.045 Z-5.301
X-0.074 Y0.013 Z-5.264
X-0.072 Y-0.021 Z-5.227
X-0.055 Y-0.051 Z-5.19
X-0.026 Y-0.07 Z-5.153
X0.008 Y-0.075 Z-5.117
X0.04 Y-0.063 Z-5.08
X0.064 Y-0.039 Z-5.043
X0.075 Y-0.006 Z-5.006
X0.069 Y0.028 Z-4.969
X0.05 Y0.056 Z-4.933
X0.019 Y0.072 Z-4.896
X-0.015 Y0.073 Z-4.859
X-0.046 Y0.059 Z-4.822
X-0.068 Y0.032 Z-4.785
X-0.075 Y-0.001 Z-4.748
X-0.066 Y-0.035 Z-4.712
X-0.044 Y-0.061 Z-4.675
X-0.012 Y-0.074 Z-4.638
X0.022 Y-0.072 Z-4.601
X0.052 Y-0.054 Z-4.564
X0.071 Y-0.026 Z-4.528
X0.074 Y0.009 Z-4.491
X0.063 Y0.041 Z-4.454
X0.038 Y0.065 Z-4.417
X0.005 Y0.075 Z-4.38
X-0.029 Y0.069 Z-4.344
X-0.057 Y0.049 Z-4.307
X-0.073 Y0.019 Z-4.27
Y-0.016 Z-4.233
X-0.059 Y-0.047 Z-4.196
X-0.032 Y-0.068 Z-4.16
X0.002 Y-0.075 Z-4.123
X0.035 Y-0.066 Z-4.086
X0.061 Y-0.043 Z-4.049
X0.074 Y-0.012 Z-4.012
X0.071 Y0.023 Z-3.975
X0.054 Y0.052 Z-3.939
X0.025 Y0.071 Z-3.902
X-0.009 Y0.074 Z-3.865
X-0.042 Y0.062 Z-3.828
X-0.065 Y0.037 Z-3.791
X-0.075 Y0.004 Z-3.755
X-0.069 Y-0.03 Z-3.718
X-0.049 Y-0.057 Z-3.681
X-0.018 Y-0.073 Z-3.644
X0.016 Z-3.607
X0.047 Y-0.058 Z-3.571
X0.068 Y-0.031 Z-3.534
X0.075 Y0.003 Z-3.497
X0.066 Y0.036 Z-3.46
X0.043 Y0.062 Z-3.423
X0.011 Y0.074 Z-3.387
X-0.023 Y0.071 Z-3.35
X-0.053 Y0.053 Z-3.313
X-0.071 Y0.024 Z-3.276
X-0.074 Y-0.01 Z-3.239
X-0.062 Y-0.042 Z-3.202
X-0.037 Y-0.065 Z-3.166
X-0.004 Y-0.075 Z-3.129
X0.03 Y-0.069 Z-3.092
X0.058 Y-0.048 Z-3.055
X0.073 Y-0.017 Z-3.018
Y0.017 Z-2.982
X0.058 Y0.048 Z-2.945
X0.03 Y0.069 Z-2.908
X-0.004 Y0.075 Z-2.871
X-0.037 Y0.065 Z-2.834
X-0.062 Y0.042 Z-2.798
X-0.074 Y0.01 Z-2.761
X-0.071 Y-0.024 Z-2.724
X-0.053 Y-0.053 Z-2.687
X-0.023 Y-0.071 Z-2.65
X0.011 Y-0.074 Z-2.613
X0.043 Y-0.062 Z-2.577
X0.066 Y-0.036 Z-2.54
X0.075 Y-0.003 Z-2.503
X0.068 Y0.031 Z-2.466
X0.047 Y0.058 Z-2.429
X0.016 Y0.073 Z-2.393
X-0.018 Z-2.356
X-0.049 Y0.057 Z-2.319
X-0.069 Y0.03 Z-2.282
X-0.075 Y-0.004 Z-2.245
X-0.065 Y-0.037 Z-2.209
X-0.042 Y-0.062 Z-2.172
X-0.009 Y-0.074 Z-2.135
X0.025 Y-0.071 Z-2.098
X0.054 Y-0.052 Z-2.061
X0.071 Y-0.023 Z-2.025
X0.074 Y0.012 Z-1.988
X0.061 Y0.043 Z-1.951
X0.035 Y0.066 Z-1.914
X0.002 Y0.075 Z-1.877
X-0.032 Y0.068 Z-1.84
X-0.059 Y0.047 Z-1.804
X-0.073 Y0.016 Z-1.767
Y-0.019 Z-1.73
X-0.057 Y-0.049 Z-1.693
X-0.029 Y-0.069 Z-1.656
X0.005 Y-0.075 Z-1.62
X0.038 Y-0.065 Z-1.583
X0.063 Y-0.041 Z-1.546
X0.074 Y-0.009 Z-1.509
X0.071 Y0.026 Z-1.472
X0.052 Y0.054 Z-1.436
X0.022 Y0.072 Z-1.399
X-0.012 Y0.074 Z-1.362
X-0.044 Y0.061 Z-1.325
X-0.066 Y0.035 Z-1.288
X-0.075 Y0.001 Z-1.252
X-0.068 Y-0.032 Z-1.215
X-0.046 Y-0.059 Z-1.178
X-0.015 Y-0.073 Z-1.141
X0.019 Y-0.072 Z-1.104
X0.05 Y-0.056 Z-1.067
X0.069 Y-0.028 Z-1.031
X0.075 Y0.006 Z-0.994
X0.064 Y0.039 Z-0.957
X0.04 Y0.063 Z-0.92
X0.008 Y0.075 Z-0.883
X-0.026 Y0.07 Z-0.847
X-0.055 Y0.051 Z-0.81
X-0.072 Y0.021 Z-0.773
X-0.074 Y-0.013 Z-0.736
X-0.06 Y-0.045 Z-0.699
X-0.034 Y-0.067 Z-0.663
X-0.001 Y-0.075 Z-0.626
X0.033 Y-0.067 Z-0.589
X0.059 Y-0.046 Z-0.552
X0.074 Y-0.014 Z-0.515
X0.072 Y0.02 Z-0.479
X0.056 Y0.05 Z-0.442
X0.028 Y0.07 Z-0.405
X-0.006 Y0.075 Z-0.368
X-0.039 Y0.064 Z-0.331
X-0.064 Y0.04 Z-0.294
X-0.075 Y0.007 Z-0.258
X-0.07 Y-0.027 Z-0.221
X-0.051 Y-0.055 Z-0.184
X-0.021 Y-0.072 Z-0.147
X0.014 Y-0.074 Z-0.11
X0.045 Y-0.06 Z-0.074
X0.067 Y-0.033 Z-0.037
X0.075 Y0. Z0.
X0.07 Y0.019 Z0.021
X0.056 Y0.032 Z0.042
X0.038 Y0.038 Z0.063
X0. Y0.
G0 Z5.
Z-4.063
G1 Z-6.063 F300.
X0.138 Y-0.138
X0.18 Y-0.131 Z-6.05
X0.218 Y-0.111 Z-6.038
X0.249 Y-0.081 Z-6.025
X0.268 Y-0.042 Z-6.013
X0.275 Y0. Z-6.
G3 X-0.275 Z-5.75 I-0.275 J0.
X0.275 Z-5.5 I0.275 J0.
X-0.275 Z-5.25 I-0.275 J0.
X0.275 Z-5. I0.275 J0.
X-0.275 Z-4.75 I-0.275 J0.
X0.275 Z-4.5 I0.275 J0.
X-0.275 Z-4.25 I-0.275 J0.
X0.275 Z-4. I0.275 J0.
X-0.275 Z-3.75 I-0.275 J0.
X0.275 Z-3.5 I0.275 J0.
X-0.275 Z-3.25 I-0.275 J0.
X0.275 Z-3. I0.275 J0.
X-0.275 Z-2.75 I-0.275 J0.
X0.275 Z-2.5 I0.275 J0.
X-0.275 Z-2.25 I-0.275 J0.
X0.275 Z-2. I0.275 J0.
X-0.275 Z-1.75 I-0.275 J0.
X0.275 Z-1.5 I0.275 J0.
X-0.275 Z-1.25 I-0.275 J0.
X0.275 Z-1. I0.275 J0.
X-0.275 Z-0.75 I-0.275 J0.
X0.275 Z-0.5 I0.275 J0.
X-0.275 Z-0.25 I-0.275 J0.
X0.275 Z0. I0.275 J0.
G1 X0.268 Y0.042 Z0.013
X0.249 Y0.081 Z0.025
X0.218 Y0.111 Z0.038
X0.18 Y0.131 Z0.05
X0.138 Y0.138 Z0.063
X0. Y0.
G0 Z15.
(THREAD1 2)
G0 X7.75 Y0.
Z15.
Z-4.063
G1 Z-6.063 F300.
X7.8 Y-0.05
X7.825 Y-0.043 Z-6.042
X7.843 Y-0.025 Z-6.021
X7.85 Y0. Z-6.
X7.842 Y0.039 Z-5.968
X7.82 Y0.072 Z-5.937
X7.787 Y0.093 Z-5.905
X7.748 Y0.1 Z-5.873
X7.709 Y0.091 Z-5.841
X7.677 Y0.068 Z-5.81
X7.656 Y0.034 Z-5.778
X7.65 Y-0.005 Z-5.746
X7.66 Y-0.043 Z-5.714
X7.684 Y-0.075 Z-5.683
X7.718 Y-0.095 Z-5.651
X7.757 Y-0.1 Z-5.619
X7.796 Y-0.089 Z-5.587
X7.827 Y-0.064 Z-5.556
X7.846 Y-0.029 Z-5.524
X7.85 Y0.01 Z-5.492
X7.838 Y0.048 Z-5.46
X7.812 Y0.078 Z-5.429
X7.777 Y0.096 Z-5.397
X7.738 Y0.099 Z-5.365
X7.7 Y0.087 Z-5.333
X7.67 Y0.06 Z-5.302
X7.653 Y0.025 Z-5.27
X7.651 Y-0.015 Z-5.238
X7.665 Y-0.052 Z-5.206
X7.692 Y-0.081 Z-5.175
X7.728 Y-0.097 Z-5.143
X7.767 Y-0.098 Z-5.111
X7.804 Y-0.084 Z-5.079
X7.833 Y-0.056 Z-5.048
X7.848 Y-0.02 Z-5.016
Y0.02 Z-4.984
X7.833 Y0.056 Z-4.952
X7.804 Y0.084 Z-4.921
X7.767 Y0.098 Z-4.889
X7.728 Y0.097 Z-4.857
X7.692 Y0.081 Z-4.825
X7.665 Y0.052 Z-4.794
X7.651 Y0.015 Z-4.762
X7.653 Y-0.025 Z-4.73
X7.67 Y-0.06 Z-4.698
X7.7 Y-0.087 Z-4.667
X7.738 Y-0.099 Z-4.635
X7.777 Y-0.096 Z-4.603
X7.812 Y-0.078 Z-4.571
X7.838 Y-0.048 Z-4.54
X7.85 Y-0.01 Z-4.508
X7.846 Y0.029 Z-4.476
X7.827 Y0.064 Z-4.444
X7.796 Y0.089 Z-4.413
X7.757 Y0.1 Z-4.381
X7.718 Y0.095 Z-4.349
X7.684 Y0.075 Z-4.317
X7.66 Y0.043 Z-4.286
X7.65 Y0.005 Z-4.254
X7.656 Y-0.034 Z-4.222
X7.677 Y-0.068 Z-4.19
X7.709 Y-0.091 Z-4.159
X7.748 Y-0.1 Z-4.127
X7.787 Y-0.093 Z-4.095
X7.82 Y-0.072 Z-4.063
X7.842 Y-0.039 Z-4.032
X7.85 Y0. Z-4.
X7.842 Y0.039 Z-3.968
X7.82 Y0.072 Z-3.937
X7.787 Y0.093 Z-3.905
X7.748 Y0.1 Z-3.873
X7.709 Y0.091 Z-3.841
X7.677 Y0.068 Z-3.81
X7.656 Y0.034 Z-3.778
X7.65 Y-0.005 Z-3.746
X7.66 Y-0.043 Z-3.714
X7.684 Y-0.075 Z-3.683
X7.718 Y-0.095 Z-3.651
X7.757 Y-0.1 Z-3.619
X7.796 Y-0.089 Z-3.587
X7.827 Y-0.064 Z-3.556
X7.846 Y-0.029 Z-3.524
X7.85 Y0.01 Z-3.492
X7.838 Y0.048 Z-3.46
X7.812 Y0.078 Z-3.429
X7.777 Y0.096 Z-3.397
X7.738 Y0.099 Z-3.365
X7.7 Y0.087 Z-3.333
X7.67 Y0.06 Z-3.302
X7.653 Y0.025 Z-3.27
X7.651 Y-0.015 Z-3.238
X7.665 Y-0.052 Z-3.206
X7.692 Y-0.081 Z-3.175
X7.728 Y-0.097 Z-3.143
X7.767 Y-0.098 Z-3.111
X7.804 Y-0.084 Z-3.079
X7.833 Y-0.056 Z-3.048
X7.848 Y-0.02 Z-3.016
Y0.02 Z-2.984
X7.833 Y0.056 Z-2.952
X7.804 Y0.084 Z-2.921
X7.767 Y0.098 Z-2.889
X7.728 Y0.097 Z-2.857
X7.692 Y0.081 Z-2.825
X7.665 Y0.052 Z-2.794
X7.651 Y0.015 Z-2.762
X7.653 Y-0.025 Z-2.73
X7.67 Y-0.06 Z-2.698
X7.7 Y-0.087 Z-2.667
X7.738 Y-0.099 Z-2.635
X7.777 Y-0.096 Z-2.603
X7.812 Y-0.078 Z-2.571
X7.838 Y-0.048 Z-2.54
X7.85 Y-0.01 Z-2.508
X7.846 Y0.029 Z-2.476
X7.827 Y0.064 Z-2.444
X7.796 Y0.089 Z-2.413
X7.757 Y0.1 Z-2.381
X7.718 Y0.095 Z-2.349
X7.684 Y0.075 Z-2.317
X7.66 Y0.043 Z-2.286
X7.65 Y0.005 Z-2.254
X7.656 Y-0.034 Z-2.222
X7.677 Y-0.068 Z-2.19
X7.709 Y-0.091 Z-2.159
X7.748 Y-0.1 Z-2.127
X7.787 Y-0.093 Z-2.095
X7.82 Y-0.072 Z-2.063
X7.842 Y-0.039 Z-2.032
X7.85 Y0. Z-2.
X7.842 Y0.039 Z-1.968
X7.82 Y0.072 Z-1.937
X7.787 Y0.093 Z-1.905
X7.748 Y0.1 Z-1.873
X7.709 Y0.091 Z-1.841
X7.677 Y0.068 Z-1.81
X7.656 Y0.034 Z-1.778
X7.65 Y-0.005 Z-1.746
X7.66 Y-0.043 Z-1.714
X7.684 Y-0.075 Z-1.683
X7.718 Y-0.095 Z-1.651
X7.757 Y-0.1 Z-1.619
X7.796 Y-0.089 Z-1.587
X7.827 Y-0.064 Z-1.556
X7.846 Y-0.029 Z-1.524
X7.85 Y0.01 Z-1.492
X7.838 Y0.048 Z-1.46
X7.812 Y0.078 Z-1.429
X7.777 Y0.096 Z-1.397
X7.738 Y0.099 Z-1.365
X7.7 Y0.087 Z-1.333
X7.67 Y0.06 Z-1.302
X7.653 Y0.025 Z-1.27
X7.651 Y-0.015 Z-1.238
X7.665 Y-0.052 Z-1.206
X7.692 Y-0.081 Z-1.175
X7.728 Y-0.097 Z-1.143
X7.767 Y-0.098 Z-1.111
X7.804 Y-0.084 Z-1.079
X7.833 Y-0.056 Z-1.048
X7.848 Y-0.02 Z-1.016
Y0.02 Z-0.984
X7.833 Y0.056 Z-0.952
X7.804 Y0.084 Z-0.921
X7.767 Y0.098 Z-0.889
X7.728 Y0.097 Z-0.857
X7.692 Y0.081 Z-0.825
X7.665 Y0.052 Z-0.794
X7.651 Y0.015 Z-0.762
X7.653 Y-0.025 Z-0.73
X7.67 Y-0.06 Z-0.698
X7.7 Y-0.087 Z-0.667
X7.738 Y-0.099 Z-0.635
X7.777 Y-0.096 Z-0.603
X7.812 Y-0.078 Z-0.571
X7.838 Y-0.048 Z-0.54
X7.85 Y-0.01 Z-0.508
X7.846 Y0.029 Z-0.476
X7.827 Y0.064 Z-0.444
X7.796 Y0.089 Z-0.413
X7.757 Y0.1 Z-0.381
X7.718 Y0.095 Z-0.349
X7.684 Y0.075 Z-0.317
X7.66 Y0.043 Z-0.286
X7.65 Y0.005 Z-0.254
X7.656 Y-0.034 Z-0.222
X7.677 Y-0.068 Z-0.19
X7.709 Y-0.091 Z-0.159
X7.748 Y-0.1 Z-0.127
X7.787 Y-0.093 Z-0.095
X7.82 Y-0.072 Z-0.063
X7.842 Y-0.039 Z-0.032
X7.85 Y0. Z0.
X7.843 Y0.025 Z0.021
X7.825 Y0.043 Z0.042
X7.8 Y0.05 Z0.063
X7.75 Y0.
G0 Z5.
Z-4.063
G1 Z-6.063 F300.
X7.9 Y-0.15
X7.946 Y-0.143 Z-6.05
X7.988 Y-0.121 Z-6.038
X8.021 Y-0.088 Z-6.025
X8.043 Y-0.046 Z-6.013
X8.05 Y0. Z-6.
G3 X7.45 Z-5.75 I-0.3 J0.
X8.05 Z-5.5 I0.3 J0.
X7.45 Z-5.25 I-0.3 J0.
X8.05 Z-5. I0.3 J0.
X7.45 Z-4.75 I-0.3 J0.
X8.05 Z-4.5 I0.3 J0.
X7.45 Z-4.25 I-0.3 J0.
X8.05 Z-4. I0.3 J0.
X7.45 Z-3.75 I-0.3 J0.
X8.05 Z-3.5 I0.3 J0.
X7.45 Z-3.25 I-0.3 J0.
X8.05 Z-3. I0.3 J0.
X7.45 Z-2.75 I-0.3 J0.
X8.05 Z-2.5 I0.3 J0.
X7.45 Z-2.25 I-0.3 J0.
X8.05 Z-2. I0.3 J0.
X7.45 Z-1.75 I-0.3 J0.
X8.05 Z-1.5 I0.3 J0.
X7.45 Z-1.25 I-0.3 J0.
X8.05 Z-1. I0.3 J0.
X7.45 Z-0.75 I-0.3 J0.
X8.05 Z-0.5 I0.3 J0.
X7.45 Z-0.25 I-0.3 J0.
X8.05 Z0. I0.3 J0.
G1 X8.043 Y0.046 Z0.013
X8.021 Y0.088 Z0.025
X7.988 Y0.121 Z0.038
X7.946 Y0.143 Z0.05
X7.9 Y0.15 Z0.063
X7.75 Y0.
G0 Z15.
(THREAD1 3)
G0 X15.5 Y0.
Z15.
Z-4.063
G1 Z-6.063 F300.
X15.563 Y-0.063
X15.586 Y-0.058 Z-6.047
X15.607 Y-0.044 Z-6.031
X15.62 Y-0.024 Z-6.016
X15.625 Y0. Z-6.
G3 X15.375 Z-5.75 I-0.125 J0.
X15.625 Z-5.5 I0.125 J0.
X15.375 Z-5.25 I-0.125 J0.
X15.625 Z-5. I0.125 J0.
X15.375 Z-4.75 I-0.125 J0.
X15.625 Z-4.5 I0.125 J0.
X15.375 Z-4.25 I-0.125 J0.
X15.625 Z-4. I0.125 J0.
X15.375 Z-3.75 I-0.125 J0.
X15.625 Z-3.5 I0.125 J0.
X15.375 Z-3.25 I-0.125 J0.
X15.625 Z-3. I0.125 J0.
X15.375 Z-2.75 I-0.125 J0.
X15.625 Z-2.5 I0.125 J0.
X15.375 Z-2.25 I-0.125 J0.
X15.625 Z-2. I0.125 J0.
X15.375 Z-1.75 I-0.125 J0.
X15.625 Z-1.5 I0.125 J0.
X15.375 Z-1.25 I-0.125 J0.
X15.625 Z-1. I0.125 J0.
X15.375 Z-0.75 I-0.125 J0.
X15.625 Z-0.5 I0.125 J0.
X15.375 Z-0.25 I-0.125 J0.
X15.625 Z0. I0.125 J0.
G1 X15.62 Y0.024 Z0.016
X15.607 Y0.044 Z0.031
X15.586 Y0.058 Z0.047
X15.563 Y0.063 Z0.063
X15.5 Y0.
G0 Z5.
Z-4.063
G1 Z-6.063 F300.
X15.663 Y-0.162
X15.705 Y-0.157 Z-6.052
X15.744 Y-0.141 Z-6.042
X15.777 Y-0.115 Z-6.031
X15.803 Y-0.081 Z-6.021
X15.819 Y-0.042 Z-6.01
X15.825 Y0. Z-6.
G3 X15.175 Z-5.75 I-0.325 J0.
X15.825 Z-5.5 I0.325 J0.
X15.175 Z-5.25 I-0.325 J0.
X15.825 Z-5. I0.325 J0.
X15.175 Z-4.75 I-0.325 J0.
X15.825 Z-4.5 I0.325 J0.
X15.175 Z-4.25 I-0.325 J0.
X15.825 Z-4. I0.325 J0.
X15.175 Z-3.75 I-0.325 J0.
X15.825 Z-3.5 I0.325 J0.
X15.175 Z-3.25 I-0.325 J0.
X15.825 Z-3. I0.325 J0.
X15.175 Z-2.75 I-0.325 J0.
X15.825 Z-2.5 I0.325 J0.
X15.175 Z-2.25 I-0.325 J0.
X15.825 Z-2. I0.325 J0.
X15.175 Z-1.75 I-0.325 J0.
X15.825 Z-1.5 I0.325 J0.
X15.175 Z-1.25 I-0.325 J0.
X15.825 Z-1. I0.325 J0.
X15.175 Z-0.75 I-0.325 J0.
X15.825 Z-0.5 I0.325 J0.
X15.175 Z-0.25 I-0.325 J0.
X15.825 Z0. I0.325 J0.
G1 X15.819 Y0.042 Z0.01
X15.803 Y0.081 Z0.021
X15.777 Y0.115 Z0.031
X15.744 Y0.141 Z0.042
X15.705 Y0.157 Z0.052
X15.663 Y0.162 Z0.063
X15.5 Y0.
G0 Z15.
(THREAD1 4)
G0 X23.25 Y0.
Z15.
Z-4.063
G1 Z-6.063 F300.
X23.325 Y-0.075
X23.354 Y-0.069 Z-6.047
X23.378 Y-0.053 Z-6.031
X23.394 Y-0.029 Z-6.016
X23.4 Y0. Z-6.
G3 X23.1 Z-5.75 I-0.15 J0.
X23.4 Z-5.5 I0.15 J0.
X23.1 Z-5.25 I-0.15 J0.
X23.4 Z-5. I0.15 J0.
X23.1 Z-4.75 I-0.15 J0.
X23.4 Z-4.5 I0.15 J0.
X23.1 Z-4.25 I-0.15 J0.
X23.4 Z-4. I0.15 J0.
X23.1 Z-3.75 I-0.15 J0.
X23.4 Z-3.5 I0.15 J0.
X23.1 Z-3.25 I-0.15 J0.
X23.4 Z-3. I0.15 J0.
X23.1 Z-2.75 I-0.15 J0.
X23.4 Z-2.5 I0.15 J0.
X23.1 Z-2.25 I-0.15 J0.
X23.4 Z-2. I0.15 J0.
X23.1 Z-1.75 I-0.15 J0.
X23.4 Z-1.5 I0.15 J0.
X23.1 Z-1.25 I-0.15 J0.
X23.4 Z-1. I0.15 J0.
X23.1 Z-0.75 I-0.15 J0.
X23.4 Z-0.5 I0.15 J0.
X23.1 Z-0.25 I-0.15 J0.
X23.4 Z0. I0.15 J0.
G1 X23.394 Y0.029 Z0.016
X23.378 Y0.053 Z0.031
X23.354 Y0.069 Z0.047
X23.325 Y0.075 Z0.063
X23.25 Y0.
G0 Z5.
Z-4.063
G1 Z-6.063 F300.
X23.425 Y-0.175
X23.47 Y-0.169 Z-6.052
X23.512 Y-0.152 Z-6.042
X23.549 Y-0.124 Z-6.031
X23.577 Y-0.088 Z-6.021
X23.594 Y-0.045 Z-6.01
X23.6 Y0. Z-6.
G3 X22.9 Z-5.75 I-0.35 J0.
X23.6 Z-5.5 I0.35 J0.
X22.9 Z-5.25 I-0.35 J0.
X23.6 Z-5. I0.35 J0.
X22.9 Z-4.75 I-0.35 J0.
X23.6 Z-4.5 I0.35 J0.
X22.9 Z-4.25 I-0.35 J0.
X23.6 Z-4. I0.35 J0.
X22.9 Z-3.75 I-0.35 J0.
X23.6 Z-3.5 I0.35 J0.
X22.9 Z-3.25 I-0.35 J0.
X23.6 Z-3. I0.35 J0.
X22.9 Z-2.75 I-0.35 J0.
X23.6 Z-2.5 I0.35 J0.
X22.9 Z-2.25 I-0.35 J0.
X23.6 Z-2. I0.35 J0.
X22.9 Z-1.75 I-0.35 J0.
X23.6 Z-1.5 I0.35 J0.
X22.9 Z-1.25 I-0.35 J0.
X23.6 Z-1. I0.35 J0.
X22.9 Z-0.75 I-0.35 J0.
X23.6 Z-0.5 I0.35 J0.
X22.9 Z-0.25 I-0.35 J0.
X23.6 Z0. I0.35 J0.
G1 X23.594 Y0.045 Z0.01
X23.577 Y0.088 Z0.021
X23.549 Y0.124 Z0.031
X23.512 Y0.152 Z0.042
X23.47 Y0.169 Z0.052
X23.425 Y0.175 Z0.063
X23.25 Y0.
G0 Z15.
M500
G53 G0 Z0.
M30
%
